/* XPM */
static char * death_2_xpm[] = {
"43 31 3 1",
" 	c None",
".	c #000000",
"+	c #D22F1E",
"                     .. ..                 ",
"                    .+. .+.                ",
"                    .+. .+.                ",
"                   .+++.++.                ",
"                  .+++++++.                ",
"                  .+++++++.                ",
"                  .++++++++.               ",
"                  .+++++++++.              ",
"                 .++++++++++.              ",
"                 .++++++.+++.              ",
"                 .++++++....               ",
"                 .++++++.                  ",
"  ..            .++++++++.                 ",
" .++.     ......+++++++++.                 ",
" .+++.....+++++++++++++++.                 ",
"  .++++++++++++++++++++++.                 ",
"   .+++++++++++++++++++++.                 ",
"   .++++++++++++++++++++++.                ",
"   .++++++++++++++++++++++.                ",
"   .++++++++++++++++++++++.                ",
"  .+++++++++++++++++++++++.                ",
"  .+++++++..++++++++..++++.                ",
" .+++++++.  .....+++. .++++.               ",
".+++++++.       .+++.  .+++.               ",
".+++.+++.        .++.  .+++.               ",
".++. .++.        .++.   .++.               ",
".++. .+++.       .++.   .++.               ",
" .++. .+++.      .+++.  .++.               ",
" .++.  .++.       .++.  .+++.              ",
"  .++. .+++.      .++.   .++.              ",
"  .++.  .++.      .++.   .++.              "};
