/* XPM */
static char * death_5_xpm[] = {
"42 31 5 1",
" 	c None",
".	c #000000",
"+	c #FF8142",
"@	c #D22F1E",
"#	c #222A5C",
"                                          ",
"                                          ",
"                                          ",
"                                          ",
"                                          ",
"                                          ",
"                                          ",
"                                          ",
"                                          ",
"                                          ",
"                                          ",
"                                          ",
"                                          ",
"                                          ",
"                                          ",
"                                          ",
"                                          ",
"                                          ",
"                                          ",
"                                          ",
"                               ..  ..     ",
"                               .+. .@.    ",
"                      ....      .+. .@.   ",
"          ..       ...####..    .++..@@.  ",
"         .##..  ...#########..  .######.  ",
"         .####..##############..########. ",
"          .########################++##...",
"        ...#####################+++++++...",
"........#########....+#########++++++++++.",
".++++###+#######.+++++++####+++++........ ",
".+++++++####.....+++++######.....         "};
