/* XPM */
static char * death_2_xpm[] = {
"37 24 6 1",
" 	c None",
".	c #000000",
"+	c #FF8142",
"@	c #D22F1E",
"#	c #222A5C",
"$	c #38002C",
"                          ..  ..     ",
"                          .+. .@.    ",
"                           .+. .@.   ",
"                           .++..@@.  ",
"                          .+#####@.  ",
"                          .+######.  ",
"                         .#########. ",
"                       ..######++#...",
"   ..              ....#######++++...",
"  .##..     .......##########+++++++.",
"  .####.....################++++.... ",
"   ..#######################++..     ",
"     .#####################++.       ",
"     .#####################$.        ",
"     .###############+####@$.        ",
"     .###############++###@$.        ",
"    .#################+##@$$.        ",
"   .######$$..########...$$$.        ",
"  .######$$.  .....###. .$$$.        ",
"  .#####$$.       .##.   .$$.        ",
" .+##..@$.        .++.  .@@$.        ",
" .++. .@@.       .++.   .@@.         ",
".+++. .@@.      .+++.  .@@@.         ",
".++.  .@@.      .++.   .@@.          "};
