/* XPM */
static char * death_4_xpm[] = {
"43 9 5 1",
" 	c None",
".	c #000000",
"+	c #FF8142",
"@	c #D22F1E",
"#	c #222A5C",
"                                   .. ..   ",
"           ..       .......       .+. .@.  ",
"          .##.   ...#######..     .+. .@.  ",
"          .###...############..  .++..@@.  ",
"           .###################..+######.  ",
"        ...##############################. ",
"........#########.....+#############++##...",
".++++###+#######.+++++##########++++++++...",
".+++++++####.....+++++++#####+++++++++++++."};
