/* XPM */
static char *result[] = {
/* columns rows colors chars-per-pixel */
"50 50 183 2 ",
"   c #050303",
".  c #0C0505",
"X  c #0B060A",
"o  c #0E080C",
"O  c #050D05",
"+  c #14070E",
"@  c #130B0C",
"#  c #1A0A0E",
"$  c #021F0E",
"%  c #1B120D",
"&  c #0F0F19",
"*  c #150B13",
"=  c #1B0C12",
"-  c #150E19",
";  c #1B0F1A",
":  c #13111A",
">  c #1C121D",
",  c #2B0D0D",
"<  c #230D0B",
"1  c #28160E",
"2  c #3B160C",
"3  c #2A0C13",
"4  c #291212",
"5  c #241917",
"6  c #24131B",
"7  c #2A141C",
"8  c #261217",
"9  c #311215",
"0  c #31151E",
"q  c #3B151A",
"w  c #321D18",
"e  c #02271D",
"r  c #1F291E",
"t  c #003611",
"y  c #01351C",
"u  c #023B1E",
"i  c #36230D",
"p  c #282218",
"a  c #0A1820",
"s  c #251623",
"d  c #2C1424",
"f  c #2C1A25",
"g  c #2D1A29",
"h  c #341A22",
"j  c #331D2C",
"k  c #3A1E2B",
"l  c #391C24",
"z  c #0C212B",
"x  c #11252A",
"c  c #033B22",
"v  c #10342B",
"b  c #0C2F35",
"n  c #053D3D",
"m  c #0E393A",
"M  c #103337",
"N  c #202124",
"B  c #3C212F",
"V  c #3C2420",
"C  c #363321",
"Z  c #3C2131",
"A  c #451B1E",
"S  c #492918",
"D  c #432518",
"F  c #5F241E",
"G  c #57291C",
"H  c #401F2B",
"J  c #481B24",
"K  c #541F26",
"L  c #561D2C",
"P  c #5B132A",
"I  c #671935",
"U  c #751A3B",
"Y  c #44222C",
"T  c #542124",
"R  c #582327",
"E  c #483029",
"W  c #4F3527",
"Q  c #5E3424",
"!  c #442433",
"~  c #4C2634",
"^  c #4C2933",
"/  c #4E293A",
"(  c #532935",
")  c #542C3A",
"_  c #5C2E3D",
"`  c #542935",
"'  c #4C3734",
"]  c #5E313E",
"[  c #513D30",
"{  c #66242F",
"}  c #6F392A",
"|  c #7B362A",
" . c #642432",
".. c #602D3A",
"X. c #792139",
"o. c #61313F",
"O. c #783335",
"+. c #00421F",
"@. c #1F411F",
"#. c #004421",
"$. c #004C23",
"%. c #014B2C",
"&. c #104924",
"*. c #00522A",
"=. c #07463E",
"-. c #04593D",
";. c #055639",
":. c #006834",
">. c #006C3C",
",. c #01743E",
"<. c #266D3E",
"1. c #5B4535",
"2. c #55543F",
"3. c #6A4029",
"4. c #6D463A",
"5. c #4B3F41",
"6. c #513D40",
"7. c #633442",
"8. c #693442",
"9. c #743746",
"0. c #034A4C",
"q. c #174F41",
"w. c #025C4C",
"e. c #025348",
"r. c #014D50",
"t. c #005650",
"y. c #005C51",
"u. c #01624C",
"i. c #006C4D",
"p. c #016842",
"a. c #007740",
"s. c #007B41",
"d. c #00724C",
"f. c #007D4D",
"g. c #0B784A",
"h. c #327346",
"j. c #6A5140",
"k. c #755944",
"l. c #89362C",
"z. c #82203E",
"x. c #814228",
"c. c #9E4934",
"v. c #964338",
"b. c #8D5D3A",
"n. c #A84838",
"m. c #A9513C",
"M. c #961F46",
"N. c #932344",
"B. c #A1234E",
"V. c #B92C58",
"C. c #C4305F",
"Z. c #974943",
"A. c #815A51",
"S. c #A35F46",
"D. c #85654E",
"F. c #9E6644",
"G. c #8B6854",
"H. c #926E56",
"J. c #95725A",
"K. c #A56C46",
"L. c #AC744A",
"P. c #997660",
"I. c #CD5B58",
"U. c #DC6F62",
"Y. c #008446",
"T. c #00834B",
"R. c #00894C",
"E. c #088449",
"W. c #008D50",
"Q. c #AD8566",
"!. c #BE8E70",
"~. c #BC9878",
"^. c #D08D58",
"/. c #C29475",
"(. c #C89A77",
"). c #E58A65",
"_. c #EC9F66",
"`. c #D9AB86",
"'. c #E8B288",
"]. c #F1B88B",
"[. c #F0B78A",
"{. c #E2B892",
"}. c None",
/* pixels */
"}.}.}.}.}.}.}.}.}.}.}.}.}.}.}.}.}.}.}.}.}.}.}.}.}.}.}.}.}.}.}.}.}.}.}.}.}.}.}.}.}.}.}.}.}.}.}.}.}.}.",
"}.}.}.}.}.}.}.}.}.}.}.}.}.}.}.}.}.}.}.}.}.}.}.}.}.}.}.}.}.}.}.}.}.}.}.}.}.}.}.}.}.}.}.}.}.}.}.}.}.}.",
"}.}.}.}.}.}.}.}.}.}.}.}.}.}.}.}.}.}.}.}.}.}.}.}.}.}.}.}.}.}.}.}.}.}.}.}.}.}.}.}.}.}.}.}.}.}.}.}.}.}.",
"}.}.}.}.}.}.}.}.}.}.}.}.}.}.}.}.}.}.}.}.}.}.}.}.}.}.{ q .     }.}.}.}.}.}.}.}.}.}.}.}.}.}.}.}.}.}.}.",
"}.}.}.}.}.}.}.}.}.}.}.}.}.}.}.}.}.}.}.}.}.}.}.}.}. . .q , 9 9 9 }.}.}.}.}.}.}.}.}.}.}.}.}.}.}.}.}.}.",
"}.}.}.}.}.}.}.}.}.}.}.}.}.}.}.}.}.}.}.}.}.}.}.}.P I L K K K J J }.}.}.}.}.}.}.}.}.}.}.}.}.}.}.}.}.}.",
"}.}.}.}.}.}.}.}.}.}.}.}.}.}.}.}.}.}.}.}.}.}.}.U B.N.X.{ K A V E }.}.}.}.}.}.}.}.}.}.}.}.}.}.}.}.}.}.",
"}.}.}.}.}.}.}.}.}.}.}.}.}.}.}.}.}.}.}.}.}.}.}.C.V.M.X.L 4 1.J.H.}.}.}.}.}.}.}.}.}.}.}.}.}.}.}.}.}.}.",
"}.}.}.}.}.}.}.}.}.}.}.}.}.}.}.}.}.}.}.}.}.}.}.V.X.6.5.h [ Q.`.!.}.}.}.}.}.}.}.}.}.}.}.}.}.}.}.}.}.}.",
"}.}.}.}.}.}.}.}.}.}.}.}.}.}.}.}.}.}.}.}.}.}.}.}.5 e.;.r D.'.[./.}.}.}.}.}.}.}.}.}.}.}.}.}.}.}.}.}.}.",
"}.}.}.}.}.}.}.}.}.}.}.}.}.}.}.}.}.}.}.}.}.}.}.}.}.c y p H.[.[.!.}.}.}.}.}.}.}.}.}.}.}.}.}.}.}.}.}.}.",
"}.}.}.}.}.}.}.}.}.}.}.}.}.}.}.}.}.}.}.}.}.}.}.}.}.  % j./.'.(.H.}.}.}.}.}.}.}.}.}.}.}.}.}.}.}.}.}.}.",
"}.}.}.}.}.}.}.}.}.}.}.}.}.}.}.}.}.}.}.}.}.}.}.}.}.. [ ~.{.(.k.[ }.}.}.}.}.}.}.}.}.}.}.}.}.}.}.}.}.}.",
"}.}.}.}.}.}.}.}.}.}.}.}.}.}.}.}.}.}.}.}.}.}.}.}.h f D.`./.}.}.}.}.}.}.}.}.}.}.}.}.}.}.}.}.}.}.}.}.}.",
"}.}.}.}.}.}.}.}.}.}.}.}.}.}.}.}.}.}.}.}.}.}.}.Y ) ` A.P.}.}.}.}.}.}.}.}.}.}.}.}.}.}.}.}.}.}.}.}.}.}.",
"}.}.}.}.}.}.}.}.}.}.}.}.}.}.}.}.}.}.}.}.}.}.8 ` 8.8.^ 5 }.}.}.}.}.}.}.}.}.}.}.}.}.}.}.}.}.}.}.}.}.}.",
"}.}.}.}.}.}.}.}.}.}.}.}.}.}.}.}.}.}.}.}.}.}.6 ~ 8._ d   X }.}.}.}.}.}.}.}.}.}.}.}.}.}.}.}.}.}.}.}.}.",
"}.}.}.}.}.}.}.}.}.}.}.}.}.}.}.}.}.}.}.}.}.h 7 Y 7.Y + X o @ }.}.}.}.}.}.}.}.}.}.}.}.}.}.}.}.}.}.}.}.",
"}.}.}.}.}.}.}.}.}.}.}.}.}.}.}.}.}.}.}.}.}.` h 0 ~ k o   o o }.}.}.}.}.}.}.}.}.}.}.}.}.}.}.}.}.}.}.}.",
"}.}.}.}.}.}.}.}.}.}.}.}.}.}.}.}.}.}.}.}.` ` k 7 f k 6 o X X }.}.}.}.}.}.}.}.}.}.}.}.}.}.}.}.}.}.}.}.",
"}.}.}.}.}.}.}.}.}.}.}.}.}.}.}.}.}.}.}.H ) k H ~ d s f = . X }.}.}.}.}.}.}.}.}.}.}.}.}.}.}.}.}.}.}.}.",
"}.}.}.}.}.}.}.}.}.}.}.}.}.}.}.}.}.}.h ` ~ 6 j _ ` h > @   X }.}.}.}.}.}.}.}.}.}.}.}.}.}.}.}.}.}.}.}.",
"}.}.}.}.}.}.}.}.}.}.}.}.}.}.}.}.}.8 ` _ Z - > ~ 7.` Y 7 . }.}.}.}.}.}.}.}.}.}.}.}.}.}.}.}.}.}.}.}.}.",
"}.}.}.}.}.}.}.}.}.}.}.}.}.}.}.}.}.# H ~ g ; - k / ..8...0 }.}.}.}.}.}.}.}.}.}.}.}.}.}.}.}.}.}.}.}.}.",
"}.}.}.}.}.}.}.}.}.}.}.}.}.}.}.}.}.  # 6 - + o - k ) 8.9.}.}.}.}.}.}.}.}.}.}.}.}.}.}.}.}.}.}.}.}.}.}.",
"}.}.}.}.}.}.}.}.}.}.}.}.}.}.}.}.}.. 6 h 7 - o X - g ! ` h }.}.}.}.}.}.}.}.}.}.}.}.}.}.}.}.}.}.}.}.}.",
"}.}.}.}.}.}.}.}.}.}.}.}.}.}.}.}.}.h _ ..~ g > o   X + = +   }.}.}.}.}.}.}.}.}.}.}.}.}.}.}.}.}.}.}.}.",
"}.}.}.}.}.}.}.}.}.}.}.}.}.}.}.}.}.) 8.6.! j s - 1 4 1 4 < . }.}.}.}.}.}.}.}.}.}.}.}.}.}.}.}.}.}.}.}.",
"}.}.}.}.}.}.}.}.}.}.}.}.}.}.}.}.}.7.7.] ! g > D b.K.S.Z.v.T }.}.}.}.}.}.}.}.}.}.}.}.}.}.}.}.}.}.}.}.",
"}.}.}.}.}.}.}.}.}.}.}.}.}.}.}.}.}.7.] ) ! g - } ^._.).U.I.O.}.}.}.}.}.}.}.}.}.}.}.}.}.}.}.}.}.}.}.}.",
"}.}.}.}.}.}.}.}.}.}.}.}.}.}.}.}.H 7.] ` Z g - W F.L.S.Z.Z.R }.}.}.}.}.}.}.}.}.}.}.}.}.}.}.}.}.}.}.}.",
"}.}.}.}.}.}.}.}.}.}.}.}.}.}.}.# Y 6._ ~ B f ; ; J I P 3 6 }.}.}.}.}.}.}.}.}.}.}.}.}.}.}.}.}.}.}.}.}.",
"}.}.}.}.}.}.}.}.}.}.}.}.}.}.}.= Y 7.) ! Z g > d I M.U C }.}.}.}.}.}.}.}.}.}.}.}.}.}.}.}.}.}.}.}.}.}.",
"}.}.}.}.}.}.}.}.}.}.}.}.}.}.}.8 ~ 7.) Z g s - d U N.4.<.%.}.}.}.}.}.}.}.}.}.}.}.}.}.}.}.}.}.}.}.}.}.",
"}.}.}.}.}.}.}.}.}.}.}.}.}.}.}.l ..7./ Z g s : s ' 2.h.E.*.}.}.}.}.}.}.}.}.}.}.}.}.}.}.}.}.}.}.}.}.}.",
"}.}.}.}.}.}.}.}.}.}.}.}.}.}.}.Y 8.6.! Z g > : b q.g.R.E.*.}.}.}.}.}.}.}.}.}.}.}.}.}.}.}.}.}.}.}.}.}.",
"}.}.}.}.}.}.}.}.}.}.}.}.}.}.}.( 8.7.! k d 6 - b e.f.R.Y.*.}.}.}.}.}.}.}.}.}.}.}.}.}.}.}.}.}.}.}.}.}.",
"}.}.}.}.}.}.}.}.}.}.}.}.}.}.}.( 8.` Z j s ; - M w.f.R.T.*.}.}.}.}.}.}.}.}.}.}.}.}.}.}.}.}.}.}.}.}.}.",
"}.}.}.}.}.}.}.}.}.}.}.}.}.}.@ h ` H j j s > - m u.f.R.E.*.}.}.}.}.}.}.}.}.}.}.}.}.}.}.}.}.}.}.}.}.}.",
"}.}.}.}.}.}.}.}.}.}.}.}.}.}.e v x 7 s f s ; - 0.i.f.W.Y.*.}.}.}.}.}.}.}.}.}.}.}.}.}.}.}.}.}.}.}.}.}.",
"}.}.}.}.}.}.}.}.}.}.}.}.}.}.%.u.e.n x > > * & ;.f.T.R.>.}.}.}.}.}.}.}.}.}.}.}.}.}.}.}.}.}.}.}.}.}.}.",
"}.}.}.}.}.}.}.}.}.}.}.}.}.y >.R.i.y.e.n b z a ;.f.T.T.*.}.}.}.}.}.}.}.}.}.}.}.}.}.}.}.}.}.}.}.}.}.}.",
"}.}.}.}.}.}.}.}.}.}.}.}.}.c a.W.f.i.w.t.r.0.0.p.f.T.,.y }.}.}.}.}.}.}.}.}.}.}.}.}.}.}.}.}.}.}.}.}.}.",
"}.}.}.}.}.}.}.}.}.}.}.}.}.}.&.a.R.T.d.u.u.u.p.T.T.T.;.$ }.}.}.}.}.}.}.}.}.}.}.}.}.}.}.}.}.}.}.}.}.}.",
"}.}.}.}.}.}.}.}.}.}.}.}.}.}.D @.,.W.R.Y.f.f.T.T.T.,.y O }.}.}.}.}.}.}.}.}.}.}.}.}.}.}.}.}.}.}.}.}.}.",
"}.}.}.}.}.}.}.}.}.}.}.}.}.}.F w +.,.Y.Y.R.R.R.T.,.$.O . }.}.}.}.}.}.}.}.}.}.}.}.}.}.}.}.}.}.}.}.}.}.",
"}.}.}.}.}.}.}.}.}.}.}.}.}.}.G S i t +.:.a.s.a.>.}.  < G }.}.}.}.}.}.}.}.}.}.}.}.}.}.}.}.}.}.}.}.}.}.",
"}.}.}.}.}.}.}.}.}.}.}.}.}.}.Q x.x.2 }.}.*.*.+.}.}.< F c.m.} }.}.}.}.}.}.}.}.}.}.}.}.}.}.}.}.}.}.}.}.",
"}.}.}.}.}.}.}.}.}.}.}.}.}.}.| c.m.| }.}.}.}.}.}.}.F l.n.n.| }.}.}.}.}.}.}.}.}.}.}.}.}.}.}.}.}.}.}.}.",
"}.}.}.}.}.}.}.}.}.}.}.}.}.}.}.}.}.}.}.}.}.}.}.}.}.}.}.}.}.}.}.}.}.}.}.}.}.}.}.}.}.}.}.}.}.}.}.}.}.}."
};
