/* XPM */
static char *result[] = {
/* columns rows colors chars-per-pixel */
"50 50 177 2 ",
"   c #040405",
".  c #0D0407",
"X  c #040D06",
"o  c #06070A",
"O  c #080408",
"+  c #120807",
"@  c #13070B",
"#  c #1B0A0A",
"$  c #130508",
"%  c #011209",
"&  c #0E0A12",
"*  c #170D16",
"=  c #1C0C13",
"-  c #160E1A",
";  c #0C1415",
":  c #14121C",
">  c #1B111B",
",  c #171015",
"<  c #240E0E",
"1  c #210207",
"2  c #230C13",
"3  c #2A0F10",
"4  c #290C18",
"5  c #300F19",
"6  c #24131D",
"7  c #2A141C",
"8  c #291A18",
"9  c #31141C",
"0  c #311B1B",
"q  c #3F151C",
"w  c #03241A",
"e  c #052A18",
"r  c #003017",
"t  c #22351F",
"y  c #0D1F20",
"u  c #1E1320",
"i  c #231623",
"p  c #2C1523",
"a  c #271926",
"s  c #2D1926",
"d  c #271828",
"f  c #2B1A28",
"g  c #251728",
"h  c #321722",
"j  c #351A26",
"k  c #3C1D26",
"l  c #331C2A",
"z  c #3D1C2B",
"x  c #381422",
"c  c #0D2428",
"v  c #032325",
"b  c #16232A",
"n  c #1B2428",
"m  c #023B23",
"M  c #013D2B",
"N  c #0C3025",
"B  c #053E36",
"V  c #093536",
"C  c #1F3F3F",
"Z  c #113E34",
"A  c #3E212D",
"S  c #372324",
"D  c #27352C",
"F  c #3A312D",
"G  c #373D3B",
"H  c #52081D",
"J  c #47181F",
"K  c #431E2B",
"L  c #491725",
"P  c #511A23",
"I  c #511F29",
"U  c #5D1934",
"Y  c #531B32",
"T  c #7C1E3F",
"R  c #44222E",
"E  c #482525",
"W  c #5C212C",
"Q  c #452331",
"!  c #4B2633",
"~  c #4C2836",
"^  c #522435",
"/  c #542936",
"(  c #522738",
")  c #552B3A",
"_  c #5B2D3C",
"`  c #493638",
"'  c #5F313F",
"]  c #612F3E",
"[  c #73233A",
"{  c #782435",
"}  c #63313F",
"|  c #004623",
" . c #04402F",
".. c #164021",
"X. c #015029",
"o. c #1E5027",
"O. c #044B3D",
"+. c #034838",
"@. c #18413F",
"#. c #025A38",
"$. c #295437",
"%. c #006835",
"&. c #006B3B",
"*. c #00663C",
"=. c #01743E",
"-. c #5A4236",
";. c #6A4A21",
":. c #781C42",
">. c #5D3241",
",. c #622C41",
"<. c #613140",
"1. c #044B41",
"2. c #164340",
"3. c #025544",
"4. c #015848",
"5. c #015448",
"6. c #3F4349",
"7. c #006A47",
"8. c #016C49",
"9. c #007341",
"0. c #0B7343",
"q. c #007E46",
"w. c #007C49",
"e. c #017448",
"r. c #765847",
"t. c #7F5E4E",
"y. c #5F6767",
"u. c #A46B2E",
"i. c #A56B3B",
"p. c #871C4B",
"a. c #A62757",
"s. c #895248",
"d. c #A6474A",
"f. c #B04C49",
"g. c #BA5646",
"h. c #B45852",
"j. c #836653",
"k. c #886A58",
"l. c #976F59",
"z. c #977059",
"x. c #A17857",
"c. c #A8795F",
"v. c #9D7863",
"b. c #9A7660",
"n. c #A17A63",
"m. c #C75E59",
"M. c #C86C4C",
"N. c #D1794C",
"B. c #D96E5D",
"V. c #008146",
"C. c #008847",
"Z. c #008249",
"A. c #008A4A",
"S. c #A9846C",
"D. c #B2866C",
"F. c #B98A6E",
"G. c #CA8143",
"H. c #DF8D4F",
"J. c #E29246",
"K. c #E38259",
"L. c #F19752",
"P. c #C28F73",
"I. c #C89779",
"U. c #D8A27F",
"Y. c #949EA8",
"T. c #9EA8AD",
"R. c #99A6B1",
"E. c #D6A080",
"W. c #DFA581",
"Q. c #B2C2B9",
"!. c #BBC8D0",
"~. c #C2CDCE",
"^. c #C1CCD4",
"/. c #D9E5DF",
"(. c #EFFAED",
"). c #EFF3F2",
"_. c None",
/* pixels */
"_._._._._._._._._._._._._._._._._._._._._._._._._._._._._._._._._._._._._._._._._._._._._._._._._._.",
"_._._._._._._._._._._._._._._._._._._._._._._._._._._._._._._._._._._._._._._._._._._._._._._._._._.",
"_._._._._._._._._._._._._._._._._._._._._._._._._._._._._._._._._._._._._._._._._._._._._._._._._._.",
"_._._._._._._._._._._._._._._._._._._._._._._._._._._._._._._._._._._._._._._._._._._._._._._._._._.",
"_._._._._._._._._._._._._._._._._._._._._._._._._._._._._._._._._._._._._._._._._._._._._._._._._._.",
"_._._._._._._._._._._._._._._._._._._._._._._._._._._._._._._._._._._._._._._._._._._._._._._._._._.",
"_._._._._._._._._._._._._._._._._._._._._._._._._._._._._._._._._._._._._._._._._._._._._._._._._._.",
"_._._._._._._._._._._._._._._._._._._._._._._._._._._._._._._._._._._._._._._._._._._._._._._._._._.",
"_._._._._._._._._._._._._._._._._._._._._._._._._._._._._._._._._._._._._._._._._._._._._._._._._._.",
"_._._._._._._._._._._._._._._._._._._._._._._._._._._._._._._._._._._._._._._._._._._._._._._._._._.",
"_._._._._._._._._._._._._._._._._._._._._._._._._._._._._._._._._._._._._._._._._._._._._._._._._._.",
"_._._._._._._._._._._._._._._._._._._._._._._._._._._._._._._._._._._._._._._._._._._._._._._._._._.",
"_._._._._._._._._._._._._._._._._._._._._._._._._._._._._._._._._._._._._._._._._._._._._._._._._._.",
"_._._._._._._._._._._._._._._._._._._._._._._._._._._._._._._._._._._._._._._._._._._._._._._._._._.",
"_._._._._._._._._._._._._._._._._._._._._._._._._._._._._._._._._._._._._._._._._._._._._._._._._._.",
"_._._._._._._._._._._._._._._._._._._._._._._._._._.3 # .     _._._._._._._._._._._._._._._._._._._.",
"_._._._._._._._._._._._._._._._._._._._._._._._._.< 3 # + < 3 J P _._._._._._._._._._._._._._._._._.",
"_._._._._._._._._._._._._._._._._._._._._._._._.2 L h 7 P U E W P _._._._._._._._._._._._._._._._._.",
"_._._._._._._._._._._._._._._._._._._._._._._._.:.p.U [ { P 9 0 8 _._._._._._._._._._._._._._._._._.",
"_._._._._._._._._._._._._._._._._._._._._._._._.a.p.:.T J 0 z.z.r._._._._._._._._._._._._._._._._._.",
"_._._._._._._._._._._._._._._._._._._._._._._._.:.( ` S + s.F.F.b._._._._._._._._._._._._._._._._._.",
"_._._._._._._._._._._._._._._._._._._._._._._._.9 D O.N S n.D.F.v._._._._._._._._._._._._._._._._._.",
"_._._._._._._._._._._._._._._._._._._._._._._._._.e  .w -.D.E.F.b._._._._._._._._._._._._._._._._._.",
"_._._._._._._._._._._._._._._._._._._._._._._._._.X % 8 n.W.E.S.k._._._._._._._._._._._._._._._._._.",
"_._._._._._._._._._._._._._._._._._._._._._._._._._.. ` I.U.c.j.j._._._._._._._._._._._._._._._._._.",
"_._._._._._._._._._._._._._._._._._._._._._._._._.K ! h -.j._._._._._._._._._._._._._._._._._._._._.",
"_._._._._._._._._._._._._._._._._._._._._._._._.K ^ <.( = _._._._._._._._._._._._._._._._._._._._._.",
"_._._._._._._._._._._._._._._._._._._._._._._.= R ) ~ >.R _._._._._._._._._._._._._._._._._._._._._.",
"_._._._._._._._._._._._._._._._._._._._._._._.7 l f ! <.R _._._._._._._._._._._._._._._._._._._._._.",
"_._._._._._._._._._._._._._._._._._._._._._.h / l i Q >.R _._._._._._._._._._._._._._._._._._._._._.",
"_._._._._._._._._._._._._._._._._._._._._.7 / _ f i A >.! _._._._._._._._._._._._._._._._._._._._._.",
"_._._._._._._._._._._._._._._._._._._._.7 ~ ] ) f i S ' ! _._._._._._._._._._._._._._._._._._._._._.",
"_._._._._._._._._._._._._._._._._._._.2 ( ] _ Q g i f _ / 2 _._._._._._._._._._._._._._._._._._._._.",
"_._._._._._._._._._._._._._._._._._.= R ,._ ~ f g i g ) _ 3 _._._._._._._._._._._._._._._._._._._._.",
"_._._._._._._._._._._._._._._._._._.l / ! z l g d i i ~ _ 9 _._._._._._._._._._._._._._._._._._._._.",
"_._._._._._._._._._._._._._._._._._.O O   o u g d u : A <.S + _._._._._._._._._._._._._._._._._._._.",
"_._._._._._._._._._._._._._._._._._.Q R z 2   & - * O h ] R @ _._._._._._._._._._._._._._._._._._._.",
"_._._._._._._._._._._._._._._._._./ } _ _ x 4 2 1 . X = K K _._._._._._._._._._._._._._._._._._._._.",
"_._._._._._._._._._._._._._._._.6 / <.,.! p Y U H t *.&.t # _._._._._._._._._._._._._._._._._._._._.",
"_._._._._._._._._._._._._._._._.7 ( ,.) h z U F $.=.V.C.V.X._._._._._._._._._._._._._._._._._._._._.",
"_._._._._._._._._._._._._._._._.j _ _ ~ 6 z G 0.Z.Z.V.q.A.=.r _._._._._._._._._._._._._._._._._._._.",
"_._._._._._._._._._._._._._._.= R } _ ! i b 1.8.w.w.V.V.C.%.r _._._._._._._._._._._._._._._._._._._.",
"_._._._._._._._._._._._._._._.7 ) _ ) A * : c V 1.8.V.C.=.| _._._._._._._._._._._._._._._._._._._._.",
"_._._._._._._._._._._._._._._.k ' _ ) h & = > b O.8.Z.=.o.;.u._._._._._._._._._._._._._._._._._._._.",
"_._._._._._._._._._._._._._.@ Q <.) Q 6 & n Z 3.e.q.9.| E G.J.G.i._._._._._._._._._._._._._._._._._.",
"_._._._._._._._._._._._._._.@ ! <.k * O c O.8.w.w.9.M  .G N.L.H.i._._._._._._._._._._._._._._._._._.",
"_._._._._._._._._._._._._._.k ) Q 6 =   +.8.w.q.q.#.v 5.@.g.K.N.x._._._._._._._._._._._._._._._._._.",
"_._._._._._._._._._._._._.j ( Q p K 7   B 8.w.q.q.+.V 4.@.f.B.M.S.Q._._.T./._._._._._._._._._._._._.",
"_._._._._._._._._._._._.j R j 6 l R 6 O w  .*.Z.q.#.B 5.C d.m.h.s.y.R.!.!.).(._._._._._._._._._._._.",
"_._._._._._._._._._._.6 s s > > s s p > * ; w m m M 4.5.c L E E 0 6.R.^._._._._._._._._._._._._._._."
};
