/* XPM */
static char *result[] = {
/* columns rows colors chars-per-pixel */
"50 50 172 2 ",
"   c #050102",
".  c #0D0709",
"X  c #170709",
"o  c #150A0E",
"O  c #16080A",
"+  c #1A0C12",
"@  c #0F1F1E",
"#  c #031D15",
"$  c #1C1113",
"%  c #210E12",
"&  c #2A0C11",
"*  c #251315",
"=  c #211815",
"-  c #2B151B",
";  c #2B1B1D",
":  c #28171A",
">  c #321217",
",  c #3A1016",
"<  c #311817",
"1  c #3D1119",
"2  c #331B1D",
"3  c #3B1D1C",
"4  c #36161B",
"5  c #38261F",
"6  c #37261E",
"7  c #2A1620",
"8  c #231D22",
"9  c #2B1A25",
"0  c #341B23",
"q  c #3A1D24",
"w  c #361D2A",
"e  c #391F2B",
"r  c #002823",
"t  c #102020",
"y  c #162828",
"u  c #112B22",
"i  c #00362E",
"p  c #1F362F",
"a  c #10342E",
"s  c #003E35",
"d  c #143B37",
"f  c #292427",
"g  c #272129",
"h  c #2E252A",
"j  c #272A29",
"k  c #352421",
"l  c #3B2222",
"z  c #362129",
"x  c #3D202B",
"c  c #362D2C",
"v  c #36332F",
"b  c #332E32",
"n  c #243233",
"m  c #35333A",
"M  c #38363F",
"N  c #3B3639",
"B  c #45171D",
"V  c #4D1A20",
"C  c #481523",
"Z  c #531425",
"A  c #571A28",
"S  c #691830",
"D  c #771934",
"F  c #43222C",
"G  c #4A252F",
"H  c #482B29",
"J  c #4E3128",
"K  c #483429",
"L  c #52322C",
"P  c #58372F",
"I  c #563C2B",
"U  c #4C2632",
"Y  c #442330",
"T  c #502731",
"R  c #522A35",
"E  c #572C38",
"W  c #592F3A",
"Q  c #433A3B",
"!  c #59303B",
"~  c #6D3F2F",
"^  c #66392E",
"/  c #6B3432",
"(  c #004035",
")  c #00433A",
"_  c #00493C",
"`  c #164A3E",
"'  c #1D4638",
"]  c #5E4434",
"[  c #574D39",
"{  c #6C4935",
"}  c #674A36",
"|  c #724031",
" . c #76493C",
".. c #7F5033",
"X. c #3B3B43",
"o. c #443D41",
"O. c #7E2741",
"+. c #6F3948",
"@. c #004F46",
"#. c #0A4B43",
"$. c #015144",
"%. c #00544B",
"&. c #085449",
"*. c #025B4C",
"=. c #145241",
"-. c #005F50",
";. c #294144",
":. c #47494D",
">. c #514048",
",. c #514C46",
"<. c #464A50",
"1. c #4C555C",
"2. c #57575B",
"3. c #56585D",
"4. c #694C45",
"5. c #7A5743",
"6. c #7D5845",
"7. c #686D5E",
"8. c #585B68",
"9. c #565862",
"0. c #526A64",
"q. c #4F756D",
"w. c #5E6F71",
"e. c #656669",
"r. c #717065",
"t. c #666870",
"y. c #6C757C",
"u. c #6F7174",
"i. c #74797A",
"p. c #8D1C3F",
"a. c #823F3C",
"s. c #82423B",
"d. c #895A37",
"f. c #925F3A",
"g. c #A31E48",
"h. c #902B49",
"j. c #A4274D",
"k. c #BB315A",
"l. c #9C4C47",
"z. c #805040",
"x. c #80594D",
"c. c #AA594A",
"v. c #856047",
"b. c #9B6750",
"n. c #9F7355",
"m. c #BC6B4E",
"M. c #A87247",
"N. c #BB734A",
"B. c #AF6D58",
"V. c #AE795D",
"C. c #BE7E5A",
"Z. c #BB7D61",
"A. c #C36556",
"S. c #C87852",
"D. c #D6765B",
"F. c #C28454",
"G. c #D88A59",
"H. c #E68D60",
"J. c #EC9A62",
"K. c #787B84",
"L. c #698985",
"P. c #80888F",
"I. c #888E95",
"U. c #809596",
"Y. c #89979F",
"T. c #969B9D",
"R. c #8D95A4",
"E. c #929CA2",
"W. c #A0A5AE",
"Q. c #A2AAB5",
"!. c #AAB0BB",
"~. c None",
/* pixels */
"~.~.~.~.~.~.~.~.~.~.~.~.~.~.~.~.~.~.~.~.~.~.~.~.~.~.~.~.~.~.~.~.~.~.~.~.~.~.~.~.~.~.~.~.~.~.~.~.~.~.",
"~.~.~.~.~.~.~.~.~.~.~.~.~.~.~.~.~.~.~.~.~.~.~.~.~.~.~.~.~.~.~.~.~.~.~.~.~.~.~.~.~.~.~.~.~.~.~.~.~.~.",
"~.~.~.~.~.~.~.~.~.~.~.~.~.~.~.~.~.~.~.~.~.~.~.~.~.~.~.~.~.~.~.~.~.~.~.~.~.~.~.~.~.~.~.~.~.~.~.~.~.~.",
"~.~.~.~.~.~.~.~.~.~.~.~.~.~.~.~.~.~.~.~.~.~.~.~.~.~.~.~.~.~.~.~.~.~.~.~.~.~.~.~.~.~.~.~.~.~.~.~.~.~.",
"~.~.~.~.~.~.~.~.~.~.~.~.~.~.~.~.~.~.~.~.~.~.~.~.~.~.~.~.~.~.~.~.~.~.~.~.~.~.~.~.~.~.~.~.~.~.~.~.~.~.",
"~.~.~.~.~.~.~.~.~.~.~.~.~.~.~.~.~.~.~.~.~.~.~.~.~.~.~.~.~.~.~.~.~.~.~.~.~.~.~.~.~.~.~.~.~.~.~.~.~.~.",
"~.~.~.~.~.~.~.~.~.~.~.~.~.~.~.~.~.~.~.~.~.~.~.~.~.~.~.~.~.~.~.~.~.~.~.~.~.~.~.~.~.~.~.~.~.~.~.~.~.~.",
"~.~.~.~.~.~.~.~.~.~.~.~.~.~.~.~.~.~.~.~.~.~.~.~.~.~.~.~.~.~.~.~.~.~.~.~.~.~.~.~.~.~.~.~.~.~.~.~.~.~.",
"~.~.~.~.~.~.~.~.~.~.~.~.~.~.~.~.~.~.~.~.~.~.~.~.~.~.~.~.~.~.~.~.~.~.~.~.~.~.~.~.~.~.~.~.~.~.~.~.~.~.",
"~.~.~.~.~.~.~.~.~.~.~.~.~.~.~.~.~.~.~.~.~.~.~.~.~.~.~.~.~.~.~.~.~.~.~.~.~.~.~.~.~.~.~.~.~.~.~.~.~.~.",
"~.~.~.~.~.~.~.~.~.~.~.~.~.~.~.~.~.~.~.~.~.~.~.~.~.~.~.~.~.~.~.~.~.~.~.~.~.~.~.~.~.~.~.~.~.~.~.~.~.~.",
"~.~.~.~.~.~.~.~.~.~.~.~.~.~.~.~.~.~.~.~.~.~.~.~.~.~.~.~.~.~.~.~.~.~.~.~.~.~.~.~.~.~.~.~.~.~.~.~.~.~.",
"~.~.~.~.~.~.~.~.~.~.~.~.~.~.~.~.~.~.~.~.~.~.~.~.~.~.~.~.~.~.~.~.~.~.~.~.~.~.~.~.~.~.~.~.~.~.~.~.~.~.",
"~.~.~.~.~.~.~.~.~.~.~.~.~.~.~.~.~.~.~.~.~.~.~.~.~.~.~.~.~.~.~.~.~.~.~.~.~.~.~.~.~.~.~.~.~.~.~.~.~.~.",
"~.~.~.~.~.~.~.~.~.~.~.~.~.~.~.~.~.~.~.~.~.~.~.~.~.~.~.~.~.~.~.~.~.~.~.~.~.~.~.~.~.~.~.~.~.~.~.~.~.~.",
"~.~.~.~.~.~.~.~.~.~.~.~.~.~.~.~.~.~.~.~.~.~.~.~.~.~.~.~.~.~.~.~.~.~.~.~.~.~.~.~.~.~.~.~.~.~.~.~.~.~.",
"~.~.~.~.~.~.~.~.~.~.~.~.~.~.~.~.~.~.~.~.~.~.~.~.~.~.~.~.~.~.~.~.~.~.~.~.~.~.~.~.~.~.~.~.~.~.~.~.~.~.",
"~.~.~.~.~.~.~.~.~.~.~.~.~.~.~.~.~.~.~.~.~.~.~.~.~.~.~.~.~.~.~.~.~.~.~.~.~.~.~.~.~.~.~.~.~.~.~.~.~.~.",
"~.~.~.~.~.~.~.~.~.~.~.~.~.~.~.~.~.~.~.~.~.~.~.~.~.~.~.~.~.~.~.~.~.~.~.~.~.~.~.~.~.~.~.~.~.~.~.~.~.~.",
"~.~.~.~.~.~.~.~.~.~.~.~.~.~.~.~.~.~.~.~.~.~.~.~.~.~.~.~.~.~.~.~.~.~.~.~.~.~.~.~.~.~.~.~.~.~.~.~.~.~.",
"~.~.~.~.~.~.~.~.~.~.~.~.~.~.~.~.~.~.~.~.~.~.~.~.~.~.~.~.~.~.~.~.~.~.~.~.~.~.~.~.~.~.~.~.~.~.~.~.~.~.",
"~.~.~.~.~.~.~.~.~.~.~.~.~.~.~.~.~.~.~.~.~.~.~.~.~.~.~.~.~.~.~.~.~.~.~.~.~.~.~.~.~.~.~.~.~.~.~.~.~.~.",
"~.~.~.~.~.~.~.~.~.~.~.~.~.~.~.~.~.~.~.~.~.~.~.~.~.~.~.~.~.~.~.~.~.~.~.~.~.~.~.~.~.~.~.~.~.~.~.~.~.~.",
"~.~.~.~.~.~.~.~.~.~.~.~.~.~.~.~.~.~.~.~.~.~.~.~.~.~.~.~.~.~.~.~.~.~.~.~.~.~.~.~.~.~.~.~.~.~.~.~.~.~.",
"~.~.~.~.~.~.~.~.~.~.~.~.~.~.~.~.~.~.~.~.~.~.~.~.~.~.~.~.~.~.~.~.~.~.~.~.~.~.~.~.~.~.~.~.~.~.~.~.~.~.",
"~.~.~.~.~.~.~.~.~.~.~.~.~.~.~.~.~.~.~.~.~.~.~.~.~.~.~.~.~.~.~.~.~.~.~.~.~.~.~.~.~.~.~.~.~.~.~.~.~.~.",
"~.~.~.~.~.~.~.~.~.~.~.~.~.~.~.~.~.~.~.~.~.~.~.~.~.~.~.~.~.~.~.~.~.~.~.~.~.~.~.~.~.~.~.~.~.~.~.~.~.~.",
"~.~.~.~.~.~.~.~.~.~.~.~.~.~.~.~.~.~.~.~.~.~.~.~.~.~.~.~.~.~.~.~.~.~.~.~.~.~.~.~.~.~.~.~.~.~.~.~.~.~.",
"~.~.~.~.~.~.~.~.~.~.~.~.~.~.~.~.~.~.~.~.~.~.~.~.~.~.~.~.~.~.~.~.~.~.~.~.~.~.~.~.~.~.~.~.~.~.~.~.~.~.",
"~.~.~.~.~.~.~.~.~.~.~.~.~.~.~.~.~.~.~.~.~.~.~.~.~.~.~.~.~.~.~.~.~.~.~.~.~.~.~.~.~.~.~.~.~.~.~.~.~.~.",
"~.~.~.~.~.~.~.~.~.~.~.~.~.~.~.~.~.~.~.~.~.~.~.~.~.~.~.~.~.~.~.~.~.~.~.~.~.~.~.~.~.~.~.~.~.~.~.~.~.~.",
"~.~.~.~.~.~.~.~.~.~.~.~.~.~.~.~.~.~.~.~.~.~.~.~.~.~.~.~.~.~.~.~.~.~.~.~.~.~.~.~.~.~.~.~.~.~.~.~.~.~.",
"~.~.~.~.~.~.~.~.~.~.~.~.~.~.~.~.~.~.~.~.~.~.~.~.~.~.~.~.~.~.~.~.~.~.~.~.~.~.~.~.~.~.~.~.~.~.~.~.~.~.",
"~.~.~.~.~.~.~.~.~.~.~.~.~.~.~.~.~.~.~.~.~.~.~.~.~.~.~.~.~.~.~.~.~.~.~.~.~.~.~.~.~.~.~.~.~.~.~.~.~.~.",
"~.~.~.~.~.~.~.~.~.~.~.~.~.~.~.~.~.~.~.~.~.~.~.~.~.~.~.~.~.~.~.~.~.~.~.~.~.~.~.~.~.~.~.~.~.~.~.~.~.~.",
"~.~.~.~.~.~.~.~.~.~.~.~.~.~.~.~.~.~.~.~.~.~.~.~.~.~.~.~.~.~.~.~.~.~.~.~.~.~.~.~.~.~.~.~.~.~.~.~.~.~.",
"~.~.~.~.~.~.~.~.~.~.~.~.~.~.~.~.~.~.~.~.~.~.~.~.~.~.~.~.~.~.~.~.~.~.~.~.~.~.~.~.~.~.~.~.~.~.~.~.~.~.",
"~.~.~.~.~.~.~.~.~.~.~.~.~.~.~.~.~.~.~.~.~.~.~.~.~.~.~.~.~.~.~.~.~.~.~.~.~.~.~.~.~.~.~.~.~.~.~.~.~.~.",
"~.~.~.~.~.~.~.~.~.~.~.~.~.~.~.~.~.~.~.~.~.~.~.~.~.~.~.~.~.~.~.~.~.~.~.~.~.~.~.~.~.~.~.~.~.~.~.~.~.~.",
"~.~.~.~.~.~.~.~.~.~.~.~.- 0 F 0 + : ~.~.~.~.~.~.~.~.~.~.~.~.~.~.~.~.~.~.~.~.~.~.~.~.~.~.~.~.~.~.~.~.",
"~.~.~.~.~.~.~.~.~.~.~.F G U Y 0 % < q : ~.~.~.~.~.~.~.~.~.~.~.~.~.~.~.~.~.~.~.~.~.~.~.~.~.~.~.~.~.~.",
"~.~.~.~.~.~.~.~.~.~.Y R E R F 2 * ; l ; . o ~.~.~.~.~.~.~.~.~.~.~.~.~.~.~.~.~.~.~.~.~.~.~.~.~.~.~.~.",
"~.~.~.~.~.~.~.~.~.x R W ! R L d.f.d.{ 6 o - 0 w q q q q q 0 2 ; ~.~.~.~.~.~.~.~.~.~.~.~.~.~.~.~.~.~.",
"~.~.~.~.~.~.~.~.~.F R W ! R ^ N.G.G.M.J o 0 C U G U T T U G F F F x ~.~.~.~.~.~.~.h.k.j.D Z B ~.~.~.",
"~.~.~.~.~.~.~.~.+ e U R R H | S.J.J.S.I o 9 x Y U U U T G e F U T T G - ~.~.~.y m +.j.g.p.D A B ~.~.",
"~.~.~.~.~.~.~.~.. ; z c v c ^ m.H.J.F.[ p j 9 z e e e w 9 0 C U R T G 2 ~.~.= y ;.>.O.p.D S A V , ~.",
"~.~.~.~.~.~.~.~.# u p =.=.' P c.D.G.F.r.q.0.M 9 9 9 9 h f e C G F e q ; K z. .K n b A A Z C B B 1 ~.",
"~.~.~.~.~.~.~.( _ $.*.*.*.` L l.A.A.B.i.L.L.y.X.9 m 3.u.e.:.z 9 - + 9 v 6.Z.Z.5.k ; 2 5 q 3 > , & ~.",
"~.~.i s ) @.@.%.*.*.*.&.#.a 6 / a.s. .,.w.Y.E.i.3.y.R.W.I.2.X.M g 8 <.:.4.b.V.6.6 H } ] ; : % X . ~.",
"~.r ) $.$.$.%.*.-.-.#.d d t $ - 3 3 2 f 1.I.Q.T.P.R.Q.!.T.t.8.9.m m K.t.Q P 5.} 6 } n.v.< * +     ~."
};
