/* XPM */
static char *result[] = {
/* columns rows colors chars-per-pixel */
"50 50 190 2 ",
"   c #020101",
".  c #0D0205",
"X  c #0C060B",
"o  c #0C0B0D",
"O  c #050A0A",
"+  c #16070C",
"@  c #140A0B",
"#  c #190609",
"$  c #08110F",
"%  c #1C120F",
"&  c #0D0C12",
"*  c #070D10",
"=  c #150D14",
"-  c #180D15",
";  c #1A0E19",
":  c #160E18",
">  c #0E1419",
",  c #071619",
"<  c #1C111C",
"1  c #1B1816",
"2  c #250C0B",
"3  c #2E050D",
"4  c #38060F",
"5  c #210D11",
"6  c #221314",
"7  c #2D1B14",
"8  c #24131C",
"9  c #2C171D",
"0  c #291C1B",
"q  c #311214",
"w  c #341719",
"e  c #00220C",
"r  c #022614",
"t  c #002C14",
"y  c #3B281D",
"u  c #0D1B20",
"i  c #1C1320",
"p  c #131D24",
"a  c #241523",
"s  c #271825",
"d  c #2A1925",
"f  c #2C1A29",
"g  c #291524",
"h  c #341C25",
"j  c #351D2C",
"k  c #381D29",
"l  c #391824",
"z  c #361F3A",
"x  c #022021",
"c  c #082A2C",
"v  c #132A2E",
"b  c #13222A",
"n  c #00342E",
"m  c #0F342E",
"M  c #0E2A34",
"N  c #1C2C33",
"B  c #142E36",
"V  c #043534",
"C  c #0A343B",
"Z  c #023A3B",
"A  c #0B3A3F",
"S  c #17353A",
"D  c #3D212D",
"F  c #3D2A21",
"G  c #3D2231",
"H  c #362137",
"J  c #460E1D",
"K  c #42151C",
"L  c #41261E",
"P  c #62261E",
"I  c #4F0D2A",
"U  c #4C1D23",
"Y  c #431926",
"T  c #541B29",
"R  c #45163B",
"E  c #411333",
"W  c #661526",
"Q  c #7A1A38",
"!  c #45232E",
"~  c #4B2A26",
"^  c #5C2C2C",
"/  c #512322",
"(  c #4A352C",
")  c #5D3C27",
"_  c #432533",
"`  c #492634",
"'  c #4B2936",
"]  c #4D2A38",
"[  c #552D3A",
"{  c #5A2E3C",
"}  c #522937",
"|  c #5C313E",
" . c #5C3337",
".. c #69272C",
"X. c #64332D",
"o. c #793329",
"O. c #6B2531",
"+. c #70213A",
"@. c #62313E",
"#. c #613E38",
"$. c #004A28",
"%. c #03522C",
"&. c #094335",
"*. c #0D5F39",
"=. c #006B3B",
"-. c #006334",
";. c #444839",
":. c #704C2F",
">. c #694B3D",
",. c #764735",
"<. c #073E42",
"1. c #153B44",
"2. c #223443",
"3. c #2E3843",
"4. c #3E3644",
"5. c #561944",
"6. c #6A1B4A",
"7. c #7E1B4B",
"8. c #5B2D40",
"9. c #5E3240",
"0. c #7F274A",
"q. c #623441",
"w. c #693747",
"e. c #024646",
"r. c #04474A",
"t. c #034C4A",
"y. c #064946",
"u. c #01564F",
"i. c #03544A",
"p. c #175C42",
"a. c #015654",
"s. c #005A55",
"d. c #005C5A",
"f. c #025658",
"g. c #205F46",
"h. c #01754E",
"j. c #006253",
"k. c #007950",
"l. c #6F5342",
"z. c #775748",
"x. c #8D203C",
"c. c #913A30",
"v. c #874C35",
"b. c #9B4C3D",
"n. c #885B3A",
"m. c #975B3D",
"M. c #85613E",
"N. c #831C47",
"B. c #9C1E46",
"V. c #931F50",
"C. c #A01F4A",
"Z. c #A61E54",
"A. c #862848",
"S. c #9B214A",
"D. c #BA2144",
"F. c #984744",
"G. c #835B47",
"H. c #9D5449",
"J. c #A85946",
"K. c #B15D4F",
"L. c #BB5D51",
"P. c #99674A",
"I. c #8B6751",
"U. c #AA6748",
"Y. c #B8634C",
"T. c #AA7046",
"R. c #B0794D",
"E. c #A4775B",
"W. c #9C7560",
"Q. c #A97B63",
"!. c #C27450",
"~. c #008B4F",
"^. c #008A53",
"/. c #008250",
"(. c #B8846A",
"). c #C88855",
"_. c #DC8D55",
"`. c #DE825A",
"'. c #C28A6D",
"]. c #C38E75",
"[. c #C89578",
"{. c #D19A7C",
"}. c #D29779",
"|. c #E3A577",
" X c #D5A080",
".X c #E6A684",
"XX c #ECAB89",
"oX c #ECB290",
"OX c #F5B390",
"+X c None",
/* pixels */
"+X+X+X+X+X+X+X+X+X+X+X+X+X+X+X+X+X+X+X+X+X+X+X+X+X+X+X+X+X+X+X+X+X+X+X+X+X+X+X+X+X+X+X+X+X+X+X+X+X+X",
"+X+X+X+X+X+X+X+X+X+X+X+X+X+X+X+X+X+X+X+X+X+X+X+X+X+X+X+X+X+X+X+X+X+X+X+X+X+X+X+X+X+X+X+X+X+X+X+X+X+X",
"+X+X+X+X+X+X+X+X+X+X+X+X+X+X+X+X+X+X+X+X+X+X+X+X+X+X+X+X+X+X+X+X+X+X+X+X+X+X+X+X+X+X+X+X+X+X+X+X+X+X",
"+X+X+X+X+X+X+X+X+X+X+X+X+X+X+X+X+X+X+X+X+X+X+X+X+X+X+X+X+X+X+X+X+X+X+X+X+X+X+X+X+X+X+X+X+X+X+X+X+X+X",
"+X+X+X+X+X+X+X+X+X+X+X+X+X+X+X+X+X+X+X+X+X+X+X+X+X+X+X+X+X+X+X+X+X+X+X+X+X+X+X+X+X+X+X+X+X+X+X+X+X+X",
"+X+X+X+X+X+X+X+X+X+X+X+X+X+X+X+X+X+X+X+X+X+X+X+X+X+X+X+X+X+X#     +X+X+X+X+X+X+X+X+X+X+X+X+X+X+X+X+X",
"+X+X+X+X+X+X+X+X+X+X+X+X+X+X+X+X+X+X+X+X+X+X+X+X+X+X+X+Xw q + + 2 # q +X+X+X+X+X+X+X+X+X+X+X+X+X+X+X",
"+X+X+X+X+X+X+X+X+X+X+X+X+X+X+X+X+X+X+X+X+X+X+X+X+X+X+X  Y Y 2 K O.U ....+X+X+X+X+X+X+X+X+X+X+X+X+X+X",
"+X+X+X+X+X+X+X+X+X+X+X+X+X+X+X+X+X+X+X+X+X+X+X+X+X+X+XI Q +.Y U O.K 4 3 +X+X+X+X+X+X+X+X+X+X+X+X+X+X",
"+X+X+X+X+X+X+X+X+X+X+X+X+X+X+X+X+X+X+X+X+X+X+X+X+X+X+XV.Z.S.T 6 0 l.I.l.+X+X+X+X+X+X+X+X+X+X+X+X+X+X",
"+X+X+X+X+X+X+X+X+X+X+X+X+X+X+X+X+X+X+X+X+X+X+X+X+X+X+XA.A.A.w + l.{..X[.+X+X+X+X+X+X+X+X+X+X+X+X+X+X",
"+X+X+X+X+X+X+X+X+X+X+X+X+X+X+X+X+X+X+X+X+X+X+X+X+X+X+XY 4.3.> 6 z.'..X X+X+X+X+X+X+X+X+X+X+X+X+X+X+X",
"+X+X+X+X+X+X+X+X+X+X+X+X+X+X+X+X+X+X+X+X+X+X+X+X+X+X+X+XN v * % z.{.XX{.+X+X+X+X+X+X+X+X+X+X+X+X+X+X",
"+X+X+X+X+X+X+X+X+X+X+X+X+X+X+X+X+X+X+X+X+X+X+X+X+X+X+X+X* *   ( ].OX.X[.+X+X+X+X+X+X+X+X+X+X+X+X+X+X",
"+X+X+X+X+X+X+X+X+X+X+X+X+X+X+X+X+X+X+X+X+X+X+X+X+X+X+X+X+X  F (.oX'.(.W.+X+X+X+X+X+X+X+X+X+X+X+X+X+X",
"+X+X+X+X+X+X+X+X+X+X+X+X+X+X+X+X+X+X+X+X+X+X+X+X+X+X      0 Q..XQ.I.+X+X+X+X+X+X+X+X+X+X+X+X+X+X+X+X",
"+X+X+X+X+X+X+X+X+X+X+X+X+X+X+X+X+X+X+X+X+X+X+X+X+X= 8 6 w #.].E.G.+X+X+X+X+X+X+X+X+X+X+X+X+X+X+X+X+X",
"+X+X+X+X+X+X+X+X+X+X+X+X+X+X+X+X+X+X+X+X+X+X+X+XX h ] ' 9. .6 +X+X+X+X+X+X+X+X+X+X+X+X+X+X+X+X+X+X+X",
"+X+X+X+X+X+X+X+X+X+X+X+X+X+X+X+X+X+X+X+X+X+X+X: k _ D [ { 8 X +X+X+X+X+X+X+X+X+X+X+X+X+X+X+X+X+X+X+X",
"+X+X+X+X+X+X+X+X+X+X+X+X+X+X+X+X+X+X+X+X+X+X+XY ' g h | ! = = +X+X+X+X+X+X+X+X+X+X+X+X+X+X+X+X+X+X+X",
"+X+X+X+X+X+X+X+X+X+X+X+X+X+X+X+X+X+X+X+X+X8 Y 9.h < } { h - = +X+X+X+X+X+X+X+X+X+X+X+X+X+X+X+X+X+X+X",
"+X+X+X+X+X+X+X+X+X+X+X+X+X+X+X+X+X+X+X+X0 k { ` : k [ k - = = +X+X+X+X+X+X+X+X+X+X+X+X+X+X+X+X+X+X+X",
"+X+X+X+X+X+X+X+X+X+X+X+X+X+X+X+X+X+X+X+X! [ [ 8 8 ' ' 8 : < < +X+X+X+X+X+X+X+X+X+X+X+X+X+X+X+X+X+X+X",
"+X+X+X+X+X+X+X+X+X+X+X+X+X+X+X+X+X+X+X+X_ } h : f ` ` d a ; 6 +X+X+X+X+X+X+X+X+X+X+X+X+X+X+X+X+X+X+X",
"+X+X+X+X+X+X+X+X+X+X+X+X+X+X+X+X+X+X+X+Xo @ & = d G { } h < 8 +X+X+X+X+X+X+X+X+X+X+X+X+X+X+X+X+X+X+X",
"+X+X+X+X+X+X+X+X+X+X+X+X+X+X+X+X+X+X+X! k 8 = : a D } 9.Y : - +X+X+X+X+X+X+X+X+X+X+X+X+X+X+X+X+X+X+X",
"+X+X+X+X+X+X+X+X+X+X+X+X+X+X+X+X+X+X' 9.[ G a : a f _ { ! - +X+X+X+X+X+X+X+X+X+X+X+X+X+X+X+X+X+X+X+X",
"+X+X+X+X+X+X+X+X+X+X+X+X+X+X+X+X+X+X` 8.[ _ s i a a h ` k +X+X+X+X+X+X+X+X+X+X+X+X+X+X+X+X+X+X+X+X+X",
"+X+X+X+X+X+X+X+X+X+X+X+X+X+X+X+X+X  ! | 8._ s < = X + 8 +X+X+X+X+X+X+X+X+X+X+X+X+X+X+X+X+X+X+X+X+X+X",
"+X+X+X+X+X+X+X+X+X+X+X+X+X+X+X+X+X9 [ q.[ ` s < ; Y J 2 +X+X+X+X+X+X+X+X+X+X+X+X+X+X+X+X+X+X+X+X+X+X",
"+X+X+X+X+X+X+X+X+X+X+X+X+X+X+X+X+X[ w.| 8._ g ; E C.D.W +X+X+X+X+X+X+X+X+X+X+X+X+X+X+X+X+X+X+X+X+X+X",
"+X+X+X+X+X+X+X+X+X+X+X+X+X+X+X+X+X[ q.| 8._ f < R 7.B.Q +X+X+X+X+X+X+X+X+X+X+X+X+X+X+X+X+X+X+X+X+X+X",
"+X+X+X+X+X+X+X+X+X+X+X+X+X+X+X+Xd [ | | | _ f i R 6.7.x.W +X+X+X+X+X+X+X+X+X+X+X+X+X+X+X+X+X+X+X+X+X",
"+X+X+X+X+X+X+X+X+X+X+X+X+X+X+X+X9 [ | | | G f i R 6.6.A...+X+X+X+X+X+X+X+X+X+X+X+X+X+X+X+X+X+X+X+X+X",
"+X+X+X+X+X+X+X+X+X+X+X+X+X+X+X+XF 8.| | [ D s i R 5.9 g.p.r +X+X+X+X+X+X+X+X+X+X+X+X+X+X+X+X+X+X+X+X",
"+X+X+X+X+X+X+X+X+X+X+X+X+X+X+X6 ' 9.| 9.' D i > H H c k./.$.+X+X+X+X+X+X+X+X+X+X+X+X+X+X+X+X+X+X+X+X",
"+X+X+X+X+X+X+X+X+X+X+X+X+X+X+Xh | 9.| | ' j < > N B y.h.~.-.t +X+X+X+X+X+X+X+X+X+X+X+X+X+X+X+X+X+X+X",
"+X+X+X+X+X+X+X+X+X+X+X+X+X+X+Xl 9.9.| { G f : > S C u.k.~.=.t +X+X+X+X+X+X+X+X+X+X+X+X+X+X+X+X+X+X+X",
"+X+X+X+X+X+X+X+X+X+X+X+X+X+X+Xh 9.9.8.` j s = p 2.<.s.k.~.=.t +X+X+X+X+X+X+X+X+X+X+X+X+X+X+X+X+X+X+X",
"+X+X+X+X+X+X+X+X+X+X+X+X+X+X+X9 [ 9._ j f s o b 2.<.j.h.^.=.t +X+X+X+X+X+X+X+X+X+X+X+X+X+X+X+X+X+X+X",
"+X+X+X+X+X+X+X+X+X+X+X+X+X+X+X+X8 G G f f a & M 1.y.j.h.^.=.t +X+X+X+X+X+X+X+X+X+X+X+X+X+X+X+X+X+X+X",
"+X+X+X+X+X+X+X+X+X+X+X+X+X+X+XO * & s f s < & B 1.y.i.%.*.%.e +X+X+X+X+X+X+X+X+X+X+X+X+X+X+X+X+X+X+X",
"+X+X+X+X+X+X+X+X+X+X+X+X+X+X+Xx <.u X < a : > S y.;.M.n.X.1 X.+X+X+X+X+X+X+X+X+X+X+X+X+X+X+X+X+X+X+X",
"+X+X+X+X+X+X+X+X+X+X+X+X+X+X+XZ d.r.c * . . u <.y.G._._.T.:.G.y +X+X+X+X+X+X+X+X+X+X+X+X+X+X+X+X+X+X",
"+X+X+X+X+X+X+X+X+X+X+X+X+X+X, e.d.a.r.C M c V i.m v.`._.).R.n.y +X+X+X+X+X+X+X+X+X+X+X+X+X+X+X+X+X+X",
"+X+X+X+X+X+X+X+X+X+X+X+X+X+X7 S a.j.s.f.f.f.a.s.i.( Y.`.!.U.U.F +X+X+X+X+X+X+X+X+X+X+X+X+X+X+X+X+X+X",
"+X+X+X+X+X+X+X+X+X+X+X+X+X2 v.m.n e.u.u.a.a.a.i.j.y.X.K.L.F.H.~ +X+X+X+X+X+X+X+X+X+X+X+X+X+X+X+X+X+X",
"+X+X+X+X+X+X+X+X+X+X+X+X+X7 P.|.,., n n V n n n &.;.X.^ F.F.^ +X+X+X+X+X+X+X+X+X+X+X+X+X+X+X+X+X+X+X",
"+X+X+X+X+X+X+X+X+X+X+X+X+XP b.Y.J.+X+X+X+X+X+X+X+Xo.c.c./ ! +X+X+X+X+X+X+X+X+X+X+X+X+X+X+X+X+X+X+X+X",
"+X+X+X+X+X+X+X+X+X+X+X+X+X+X+X+X+X+X+X+X+X+X+X+X+X+X+X+X+X+X+X+X+X+X+X+X+X+X+X+X+X+X+X+X+X+X+X+X+X+X"
};
