/* XPM */
static char *result[] = {
/* columns rows colors chars-per-pixel */
"50 50 163 2 ",
"   c #010101",
".  c #0B0505",
"X  c #000905",
"o  c #05060A",
"O  c #0A060A",
"+  c #000B09",
"@  c #0C0A0C",
"#  c #13050A",
"$  c #130A0E",
"%  c #190B0F",
"&  c #150707",
"*  c #01120C",
"=  c #16130E",
"-  c #0F0A10",
";  c #0C0614",
":  c #140B12",
">  c #1B0D12",
",  c #170F18",
"<  c #150510",
"1  c #001A17",
"2  c #0B1B19",
"3  c #1D1115",
"4  c #1E121B",
"5  c #141017",
"6  c #2B0506",
"7  c #320C0D",
"8  c #240F12",
"9  c #36061E",
"0  c #24141C",
"q  c #2A151D",
"w  c #2A1A1F",
"e  c #231618",
"r  c #32151B",
"t  c #351818",
"y  c #0D1B27",
"u  c #241420",
"i  c #2E1A25",
"p  c #271825",
"a  c #331B24",
"s  c #391C25",
"d  c #331D29",
"f  c #3A1D29",
"g  c #351724",
"h  c #002D29",
"j  c #0A202B",
"k  c #00352F",
"l  c #033532",
"z  c #0A3A34",
"x  c #2C2824",
"c  c #302620",
"v  c #3A2B23",
"b  c #3D212C",
"n  c #392A26",
"m  c #3D2331",
"M  c #393B33",
"N  c #410326",
"B  c #520620",
"V  c #4F1D20",
"C  c #541D28",
"Z  c #6B1933",
"A  c #43232C",
"S  c #492028",
"D  c #462928",
"F  c #473529",
"G  c #452432",
"H  c #492533",
"J  c #4E2834",
"K  c #4F2839",
"L  c #542B37",
"P  c #532B39",
"I  c #5C2D3C",
"U  c #5E313D",
"Y  c #6B253E",
"T  c #61323D",
"R  c #6A323D",
"E  c #753C39",
"W  c #034435",
"Q  c #004F3F",
"!  c #00443C",
"~  c #3D403A",
"^  c #5E453A",
"/  c #7D5537",
"(  c #6D0D49",
")  c #653442",
"_  c #004640",
"`  c #014A45",
"'  c #005444",
"]  c #00594E",
"[  c #0A5142",
"{  c #005F56",
"}  c #00604F",
"|  c #006354",
" . c #00615B",
".. c #424149",
"X. c #6C5144",
"o. c #7D5A4B",
"O. c #6F6D5E",
"+. c #5F6474",
"@. c #5F787A",
"#. c #627A72",
"$. c #8E1F32",
"%. c #873C3F",
"&. c #8B4E3C",
"*. c #BA155F",
"=. c #AC385F",
"-. c #BB1E6E",
";. c #C43F61",
":. c #D03171",
">. c #E72D6E",
",. c #FF387B",
"<. c #9B4240",
"1. c #80594B",
"2. c #905E4B",
"3. c #9F5950",
"4. c #A55043",
"5. c #99664A",
"6. c #807856",
"7. c #A56B46",
"8. c #BD7F4B",
"9. c #AD7E6B",
"0. c #D06A5C",
"q. c #E6765B",
"w. c #B9876E",
"e. c #B58870",
"r. c #AC9B79",
"t. c #D58059",
"y. c #F8865C",
"u. c #E79B5A",
"i. c #F9955C",
"p. c #FFA15F",
"a. c #C58C76",
"s. c #C09172",
"d. c #D59C7C",
"f. c #E58267",
"g. c #F08F76",
"h. c #D8A07F",
"j. c #EAA061",
"k. c #FEAA63",
"l. c #F0A362",
"z. c #FFB467",
"x. c #FFB96C",
"c. c #E5A37F",
"v. c #6E7382",
"b. c #F22488",
"n. c #7BC2B9",
"m. c #8E9D90",
"M. c #B3A58D",
"N. c #A1AAB7",
"B. c #C5AA94",
"V. c #E8A986",
"C. c #FFA685",
"Z. c #FDB68C",
"A. c #FFBB8F",
"S. c #FFBC91",
"D. c #F3BA9A",
"F. c #BBC8BE",
"G. c #FFC89B",
"H. c #FFC299",
"J. c #C7D2DD",
"K. c #CED7E5",
"L. c #D4E6E9",
"P. c #E1F6F3",
"I. c None",
/* pixels */
"I.I.I.I.I.I.I.I.I.I.I.I.I.I.I.I.I.I.I.I.I.I.I.I.I.I.I.I.I.I.I.I.I.I.I.I.I.I.I.I.I.I.I.I.I.I.I.I.I.I.",
"I.I.I.I.I.I.I.I.I.I.I.I.I.I.I.I.I.I.I.I.I.I.I.I.I.I.I.I.I.I.I.I.I.I.I.I.I.I.I.I.I.I.I.I.I.I.I.I.I.I.",
"I.I.I.I.I.I.I.I.I.I.I.I.I.I.I.I.I.I.I.I.I.I.I.I.I.I.I.I.I.I.I.I.I.I.I.I.I.I.I.I.I.I.I.I.I.I.I.I.I.I.",
"I.I.I.I.I.I.I.I.I.I.I.I.I.I.I.I.I.I.I.I.I.I.I.I.I.I.I.I.I.I.I.I.I.I.I.I.I.I.I.I.I.I.I.I.I.I.I.I.I.I.",
"I.I.I.I.I.I.I.I.I.I.I.I.I.I.I.I.I.I.I.I.I.I.I.I.I.I.I.I.I.I.I.I.I.I.I.I.I.I.I.I.I.I.I.I.I.I.I.I.I.I.",
"I.I.I.I.I.I.I.I.I.I.I.I.I.I.I.I.I.I.I.I.I.I.I.I.I.I.I.I.I.I.I.I.I.I.I.I.I.I.I.I.I.I.I.I.I.I.I.I.I.I.",
"I.I.I.I.I.I.I.I.I.I.I.I.I.I.I.I.I.I.I.I.I.I.I.I.I.I.I.I.I.I.I.I.I.I.I.I.I.I.I.I.I.I.I.I.I.I.I.I.I.I.",
"I.I.I.I.I.I.I.I.I.I.I.I.I.I.I.I.I.I.I.I.I.I.I.I.I.I.I.I.I.I.I.I.I.I.I.I.I.I.I.I.I.I.I.I.I.I.I.I.I.I.",
"I.I.I.I.I.I.I.I.I.I.I.I.I.I.I.I.I.I.I.I.I.I.I.I.I.I.I.I.I.I.I.I.I.I.I.I.I.I.I.I.I.I.I.I.I.I.I.I.I.I.",
"I.I.I.I.I.I.I.I.I.I.I.I.I.I.I.I.I.I.I.I.I.I.I.I.I.I.I.I.I.I.I.I.I.I.I.I.I.I.I.I.I.I.I.I.I.I.I.I.I.I.",
"I.I.I.I.I.I.I.I.I.I.I.I.I.I.I.I.I.I.I.I.I.I.I.I.I.I.I.I.I.I.I.I.I.I.I.I.I.I.I.I.I.I.I.I.I.I.I.I.I.I.",
"I.I.I.I.I.I.I.I.I.I.I.I.I.I.I.I.I.I.I.I.I.I.I.I.I.I.I.I.I.I.I.I.I.I.I.I.I.I.I.I.I.I.I.I.I.I.I.I.I.I.",
"I.I.I.I.I.I.I.I.I.I.I.I.I.I.I.I.I.I.I.I.I.I.I.I.I.I.I.I.I.I.I.I.I.I.I.I.I.I.I.I.I.I.I.I.I.I.I.I.I.I.",
"I.I.I.I.I.I.I.I.I.I.I.I.I.I.I.I.I.I.I.I.I.I.I.I.I.I.I.I.I.I.I.I.I.I.I.I.I.I.I.I.I.I.I.I.I.I.I.I.I.I.",
"I.I.I.I.I.I.I.I.I.I.I.I.I.I.I.I.I.I.I.I.I.I.I.I.I.I.I.I.I.I.I.I.I.I.I.I.I.I.I.I.I.I.I.I.I.I.I.I.I.I.",
"I.I.I.I.I.I.I.I.I.I.I.I.I.I.I.I.I.I.I.I.I.I.I.I.I.I.I.I.I.I.I.I.I.I.I.I.I.I.I.I.I.I.I.I.I.I.I.I.I.I.",
"I.I.I.I.I.I.I.I.I.I.I.I.I.I.I.I.I.I.I.I.I.I.I.I.I.I.I.I.I.I.I.I.I.I.I.I.I.I.I.I.I.I.I.I.I.I.I.I.I.I.",
"I.I.I.I.I.I.I.I.I.I.I.I.I.I.I.I.I.I.I.I.I.I.I.I.I.I.I.I.I.I.I.I.I.I.I.I.I.I.I.I.I.I.I.I.I.I.I.I.I.I.",
"I.I.I.I.I.I.I.I.I.I.I.I.I.I.I.I.I.I.I.I.I.I.I.I.I.I.I.I.I.I.I.I.I.I.I.I.I.I.I.I.I.I.I.I.I.I.I.I.I.I.",
"I.I.I.I.I.I.I.I.I.I.I.I.I.I.I.I.I.I.I.I.I.I.I.I.I.I.I.I.I.I.I.I.I.I.I.I.I.I.I.I.I.I.I.I.I.I.I.I.I.I.",
"I.I.I.I.I.I.I.I.I.I.I.I.I.I.I.I.I.I.I.I.I.I.I.I.I.I.I.I.I.I.I.I.I.I.I.I.I.I.I.I.I.I.I.I.I.I.I.I.I.I.",
"I.I.I.I.I.I.I.I.I.I.I.I.I.I.I.I.I.I.I.I.I.I.I.I.I.I.I.I.I.I.I.I.I.I.I.I.I.I.I.I.I.I.I.I.I.I.I.I.I.I.",
"I.I.I.I.I.I.I.I.I.I.I.I.I.I.I.I.I.I.I.I.I.I.I.I.I.I.I.I.I.I.I.I.I.I.I.I.I.I.I.I.I.I.I.I.I.I.I.I.I.I.",
"I.I.I.I.I.I.I.I.I.I.I.I.I.I.I.I.I.I.I.I.I.I.I.I.I.I.I.I.I.I.I.I.I.          I.I.I.I.I.I.I.I.I.I.I.I.",
"I.I.I.I.I.I.I.I.I.I.I.I.I.I.I.I.I.I.I.I.I.I.I.I.I.I.I.I.I.I.I.I.                I.I.I.I.I.I.I.I.I.I.",
"I.I.I.I.I.I.I.I.I.I.I.I.I.I.I.I.I.I.I.I.I.I.I.I.I.I.I.I.I.I.I.# < V 3             I.I.I.I.I.I.I.I.I.",
"I.I.I.I.I.I.I.I.I.I.I.I.I.I.I.I.I.I.I.I.I.I.I.I.I.I.I.I.I.I.I.-.*.7 t t #     .     I.I.I.I.I.I.I.I.",
"I.I.I.I.I.I.I.I.I.I.I.I.I.I.I.I.I.I.I.I.I.I.I.I.I.I.I.I.I.I.N ( :.$.6 8 t o.v .     I.I.I.I.I.I.I.I.",
"I.I.I.I.I.I.I.I.I.I.I.I.I.I.I.I.I.I.I.I.I.I.I.I.I.I.I.I.I.I.b.9 r ;.C   n D.d..     I.I.I.I.I.I.I.I.",
"I.I.I.I.I.I.I.I.I.I.I.I.I.I.I.I.I.I.I.I.I.I.I.I.I.I.I.I.I.Z ,.>.B p e # X.V.V.^     I.I.I.I.I.I.I.I.",
"I.I.I.I.I.I.I.I.I.I.I.I.I.I.I.I.I.I.I.I.I.I.I.I.I.I.I.I.I.I.Y =.C ; ^ e.V.c.V.d.v I.I.I.I.I.I.I.I.I.",
"I.I.I.I.I.I.I.I.I.I.I.I.I.I.I.I.I.I.I.I.I.I.I.I.I.I.I.I.I.I.I.j y : a.G.A.A.A.V.s.I.I.I.I.I.I.I.I.I.",
"I.I.I.I.I.I.I.I.I.I.I.I.I.I.I.I.I.I.I.I.I.I.I.I.I.I.I.I.I.I.I.I.o   w.H.Z.A.Z.F I.I.I.I.I.I.I.I.I.I.",
"I.I.I.I.I.I.I.I.I.I.I.I.I.I.I.I.I.I.I.I.I.I.I.I.I.I.I.I.I.I.I.I.@ o o.S.Z.S.e.. I.I.I.I.I.I.I.I.I.I.",
"I.I.I.I.I.I.I.I.I.I.I.I.I.I.I.I.I.I.I.I.I.I.I.I.I.I.I.I.I.I.; V H 4 V f.C.2.I.I.I.I.I.I.I.I.I.I.I.I.",
"I.I.I.I.I.I.I.I.I.I.I.I.I.I.I.I.I.I.I.I.I.I.I.I.I.I.I.I.I.q G I G : E g.3.& I.I.I.I.I.I.I.I.I.I.I.I.",
"I.I.I.I.I.I.I.I.I.I.I.I.I.I.I.I.I.I.I.I.I.I.I.I.I.I.    $ H K P i   9.D.c I.I.I.I.I.I.I.I.I.I.I.I.I.",
"I.I.I.I.I.I.I.I.I.I.I.I.I.I.I.I.I.I.I.I.I.3 A s . . b 0   s P G 4 O B.M.e I.I.I.I.I.I.I.I.I.I.I.I.I.",
"I.I.I.I.I.I.I.I.I.I.I.I.I.I.I.I.I.I.@ .   8 J L q   q L 8 g K d - ; O.M o I.I.I.I.I.I.I.I.I.I.I.I.I.",
"I.I.I.I.I.I.I.I.I.I.I.I.I.I.I.I.I.% f A d f G G b %   0 U G G u o   o o o I.I.I.I.I.I.I.I.I.I.I.I.I.",
"I.I.I.I.I.I.I.I.I.I.I.I.I.I.I.I.3 A I T H : @ = f s   # K K m -   o o @ @ I.I.I.I.I.I.I.I.I.I.I.I.I.",
"I.I.I.I.I.I.I.I.I.I.I.I.I.I.I.  s ) U L a . . = a d O 0 K G x -     @ @ @ I.I.I.I.I.I.I.I.I.I.I.I.I.",
"I.I.I.I.I.I.I.I.I.I.I.I.I.    3 L T T H n t.u.u.5.; 0 G G m i d :   u u I.I.I.I.I.I.I.I.I.I.I.I.I.I.",
"I.I.I.I.I.I.I.I.I.I.I.I.I.    a T I R G D l.z.z.7.  u H m d 0 4 - @ f i I.I.I.I.I.I.I.I.I.I.I.I.I.I.",
"I.I.I.I.I.I.I.I.I.I.I.I.I.    % b A L A i t.k.k./   3 c a p 3 o - i G p I.I.I.I.I.I.I.I.I.I.I.I.I.I.",
"I.I.I.I.I.I.I.I.I.I.I.I.I.      * W Q z 0 4.i.k.O.2   : d u : p i g u O I.I.I.I.I.I.I.I.I.I.I.I.I.I.",
"I.I.I.I.I.I.I.I.I.I.I.I.I.* X * W | { z a &.y.i.r.n.#.@ < 0 , u q w % = I.I.I.I.I.I.I.I.I.I.I.I.I.I.",
"I.I.I.I.I.I.I.I.I.I.I.* Q ' ' |  .] ' l g %.0.q.1.#.P.F.x . 5   ~ m.I.I.I.I.I.I.I.I.I.I.I.I.I.I.I.I.",
"I.I.I.I.I.I.  1 h l k _  . . .{ ] ` z 2 @ : 8 r 3 5 +.J.L...p v.N.K.I.I.I.I.I.I.I.I.I.I.I.I.I.I.I.I.",
"I.I.I.I.I.I.+ I.I.I.I.I.I.I.I.I.I.I.I.I.I.I.I.I.I.I.I.I.I.I.I.I.I.I.I.I.I.I.I.I.I.I.I.I.I.I.I.I.I.I."
};
