/* XPM */
static char * jump_7_xpm[] = {
"50 50 522 2",
"  	c None",
". 	c #5B2621",
"+ 	c #8B614D",
"@ 	c #503A31",
"# 	c #231115",
"$ 	c #2B141B",
"% 	c #A4674D",
"& 	c #C1775D",
"* 	c #68453A",
"= 	c #40212A",
"- 	c #502935",
"; 	c #3C1F28",
"> 	c #301920",
", 	c #AE6E55",
"' 	c #DA9474",
") 	c #C2755F",
"! 	c #210F13",
"~ 	c #3D2029",
"{ 	c #542C38",
"] 	c #502A35",
"^ 	c #3F202A",
"/ 	c #2E161C",
"( 	c #783729",
"_ 	c #D68F75",
": 	c #DF9A7D",
"< 	c #8D5140",
"[ 	c #1B0F14",
"} 	c #3B1F28",
"| 	c #572E3A",
"1 	c #592F3C",
"2 	c #48252F",
"3 	c #2E151A",
"4 	c #5D463A",
"5 	c #9D735E",
"6 	c #9A6D5A",
"7 	c #775345",
"8 	c #372523",
"9 	c #341921",
"0 	c #4F2834",
"a 	c #5B303D",
"b 	c #492530",
"c 	c #251318",
"d 	c #6F5546",
"e 	c #7F6454",
"f 	c #373C3A",
"g 	c #112E38",
"h 	c #15272F",
"i 	c #0C1618",
"j 	c #3A1E26",
"k 	c #562D3A",
"l 	c #572D3A",
"m 	c #3E2029",
"n 	c #160B0E",
"o 	c #78473B",
"p 	c #896B58",
"q 	c #665D4F",
"r 	c #004B45",
"s 	c #0A4647",
"t 	c #17323A",
"u 	c #14262D",
"v 	c #0B1416",
"w 	c #040A09",
"x 	c #040708",
"y 	c #221317",
"z 	c #4F2934",
"A 	c #5A2F3C",
"B 	c #4D2833",
"C 	c #2E1821",
"D 	c #DA977D",
"E 	c #B9886D",
"F 	c #714B38",
"G 	c #705242",
"H 	c #755847",
"I 	c #795B4A",
"J 	c #7A5C4B",
"K 	c #684E3F",
"L 	c #896856",
"M 	c #C3947B",
"N 	c #44463D",
"O 	c #004F4A",
"P 	c #074D4C",
"Q 	c #16373E",
"R 	c #17343E",
"S 	c #14232A",
"T 	c #0A1516",
"U 	c #022524",
"V 	c #0F1B1B",
"W 	c #482632",
"X 	c #5A2F3D",
"Y 	c #502A37",
"Z 	c #24131F",
"` 	c #000000",
" .	c #D2876F",
"..	c #E5A083",
"+.	c #CC8D65",
"@.	c #BD7B5B",
"#.	c #C8967A",
"$.	c #D6A487",
"%.	c #EAB394",
"&.	c #EBB494",
"*.	c #D3A286",
"=.	c #A27C66",
"-.	c #8F6C58",
";.	c #997560",
">.	c #AE846D",
",.	c #29423C",
"'.	c #004F4C",
").	c #005753",
"!.	c #0E4348",
"~.	c #173640",
"{.	c #16272F",
"].	c #0A1619",
"^.	c #023230",
"/.	c #063836",
"(.	c #3B2830",
"_.	c #582E3B",
":.	c #5A303D",
"<.	c #4F2A37",
"[.	c #29151C",
"}.	c #BD735E",
"|.	c #AF7258",
"1.	c #944F37",
"2.	c #5A1400",
"3.	c #514237",
"4.	c #A7806A",
"5.	c #A9816B",
"6.	c #9D7863",
"7.	c #BE9177",
"8.	c #CB9B7F",
"9.	c #B1876F",
"0.	c #A9816A",
"a.	c #977460",
"b.	c #624D40",
"c.	c #4E4940",
"d.	c #1B4642",
"e.	c #004240",
"f.	c #003037",
"g.	c #002430",
"h.	c #001823",
"i.	c #000F15",
"j.	c #022E25",
"k.	c #00453B",
"l.	c #1B2A27",
"m.	c #552D39",
"n.	c #462633",
"o.	c #22121A",
"p.	c #8E5346",
"q.	c #96725D",
"r.	c #AE856E",
"s.	c #D5A286",
"t.	c #DAA78A",
"u.	c #D0A084",
"v.	c #B08870",
"w.	c #A37E67",
"x.	c #9F7A65",
"y.	c #9F7863",
"z.	c #9A6655",
"A.	c #6E343B",
"B.	c #273B29",
"C.	c #00503E",
"D.	c #16322E",
"E.	c #42242E",
"F.	c #562D39",
"G.	c #3C212F",
"H.	c #1A0D15",
"I.	c #34181A",
"J.	c #71453B",
"K.	c #97705C",
"L.	c #C4846F",
"M.	c #EFA389",
"N.	c #F5B898",
"O.	c #F4BB9A",
"P.	c #F3BA99",
"Q.	c #EBA98D",
"R.	c #D77C6B",
"S.	c #B25855",
"T.	c #404130",
"U.	c #005441",
"V.	c #0D3733",
"W.	c #2A1920",
"X.	c #4C2934",
"Y.	c #3A1F2B",
"Z.	c #180C16",
"`.	c #55302D",
" +	c #964A45",
".+	c #783B37",
"++	c #8E5145",
"@+	c #BC7965",
"#+	c #E9A48A",
"$+	c #E79681",
"%+	c #DD7E6E",
"&+	c #CD685F",
"*+	c #7E453C",
"=+	c #155A39",
"-+	c #01624B",
";+	c #0E3433",
">+	c #1F141D",
",+	c #3C212B",
"'+	c #2C1826",
")+	c #160B14",
"!+	c #010100",
"~+	c #041F1F",
"{+	c #183936",
"]+	c #503835",
"^+	c #7E403B",
"/+	c #8A453F",
"(+	c #7B3F39",
"_+	c #824A41",
":+	c #844F3E",
"<+	c #B35B52",
"[+	c #C56559",
"}+	c #6E4334",
"|+	c #005F3C",
"1+	c #02664B",
"2+	c #0E3532",
"3+	c #1A111B",
"4+	c #2A1726",
"5+	c #231422",
"6+	c #1F1019",
"7+	c #201115",
"8+	c #003835",
"9+	c #01534F",
"0+	c #094C49",
"a+	c #1C3D3B",
"b+	c #433230",
"c+	c #8A4640",
"d+	c #964B45",
"e+	c #814137",
"f+	c #68312E",
"g+	c #522A25",
"h+	c #264B34",
"i+	c #006C48",
"j+	c #04574C",
"k+	c #0C3032",
"l+	c #141017",
"m+	c #261524",
"n+	c #21121B",
"o+	c #391E26",
"p+	c #46242E",
"q+	c #29151B",
"r+	c #AE2F55",
"s+	c #6A1635",
"t+	c #22070D",
"u+	c #00110C",
"v+	c #033735",
"w+	c #005652",
"x+	c #014F4B",
"y+	c #043432",
"z+	c #081A1E",
"A+	c #271719",
"B+	c #7B3C3A",
"C+	c #6C4433",
"D+	c #00623A",
"E+	c #006F4D",
"F+	c #0A4343",
"G+	c #0D1C21",
"H+	c #180E17",
"I+	c #221320",
"J+	c #2C171E",
"K+	c #522B38",
"L+	c #592F3B",
"M+	c #43232D",
"N+	c #152316",
"O+	c #633033",
"P+	c #9C2148",
"Q+	c #941E43",
"R+	c #65172E",
"S+	c #46151E",
"T+	c #092325",
"U+	c #094343",
"V+	c #04504E",
"W+	c #04504F",
"X+	c #094D4B",
"Y+	c #114345",
"Z+	c #163038",
"`+	c #111E22",
" @	c #002D1B",
".@	c #005C36",
"+@	c #007B4B",
"@@	c #03674A",
"#@	c #083A37",
"$@	c #0A1416",
"%@	c #1C101B",
"&@	c #1E101B",
"*@	c #371D29",
"=@	c #582F3B",
"-@	c #4B2833",
";@	c #311A21",
">@	c #0B1312",
",@	c #0C432B",
"'@	c #434840",
")@	c #7F223F",
"!@	c #871A3E",
"~@	c #781A3C",
"{@	c #551D27",
"]@	c #371614",
"^@	c #10252C",
"/@	c #153B42",
"(@	c #143B41",
"_@	c #153138",
":@	c #16252E",
"<@	c #0E151D",
"[@	c #062B1D",
"}@	c #01613A",
"|@	c #007A49",
"1@	c #01724C",
"2@	c #0B4C44",
"3@	c #0D2429",
"4@	c #140E14",
"5@	c #1D101B",
"6@	c #281623",
"7@	c #412432",
"8@	c #542D39",
"9@	c #3D212A",
"0@	c #3B2029",
"a@	c #44242E",
"b@	c #3B2129",
"c@	c #3B202A",
"d@	c #381F27",
"e@	c #1E0D13",
"f@	c #3B2D25",
"g@	c #30241E",
"h@	c #131414",
"i@	c #0E2E1E",
"j@	c #1C2F1F",
"k@	c #361920",
"l@	c #491620",
"m@	c #441622",
"n@	c #3A191D",
"o@	c #261111",
"p@	c #101A22",
"q@	c #0C161F",
"r@	c #0A0B14",
"s@	c #061513",
"t@	c #025331",
"u@	c #005E37",
"v@	c #004F2E",
"w@	c #004A2A",
"x@	c #003F2A",
"y@	c #001F20",
"z@	c #000208",
"A@	c #000007",
"B@	c #180D18",
"C@	c #2B1827",
"D@	c #391F2E",
"E@	c #482735",
"F@	c #542C3A",
"G@	c #532C38",
"H@	c #572E3B",
"I@	c #522C38",
"J@	c #4C2834",
"K@	c #412C2B",
"L@	c #A88069",
"M@	c #B48A71",
"N@	c #4E3B30",
"O@	c #17040B",
"P@	c #2A1017",
"Q@	c #431821",
"R@	c #522120",
"S@	c #3F1A19",
"T@	c #170809",
"U@	c #01492B",
"V@	c #00673D",
"W@	c #006F42",
"X@	c #007448",
"Y@	c #045F46",
"Z@	c #302F2A",
"`@	c #803C40",
" #	c #9B484F",
".#	c #B65A54",
"+#	c #C76F61",
"@#	c #A1664C",
"##	c #40291E",
"$#	c #241423",
"%#	c #291626",
"&#	c #321B2B",
"*#	c #3F2230",
"=#	c #4C2937",
"-#	c #552D3A",
";#	c #4E2A36",
">#	c #4F2A36",
",#	c #512A36",
"'#	c #341C20",
")#	c #846451",
"!#	c #D9A688",
"~#	c #E7B091",
"{#	c #E0AB8D",
"]#	c #785C4D",
"^#	c #251818",
"/#	c #32141A",
"(#	c #401A23",
"_#	c #30121A",
":#	c #0C0404",
"<#	c #013E25",
"[#	c #024F2F",
"}#	c #004837",
"|#	c #04322D",
"1#	c #3C2227",
"2#	c #974948",
"3#	c #C2625E",
"4#	c #E08566",
"5#	c #F4A36A",
"6#	c #BC8051",
"7#	c #422B1A",
"8#	c #160C15",
"9#	c #1D0F1B",
"0#	c #22131F",
"a#	c #2A1827",
"b#	c #321B2A",
"c#	c #3A202C",
"d#	c #391F2C",
"e#	c #2E181F",
"f#	c #371D26",
"g#	c #492632",
"h#	c #2C131A",
"i#	c #281E18",
"j#	c #A37C66",
"k#	c #FCC1A0",
"l#	c #C3A190",
"m#	c #947A6C",
"n#	c #36241F",
"o#	c #3C181D",
"p#	c #311317",
"q#	c #090304",
"r#	c #261212",
"s#	c #5F332B",
"t#	c #7B4935",
"u#	c #805536",
"v#	c #865C38",
"w#	c #64452B",
"x#	c #22160C",
"y#	c #0D070A",
"z#	c #130B10",
"A#	c #130B0F",
"B#	c #110E12",
"C#	c #28161C",
"D#	c #492732",
"E#	c #562E3A",
"F#	c #42242D",
"G#	c #1F0F14",
"H#	c #93705C",
"I#	c #E5AF90",
"J#	c #EFB697",
"K#	c #C99A7F",
"L#	c #B58A72",
"M#	c #694F41",
"N#	c #3B181A",
"O#	c #421C1B",
"P#	c #45221F",
"Q#	c #A06145",
"R#	c #C78954",
"S#	c #C68954",
"T#	c #C88954",
"U#	c #94663F",
"V#	c #1A0B10",
"W#	c #2B151C",
"X#	c #4D2A35",
"Y#	c #2B1E1D",
"Z#	c #261D18",
"`#	c #2B211B",
" $	c #2C221B",
".$	c #291F19",
"+$	c #261C17",
"@$	c #150F0C",
"#$	c #0B0405",
"$$	c #0B0603",
"%$	c #352214",
"&$	c #412C1C",
"*$	c #000508",
"=$	c #281B10",
"-$	c #1B1008",
";$	c #361A23",
">$	c #43222C",
",$	c #522B37",
"'$	c #2F1923",
")$	c #63442F",
"!$	c #916B53",
"~$	c #926E5A",
"{$	c #432F1E",
"]$	c #301F10",
"^$	c #3C202A",
"/$	c #42222C",
"($	c #532B37",
"_$	c #5B2F3C",
":$	c #4A2735",
"<$	c #301922",
"[$	c #7E604F",
"}$	c #B98D74",
"|$	c #000008",
"1$	c #2F1921",
"2$	c #492631",
"3$	c #522C39",
"4$	c #3D212D",
"5$	c #20111C",
"6$	c #5D473A",
"7$	c #9D6E59",
"8$	c #986F5B",
"9$	c #48322E",
"0$	c #442532",
"a$	c #492836",
"b$	c #462634",
"c$	c #3B1C2D",
"d$	c #2F1526",
"e$	c #1A0E17",
"f$	c #55382C",
"g$	c #493328",
"h$	c #1F1413",
"i$	c #1E101A",
"j$	c #2D1929",
"k$	c #251A26",
"l$	c #15141A",
"m$	c #080404",
"n$	c #11080B",
"o$	c #140A0E",
"p$	c #1D0F1A",
"q$	c #251524",
"r$	c #211320",
"s$	c #020202",
"t$	c #10080A",
"u$	c #13090D",
"v$	c #140911",
"w$	c #010101",
"                                          .                                                         ",
"                                        + @ # $                                                     ",
"                                      % & * = - ; >                                                 ",
"                                    , ' )   ! ~ { ] ^ /                                             ",
"                                  ( _ : <     [ } | 1 2 3                                           ",
"                                4 5 6 7 8       9 0 a 1 b c                                         ",
"                                d e f g h i       j k a l m n                                       ",
"      o                         p q r s t u v w x y z a A B C                                       ",
"      D E F G H I J K         L M N O P Q R S T U V W X a Y Z `                                     ",
"     ...+.@.#.$.%.&.*.=.-.    ;.>.,.'.).!.~.{.].^./.(._.:.<.[.`                                     ",
"  }.|.1.2.` ` 3.4.5.6.7.8.9.0.a.b.c.d.e.f.g.h.i.j.k.l.m.1 n.o.`                                     ",
"  p.                      q.r.s.t.u.v.w.x.y.z.A.B.C.D.E.F.G.H.`                                     ",
"                          I.J.K.L.M.N.O.P.Q.R.S.T.U.V.W.X.Y.Z.`                                     ",
"                            `. +.+++@+#+$+%+&+*+=+-+;+>+,+'+)+!+                                    ",
"                          ~+{+]+^+/+(+_+:+<+[+}+|+1+2+3+4+5+6+7+                                    ",
"                          8+9+0+a+b+c+d+e+f+g+h+i+j+k+l+m+n+o+p+q+                      r+s+t+      ",
"                        u+v+9+w+w+x+y+z+A+B+C+D+E+F+G+H+I+J+K+L+M+                  N+O+P+Q+R+S+    ",
"                          T+U+V+W+X+Y+Z+`+ @.@+@@@#@$@%@&@*@m.=@-@;@7+            >@,@'@)@!@~@{@]@  ",
"                            ^@/@(@_@:@<@[@}@|@1@2@3@4@5@6@7@8@{ 9@0@a@b@c@d@e@f@g@h@i@j@k@l@m@n@o@  ",
"                              p@q@r@s@t@u@v@w@x@y@z@A@B@C@D@E@F@G@{ X H@I@J@K@L@M@N@` O@P@Q@R@S@T@  ",
"                                U@V@W@X@Y@Z@`@ #.#+#@###$#%#&#*#=#-#k ;#>#,#'#)#!#~#{#]#^#/#(#_#:#  ",
"                                  <#[#}#|#1#2#3#4#5#6#7#8#9#0#a#b#c#d#e#f#g#h#i#j#O.k#l#m#n#o#p#q#  ",
"                                          r#s#t#u#v#w#x#    y#z#A#B#C#D#E#F#G#  H#I#J#K#L#M#N#O#    ",
"                                          P#Q#R#S#T#U#          V#W#-@1 X#Y#    Z#`# $.$+$@$#$      ",
"                                          $$%$&$*$=$-$        ;$>$F.a ,$'$                          ",
"                                            )$!$~${$]$    ^$/$($_$F.:$<$                            ",
"                                              [$}$d |$1$2$I@1 3$:$4$5$                              ",
"                                                6$7$8$9$0$a$b$c$d$e$                                ",
"                                                  f$g$h$i$4+j$k$l$                                  ",
"                                                    m$n$o$p$q$r$                                    ",
"                                                      s$t$u$Z.v$                                    ",
"                                                        w$w$w$                                      ",
"                                                                                                    ",
"                                                                                                    ",
"                                                                                                    ",
"                                                                                                    ",
"                                                                                                    ",
"                                                                                                    ",
"                                                                                                    ",
"                                                                                                    ",
"                                                                                                    ",
"                                                                                                    ",
"                                                                                                    ",
"                                                                                                    ",
"                                                                                                    ",
"                                                                                                    ",
"                                                                                                    ",
"                                                                                                    ",
"                                                                                                    ",
"                                                                                                    "};
