/* XPM */
static char * number_5_xpm[] = {
"50 50 200 2",
"  	c #363332",
". 	c #3F3935",
"+ 	c #4C4137",
"@ 	c #564B41",
"# 	c #4D4239",
"$ 	c #4C3F39",
"% 	c #52463A",
"& 	c #55493C",
"* 	c #504437",
"= 	c #594E43",
"- 	c #5F5145",
"; 	c #413638",
"> 	c #36312D",
", 	c #7F7464",
"' 	c #94897B",
") 	c #93846D",
"! 	c #9C8D81",
"~ 	c #978871",
"{ 	c #9E917C",
"] 	c #9C8C7B",
"^ 	c #907E71",
"/ 	c #9C8B73",
"( 	c #9F9177",
"_ 	c #A49277",
": 	c #948572",
"< 	c #453D39",
"[ 	c #3C3533",
"} 	c #665C53",
"| 	c #AF9C89",
"1 	c #B6A191",
"2 	c #AB9683",
"3 	c #B39E8A",
"4 	c #BBA493",
"5 	c #AE9A7C",
"6 	c #ACA08B",
"7 	c #B49A7E",
"8 	c #BBA286",
"9 	c #B6A184",
"0 	c #B5A38B",
"a 	c #B19782",
"b 	c #A9967C",
"c 	c #B59C82",
"d 	c #B1977B",
"e 	c #66594B",
"f 	c #BFA890",
"g 	c #C9AE98",
"h 	c #C9B092",
"i 	c #BDA98B",
"j 	c #BDA48A",
"k 	c #C4AB91",
"l 	c #BA9E89",
"m 	c #C1A68C",
"n 	c #C3A98E",
"o 	c #C6B095",
"p 	c #6A6158",
"q 	c #B99E84",
"r 	c #C9AD95",
"s 	c #C3A691",
"t 	c #695E52",
"u 	c #C4AA8D",
"v 	c #BCA183",
"w 	c #B89E7E",
"x 	c #C4A98C",
"y 	c #C6AD8F",
"z 	c #B89F81",
"A 	c #BEA78A",
"B 	c #C6AD91",
"C 	c #BEA688",
"D 	c #C3A98D",
"E 	c #C5AB8E",
"F 	c #BBA084",
"G 	c #B69C7D",
"H 	c #C2A78A",
"I 	c #C2A68A",
"J 	c #C1A68A",
"K 	c #C3A88B",
"L 	c #C4AA8F",
"M 	c #BB9E87",
"N 	c #C4AA8C",
"O 	c #BBA083",
"P 	c #B69C7E",
"Q 	c #C3A88C",
"R 	c #CBAF95",
"S 	c #3F3638",
"T 	c #C6AB8C",
"U 	c #3A3333",
"V 	c #695C4C",
"W 	c #A39281",
"X 	c #BDA288",
"Y 	c #C7AE91",
"Z 	c #C6AA92",
"` 	c #BDA38C",
" .	c #C0A98D",
"..	c #B79E80",
"+.	c #C4A78F",
"@.	c #C4AB8F",
"#.	c #C3A58E",
"$.	c #BEA488",
"%.	c #B69C80",
"&.	c #CAAD93",
"*.	c #BFA589",
"=.	c #BCA088",
"-.	c #C0A88B",
";.	c #BCA182",
">.	c #3F382F",
",.	c #BEA584",
"'.	c #AD9A83",
").	c #C4A98D",
"!.	c #433A33",
"~.	c #B9A689",
"{.	c #A3927D",
"].	c #4A3F34",
"^.	c #A18D75",
"/.	c #C6AC8F",
"(.	c #413632",
"_.	c #A28F7A",
":.	c #BAA482",
"<.	c #C2A88D",
"[.	c #C0AB89",
"}.	c #3B3333",
"|.	c #3C3534",
"1.	c #3B3433",
"2.	c #C2A78C",
"3.	c #3C3434",
"4.	c #4D453A",
"5.	c #605343",
"6.	c #6F5F47",
"7.	c #77674B",
"8.	c #7B684A",
"9.	c #7B6A4D",
"0.	c #7B684B",
"a.	c #7D6C55",
"b.	c #B59B7E",
"c.	c #3C3433",
"d.	c #3D3533",
"e.	c #3E3533",
"f.	c #3E3633",
"g.	c #3E3634",
"h.	c #3F3734",
"i.	c #3F3735",
"j.	c #3E3635",
"k.	c #B99F80",
"l.	c #635646",
"m.	c #C2A78B",
"n.	c #BDA485",
"o.	c #63574A",
"p.	c #B7A188",
"q.	c #B89F82",
"r.	c #BDA388",
"s.	c #3E352E",
"t.	c #C6AC8E",
"u.	c #CCB393",
"v.	c #BDA387",
"w.	c #CBB197",
"x.	c #C0A88C",
"y.	c #BEA587",
"z.	c #BDA486",
"A.	c #C1A68B",
"B.	c #B8A083",
"C.	c #C1A58A",
"D.	c #9C886F",
"E.	c #C6A88F",
"F.	c #CAAE94",
"G.	c #C0A788",
"H.	c #BCA388",
"I.	c #BFA68A",
"J.	c #C1A787",
"K.	c #CBAE92",
"L.	c #C7AC8E",
"M.	c #BEA487",
"N.	c #B59D80",
"O.	c #C6A88E",
"P.	c #C4A889",
"Q.	c #41372D",
"R.	c #C6AB8B",
"S.	c #C5A98A",
"T.	c #B59B7B",
"U.	c #C4AA8E",
"V.	c #B79E81",
"W.	c #BEA588",
"X.	c #C9AD93",
"Y.	c #C3A68F",
"Z.	c #BB9F86",
"`.	c #BDA484",
" +	c #B2987B",
".+	c #5F554B",
"++	c #B49E91",
"@+	c #353338",
"#+	c #7A6C5D",
"$+	c #837565",
"%+	c #877969",
"&+	c #826F67",
"*+	c #88776F",
"=+	c #8C7D71",
"-+	c #897B6B",
";+	c #877867",
">+	c #84776B",
",+	c #7D6E61",
"'+	c #77685B",
")+	c #41392F",
"  . + + @ # $ $ + % & % + * $ % = @ % % & & # % + % & @ % # # + % & & + % & + % % # @ - & # % # ;   ",
"> @ , ' ' ) ! ' ) ~ { ] ~ ' ^ ) / ~ ) ~ / ~ ) ~ ) ~ ( { / / / ~ / ] ~ ) ] ] ~ / / ) / _ / ~ ] : , < ",
"[ } ' | 1 2 3 4 5 6 7 8 9 0 a 2 9 9 b 7 0 7 c 8 9 b 9 0 9 9 9 b 7 9 d b 9 9 5 9 9 _ 5 0 9 9 9 2 ! @ ",
"[ e { 0 0 3 f g 7 7 h 8 i i 3 a j j 7 0 i 8 9 k 8 c i i 8 i i 7 l m c 7 j n 9 j i 7 9 o 0 8 i 2 ! + ",
"< p { 0 i q j r q 8 h 8 m n l c k k c j n l q n q q n n 8 j j q m n l d m m 7 m j c m r q 8 n 3 ! + ",
". p { i n 9 i r 8 q n n n r q 7 m k l m r q q m m q m h j k s c 8 n 8 q m n c m n a q r s n s 2 ! . ",
"; t ( 0 n 7 h h 8 q m m m u v w x y z A B C D E F G H I J K L M I N O P Q R 8 n m 7 q n n m n c ! + ",
"S } ( i n 8 h n 7 q n n T U U U U U U U U U U U U U U U U U U U U U U U U U U n m d 7 n m m n q ! # ",
"S V { 0 i 7 n r q j n m U U U U U U U U U U U U U U U U U U U U U U U U U U U D m c 8 n m j n 3 W + ",
"[ p ( i i 7 m h l l s n U U U X Y Z `  .B C ..E Q O +.@.J #.$.%.$.&.*.=.x U U -.m 3 8 r s j s a ! + ",
". V ( i m 7 m s a l g r U U ;.c k s q m n l 7 n l q s r s k s q 8 n m 7 s U U -.s c l k s 0 s 2 ! # ",
">.V ( i 8 7 m g l l k s U U ,.7 n m 7 m m 7 7 n m 7 m n m m m c m h 7 7 j U U -.m 7 8 n n 8 n '.! # ",
">.e ] j j 7 f g l l r n U U ;.7 n i 7 m m 7 7 n n 7 m n j m 8 7 n h 7 7 m U U ).m 7 q n n 8 n 5 W + ",
". V _ n n 7 f i l j n m U U ,.q m n 7 m h 8 8 n i 7 m n m m n 7 7 n m 7 m U U ).j 7 8 n n 8 n 5 { !.",
". e ( j n l k o q 9 n n U U ~.q m m 7 m n 8 7 n 8 7 n m n n m 7 7 h 7 7 m U U ).m 7 8 n n j n 3 {.].",
". V ^.j m 8 k k q 9 n n U U ~.q h n 7 m n 8 m h m 8 n m m m n 8 m h m 7 8 U U /.m 7 8 h n 8 n '.{.].",
"(.V _.m n 9 i o 9 8 n m U U :.c m h 7 m n m q n U U U U U U U U U U U U U U U ).n 7 m n n 8 n '.{.].",
"(.V _.m k 0 f f 9 8 h k U U ,.7 m n 7 m n q q U U U U U U U U U U U U U U U U <.n 7 q n n m r c {.].",
"S V ^.m s j k o 7 8 n n U U [.c n n 8 8 n m m U U }.}.|.|.|.|.|.|.|.|.1.1.U 2.n m 7 q n n i r a _.].",
"S V / j s j f k 7 7 m f U U ~.q n n 7 8 m m m U 3.4.5.6.7.8.9.0.a.N O b.m n m n m 7 q n j 8 r 3 _.].",
"S e / 8 m l f o i 7 h n U U ~.q n n 7 q n m q U U 1.c.d.e.e.f.f.f.g.h.i.j.Q q m n q 8 n m 8 s q _.].",
"[ e ^.m n c 0 r 7 i h n U U ;.q n n 7 m n 7 d m U U U U U U U U U U U U U U k.q n 7 q h m m j 5 ] + ",
"[ l.^.j n 9 i h 7 7 i n U U :.c m m 8 m n 8 q m 7 7 m h n n n 7 8 m.n.U U U U E m 7 7 n n m m c _.& ",
"[ l.^.j i 9 i h 7 7 h n U U :.7 n n q m n q c m m 7 m n m n n q m n 7 7 x U U U <.7 q n n m m c {.& ",
"[ o.^.m j a l k i 7 h n U U p.7 m n q m n q 7 n m 7 m n m m m 7 8 n 8 q m U U U U q q n m 8 j '.{.& ",
"[ e _.m m l s n 7 7 h n U U :.c m m q 8 n 8 q n m 7 m h m m m 7 8 m q q 8 m U U U 7 q n m 8 i c {.& ",
"[ o.^.j m l k f 7 8 n n U U [.c m n q 8 n j 8 n m q m n m m n q 8 n 8 7 m m ..U U q.q n m 8 m q {.% ",
"[ l.^.j m 3 i k 7 8 n m U U :.c m n 7 8 n l q n 8 7 m n m m n 7 m n 8 7 m m q U U r.q r n 8 j 3 2 & ",
"s.l.^.j n j m r 9 8 n n U U U w t.u.v.A w.x.y.E z.O H @.A.m m 7 8 r 8 q m m 7 U U B.q r n 8 n 3 2 & ",
"S e _ m n q 0 k 8 q r h U U U U U U U U U U U U U U U U U C.n q 8 n j q m n 8 U U B.8 n m m k c {.& ",
". l.D.j n l r o 8 c m s E.U U U U U U U U U U U U U U U U U r q 8 r q 7 m n j U U B.q n m m k 3 {.& ",
". l.D.8 n i k k q c s k k F.G.w x y v.H.B x.y.R I.O H U U U n q 8 n q 7 m n 8 U U B.q n j j k q {.& ",
"S l.^.8 m q n o 8 8 s n j r m q n n q q n q q r m l m K U U s q 8 n 8 c 8 m 7 U U B.q n m m n 7 {.& ",
"[ l.^.m n 7 8 o 8 8 k s J.U U U U U U U U U U U U U U U U U n c 8 g 8 q 8 m 7 U U r.q n n m n c {.& ",
"[ l.^.8 j 7 i f q q r K.U U U U U U U U U U U U U U U U U U m c 8 r l 7 m m 7 U U B.7 r m j n 3 {.& ",
"[ l.D.8 j c i k c c j L.U U U U U U U U U U U U U U U U M.k j c 8 n 8 7 m m 7 U U N.7 n m j i c {.& ",
"[ l.D.m m d 8 o l q s O.U U q c m m q 8 m q 7 n m l s k m m m q 8 n q 7 8 m 7 U U B.q n j 8 n 3 {.& ",
"s.l.^.m n 7 i n c q r O.U U 8 7 m n c 8 n 8 q m 8 l j s j s k a l n l 7 8 m ..U U H.q n m 8 m c {.& ",
"[ l./ 8 n m m r q q r P.U U 8 7 m n c j n 8 q m j c m k j s k c 8 n q 7 8 m U U U q q n m 8 m c {.% ",
"> l.D.8 m 7 n n q q r O.U U 8 7 m n q 8 n 8 l n j c m s m m j q 8 n 8 7 m U U U U 7 q n m 8 j 3 {.% ",
"Q.l.D.8 n 9 i i 8 q r O.U U q 7 m n q 8 n 8 q n m 3 f k m j n 7 8 r 8 c U U U U @.7 q n m 8 m 3 2 + ",
"[ l.^.m n 9 i h 8 q m K.U U m 7 n n q 8 k 8 q k m q j k j j m q q r n.U U U U D n q q n m 8 m c b + ",
"[ l.D.8 n 8 i o q q n R.U U S.T.t.y v.A w.U.y.E I.V.W.X.Y.K L Z.U U U U U U y.m n 7 q n m 8 m q {.% ",
"[ l.D.q n 8 h o 9 7 n E.U U U U U U U U U U U U U U U U U U U U U U U U U U.8 m n 7 7 n m j m 0 W % ",
"[ l.D.q n 7 n h l c s s U U U U U U U U U U U U U U U U U U U U U U `. +j n q 8 n 7 7 n m 8 n 3 W % ",
"s.= ] 8 n 5 7 h 8 l s g j m c d j k l 8 k q 7 j j c j r j j j c q n m 7 n j d 8 n 7 7 n m 8 m q { .+",
"S = ] 9 i 5 8 m l c s s 4 m l d j i q 8 j 3 c 0 i '.8 k j f m a q s 8 7 j j c 8 m d 2 n s 0 j '.! .+",
"[ @ ) 6 6 b | 0 3 2 ++4 ++4 3 b 6 0 b '.6 b _ c | 2 '.1 0 8 3 b 2 0 3 _.| | 2 '.4 2 2 3 3 0 1 2 ! o.",
"@+# p , , #+$+) %+&+*+=+*+-+;+&+;+-+;+;+;+&+#+;+%+&+$+-+;+-+-+$+>+=+%+, >+%+,+$+-+, '+#+#+'+#+p p !.",
"@+@+. !.. )+!.!.(.(.; !.!.!.Q.Q.!.!.)+!.!.Q.Q.)+!.Q.)+!.)+!.(.Q.s.!.)+. !.s.s.s.!.s.s.. !.!.!.>.. > "};
