/* XPM */
static char * number_2_xpm[] = {
"50 50 181 2",
"  	c #363332",
". 	c #3F3935",
"+ 	c #4C4137",
"@ 	c #564B41",
"# 	c #4D4239",
"$ 	c #4C3F39",
"% 	c #52463A",
"& 	c #55493C",
"* 	c #504437",
"= 	c #594E43",
"- 	c #5F5145",
"; 	c #413638",
"> 	c #36312D",
", 	c #7F7464",
"' 	c #94897B",
") 	c #93846D",
"! 	c #9C8D81",
"~ 	c #978871",
"{ 	c #9E917C",
"] 	c #9C8C7B",
"^ 	c #907E71",
"/ 	c #9C8B73",
"( 	c #9F9177",
"_ 	c #A49277",
": 	c #948572",
"< 	c #453D39",
"[ 	c #3C3533",
"} 	c #665C53",
"| 	c #AF9C89",
"1 	c #B6A191",
"2 	c #AB9683",
"3 	c #B39E8A",
"4 	c #BBA493",
"5 	c #AE9A7C",
"6 	c #ACA08B",
"7 	c #B49A7E",
"8 	c #BBA286",
"9 	c #B6A184",
"0 	c #B5A38B",
"a 	c #B19782",
"b 	c #A9967C",
"c 	c #B59C82",
"d 	c #B1977B",
"e 	c #66594B",
"f 	c #BFA890",
"g 	c #C9AE98",
"h 	c #C9B092",
"i 	c #BDA98B",
"j 	c #BDA48A",
"k 	c #C4AB91",
"l 	c #BA9E89",
"m 	c #C1A68C",
"n 	c #C3A98E",
"o 	c #C6B095",
"p 	c #6A6158",
"q 	c #B99E84",
"r 	c #C9AD95",
"s 	c #C4A98E",
"t 	c #CAAE94",
"u 	c #3A3333",
"v 	c #B69D80",
"w 	c #BCA385",
"x 	c #C3A691",
"y 	c #695E52",
"z 	c #C2A78B",
"A 	c #3F3638",
"B 	c #695C4C",
"C 	c #C1A989",
"D 	c #BDA285",
"E 	c #C6AD8F",
"F 	c #C4AA8F",
"G 	c #B89F81",
"H 	c #BEA688",
"I 	c #C5AC8F",
"J 	c #BEA587",
"K 	c #BDA486",
"L 	c #C4AA8D",
"M 	c #B69B7D",
"N 	c #C2A68A",
"O 	c #C3A98C",
"P 	c #BEA488",
"Q 	c #C2A78A",
"R 	c #A39281",
"S 	c #C2A78D",
"T 	c #BFA68C",
"U 	c #3F382F",
"V 	c #B79E7F",
"W 	c #AD9A83",
"X 	c #BEA58B",
"Y 	c #433A33",
"Z 	c #A3927D",
"` 	c #4A3F34",
" .	c #A18D75",
"..	c #413632",
"+.	c #A28F7A",
"@.	c #C5A98A",
"#.	c #C1A68A",
"$.	c #C1A58A",
"%.	c #CAAF97",
"&.	c #BFAB8B",
"*.	c #B79F83",
"=.	c #C5AB8F",
"-.	c #C5AB90",
";.	c #BDA588",
">.	c #BDA487",
",.	c #C4AB8F",
"'.	c #C2A78C",
").	c #C3A88C",
"!.	c #C1A68B",
"~.	c #C4AA8E",
"{.	c #C5AC90",
"].	c #BCA285",
"^.	c #BA9E83",
"/.	c #635646",
"(.	c #BEA687",
"_.	c #BA9F84",
":.	c #C4AB8E",
"<.	c #63574A",
"[.	c #CBB190",
"}.	c #B9A183",
"|.	c #C0AB8B",
"1.	c #B79D80",
"2.	c #BCA286",
"3.	c #C7AC8C",
"4.	c #C4A98B",
"5.	c #C3A98D",
"6.	c #3E352E",
"7.	c #BA9F83",
"8.	c #BEA589",
"9.	c #9C886F",
"0.	c #B89E80",
"a.	c #C7AD8F",
"b.	c #C0A688",
"c.	c #C6AB8C",
"d.	c #BBA084",
"e.	c #BB9F87",
"f.	c #BDA488",
"g.	c #B79D81",
"h.	c #BDA385",
"i.	c #BDA485",
"j.	c #B79D7E",
"k.	c #C4A88A",
"l.	c #41372D",
"m.	c #C6AD90",
"n.	c #C4A889",
"o.	c #B89D7B",
"p.	c #C6A88E",
"q.	c #BEA689",
"r.	c #BFA689",
"s.	c #C3A88B",
"t.	c #B79E82",
"u.	c #B39A7C",
"v.	c #BFA68B",
"w.	c #C6AD93",
"x.	c #BCA18B",
"y.	c #C5AD92",
"z.	c #BAA084",
"A.	c #B59B7E",
"B.	c #BEA58A",
"C.	c #B69C81",
"D.	c #BDA489",
"E.	c #C9AD94",
"F.	c #BEA489",
"G.	c #B69D81",
"H.	c #B69C7E",
"I.	c #BEA68B",
"J.	c #5F554B",
"K.	c #B49E91",
"L.	c #353338",
"M.	c #7A6C5D",
"N.	c #837565",
"O.	c #877969",
"P.	c #826F67",
"Q.	c #88776F",
"R.	c #8C7D71",
"S.	c #897B6B",
"T.	c #877867",
"U.	c #84776B",
"V.	c #7D6E61",
"W.	c #77685B",
"X.	c #41392F",
"  . + + @ # $ $ + % & % + * $ % = @ % % & & # % + % & @ % # # + % & & + % & + % % # @ - & # % # ;   ",
"> @ , ' ' ) ! ' ) ~ { ] ~ ' ^ ) / ~ ) ~ / ~ ) ~ ) ~ ( { / / / ~ / ] ~ ) ] ] ~ / / ) / _ / ~ ] : , < ",
"[ } ' | 1 2 3 4 5 6 7 8 9 0 a 2 9 9 b 7 0 7 c 8 9 b 9 0 9 9 9 b 7 9 d b 9 9 5 9 9 _ 5 0 9 9 9 2 ! @ ",
"[ e { 0 0 3 f g 7 7 h 8 i i 3 a j j 7 0 i 8 9 k 8 c i i 8 i i 7 l m c 7 j n 9 j i 7 9 o 0 8 i 2 ! + ",
"< p { 0 i q j r q 8 h 8 m n l c k k c j n l q n q q n n 8 j j q m n l d m m 7 m j c m r q 8 n 3 ! + ",
". p { i n 9 i r 8 q n n s t u u u u u u u u u u u u u u u u u v w n 8 q m n c m n a q r x n x 2 ! . ",
"; y ( 0 n 7 h h 8 q m z u u u u u u u u u u u u u u u u u u u u u u u u m r 8 n m 7 q n n m n c ! + ",
"A } ( i n 8 h n 7 q n u u u u u u u u u u u u u u u u u u u u u u u u u u n 8 n m d 7 n m m n q ! # ",
"A B { 0 i 7 n r q j n u u u C D E F G H I J K L z M N O P N Q u u u u u u u l m m c 8 n m j n 3 R + ",
"[ p ( i i 7 m h l l x u u u l l k x l j n 8 7 n m q x k m x j c j u u u u u u j m 3 8 r x j x a ! + ",
". B ( i m 7 m x a l g u u u q c k x q m n l 7 n l q x r x k x q 8 n S u u u u T x c l k x 0 x 2 ! # ",
"U B ( i 8 7 m g l l k u u u 8 7 n m 7 m m 7 7 n m 7 m n m m m c m h 7 V u u u u m 7 8 n n 8 n W ! # ",
"U e ] j j 7 f g l l r u u u q 7 n i 7 m m 7 7 n n 7 m n j m 8 7 n h 7 7 u u u u m 7 q n n 8 n 5 R + ",
". B _ n n 7 f i l j n u u u 8 q m n 7 m h 8 8 n i 7 m n m m n 7 7 n m 7 m u u u X 7 8 n n 8 n 5 { Y ",
". e ( j n l k o q 9 n u u u 0 q m m 7 m n 8 7 n 8 7 n m n n m 7 7 h 7 7 m u u u S 7 8 n n j n 3 Z ` ",
". B  .j m 8 k k q 9 n u u u u u u u u u u u u u u u u N m m n 8 m h m 7 8 u u u S 7 8 h n 8 n W Z ` ",
"..B +.m n 9 i o 9 8 n @.u u u u u u u u u u u u u u u u #.m m 7 m n m 7 n u u u F 7 m n n 8 n W Z ` ",
"..B +.m k 0 f f 9 8 h k u u u u u u u u u u u u u u u u $.n n q m n q 7 n u u u F 7 q n n m r c Z ` ",
"A B  .m x j k o 7 8 n n g %.&.*.=.-.;.>.,.'.'.u u u u u ).n n q m m m 7 m u u u S 7 q n n i r a +.` ",
"A B / j x j f k 7 7 m f k k 0 q n n 7 8 L u u u u u u u !.n n q m n q 7 m u u u S 7 q n j 8 r 3 +.` ",
"A e / 8 m l f o i 7 h n x k 0 q ~.{.u u u u u u u u u O m m n q 8 n 8 7 m u u u F q 8 n m 8 x q +.` ",
"[ e  .m n c 0 r 7 i h n f k ].u u u u u u u u u z ^.m n m m m 7 m n m 7 m u u u F 7 q h m m j 5 ] + ",
"[ /. .j n 9 i h 7 7 i n j u u u u u u u u (._.m 7 7 m h n n n 7 8 m 8 7 z u u u S 7 7 n n m m c +.& ",
"[ /. .j i 9 i h 7 7 h n u u u u u u u :.n q c m m 7 m n m n n q m n 7 7 u u u u m 7 q n n m m c Z & ",
"[ <. .m j a l k i 7 h u u u u u u ,.q m n q 7 n m 7 m n m m m 7 8 n 8 u u u u u m q q n m 8 j W Z & ",
"[ e +.m m l x n 7 7 [.u u u u }.m m q 8 n 8 q n m 7 m h m m m 7 8 m u u u u u m m 7 q n m 8 i c Z & ",
"[ <. .j m l k f 7 8 u u u u |.c m n q 8 n j 8 n m q m n m m n q 8 u u u u u 1.m m 7 q n m 8 m q Z % ",
"[ /. .j m 3 i k 7 2.u u u 3.9 c m n 7 8 n l q n 8 7 m n m !.4.u u u u u u 5.q m n q q r n 8 j 3 2 & ",
"6./. .j n j m r 9 w u u u n j 7 n h q 8 r j 8 n 8 q #.~.u u u u u u u u ).m 7 m m 7 q r n 8 n 3 2 & ",
"A e _ m n q 0 k 8 7.u u u n m 7 m n q m n 8 7 n 8.u u u u u u u u u u q m n 8 m n 7 8 n m m k c Z & ",
". /.9.j n l r o 8 0.u u u r j 7 m n q 8 r 8.u u u u u u u u u u w r q 7 m n j n m 7 q n m m k 3 Z & ",
". /.9.8 n i k k q u u u a.r j 7 m n q q 5.u u u u u u u u u n q 8 n q 7 m n 8 n m 7 q n j j k q Z & ",
"A /. .8 m q n o 8 u u u b.r m q n n q q L u u u u u u u u u u u u u u u u u v m n 7 q n m m n 7 Z & ",
"[ /. .m n 7 8 o 8 u u u b.x q 7 n n m m t u u u u u u u u u u u u u u u u u u u m q q n n m n c Z & ",
"[ /. .8 j 7 i f q u u u a.n 7 7 m n q 8 L u u u u u u u u u u u u u u u u u u u S 7 7 r m j n 3 Z & ",
"[ /.9.8 j c i k c u u u c.n 8 q n n 7 q m d.K L 8.e.#.F f.,.P g.h.L i.j.O u u u S d 7 n m j i c Z & ",
"[ /.9.m m d 8 o l u u u k.x q c m m q 8 m q 7 n m l x k m m m q 8 n q 7 8 ~.u u F 7 q n j 8 n 3 Z & ",
"6./. .m n 7 i n c u u u b.x 8 7 m n c 8 n 8 q m 8 l j x j x k a l n l 7 8 ~.u u X q q n m 8 m c Z & ",
"[ /./ 8 n m m r q u u u k.n 8 7 m n c j n 8 q m j c m k j x k c 8 n q 7 8 ~.u u S q q n m 8 m c Z % ",
"> /.9.8 m 7 n n q u u u k.n 8 7 m n q 8 n 8 l n j c m x m m j q 8 n 8 7 m ~.u u S 7 q n m 8 j 3 Z % ",
"l./.9.8 n 9 i i 8 u u u k.r q 7 m n q 8 n 8 q n m 3 f k m j n 7 8 r 8 c 8 m.u u F 7 q n m 8 m 3 2 + ",
"[ /. .m n 9 i h 8 u u u n.x m 7 n n q 8 k 8 q k m q j k j j m q q r 8 7 m u u u F q q n m 8 m c b + ",
"[ /.9.8 n 8 i o q u u u u u u u u u u u u u u u u u u u u u u u u u u u u u u u F 7 q n m 8 m q Z % ",
"[ /.9.q n 8 h o 9 o.u u u u u u u u u u u u u u u u u u u u u u u u u u u u u u F 7 7 n m j m 0 R % ",
"[ /.9.q n 7 n h l c p.u u u u u u u u u u u u u u u u u u u u u u u u u u u u q.n 7 7 n m 8 n 3 R % ",
"6.= ] 8 n 5 7 h 8 l x g r.s.t.u.v.w.x.>.y.z.A.B.8.C.D.E.D.D.F.G.7.L '.H.:.I.d 8 n 7 7 n m 8 m q { J.",
"A = ] 9 i 5 8 m l c x x 4 m l d j i q 8 j 3 c 0 i W 8 k j f m a q x 8 7 j j c 8 m d 2 n x 0 j W ! J.",
"[ @ ) 6 6 b | 0 3 2 K.4 K.4 3 b 6 0 b W 6 b _ c | 2 W 1 0 8 3 b 2 0 3 +.| | 2 W 4 2 2 3 3 0 1 2 ! <.",
"L.# p , , M.N.) O.P.Q.R.Q.S.T.P.T.S.T.T.T.P.M.T.O.P.N.S.T.S.S.N.U.R.O., U.O.V.N.S., W.M.M.W.M.p p Y ",
"L.L.. Y . X.Y Y ....; Y Y Y l.l.Y Y X.Y Y l.l.X.Y l.X.Y X.Y ..l.6.Y X.. Y 6.6.6.Y 6.6.. Y Y Y U . > "};
