/* XPM */
static char * number_1_xpm[] = {
"50 50 163 2",
"  	c #363332",
". 	c #3F3935",
"+ 	c #4C4137",
"@ 	c #564B41",
"# 	c #4D4239",
"$ 	c #4C3F39",
"% 	c #52463A",
"& 	c #55493C",
"* 	c #504437",
"= 	c #594E43",
"- 	c #5F5145",
"; 	c #413638",
"> 	c #36312D",
", 	c #7F7464",
"' 	c #94897B",
") 	c #93846D",
"! 	c #9C8D81",
"~ 	c #978871",
"{ 	c #9E917C",
"] 	c #9C8C7B",
"^ 	c #907E71",
"/ 	c #9C8B73",
"( 	c #9F9177",
"_ 	c #A49277",
": 	c #948572",
"< 	c #453D39",
"[ 	c #3C3533",
"} 	c #665C53",
"| 	c #AF9C89",
"1 	c #B6A191",
"2 	c #AB9683",
"3 	c #B39E8A",
"4 	c #BBA493",
"5 	c #AE9A7C",
"6 	c #ACA08B",
"7 	c #B49A7E",
"8 	c #BBA286",
"9 	c #B6A184",
"0 	c #B5A38B",
"a 	c #B19782",
"b 	c #A9967C",
"c 	c #B59C82",
"d 	c #B1977B",
"e 	c #66594B",
"f 	c #BFA890",
"g 	c #C9AE98",
"h 	c #C9B092",
"i 	c #BDA98B",
"j 	c #BDA48A",
"k 	c #C4AB91",
"l 	c #BA9E89",
"m 	c #C1A68C",
"n 	c #C3A98E",
"o 	c #C6B095",
"p 	c #6A6158",
"q 	c #B99E84",
"r 	c #C9AD95",
"s 	c #C4AA8D",
"t 	c #3A3333",
"u 	c #B69C81",
"v 	c #C3A691",
"w 	c #695E52",
"x 	c #C2A78A",
"y 	c #3F3638",
"z 	c #C6AB8B",
"A 	c #695C4C",
"B 	c #473E39",
"C 	c #BDA284",
"D 	c #C6AC8E",
"E 	c #B89F81",
"F 	c #BEA688",
"G 	c #C5AC8F",
"H 	c #BEA587",
"I 	c #BDA586",
"J 	c #C5AB8D",
"K 	c #C3A78B",
"L 	c #B69C7D",
"M 	c #C4A98C",
"N 	c #BEA588",
"O 	c #C2A78B",
"P 	c #C9B091",
"Q 	c #A39281",
"R 	c #BDA187",
"S 	c #C9AD94",
"T 	c #483F3A",
"U 	c #BDA183",
"V 	c #C4A98D",
"W 	c #3F382F",
"X 	c #473E3A",
"Y 	c #BEA585",
"Z 	c #AD9A83",
"` 	c #433A33",
" .	c #B9A689",
"..	c #A3927D",
"+.	c #4A3F34",
"@.	c #A18D75",
"#.	c #CCB393",
"$.	c #C6AD90",
"%.	c #B8A082",
"&.	c #C4AA8F",
"*.	c #C4AB8F",
"=.	c #413632",
"-.	c #A28F7A",
";.	c #C4A88A",
">.	c #CAAF97",
",.	c #BEAA8B",
"'.	c #B69E82",
").	c #C4AA8E",
"!.	c #C5AC90",
"~.	c #C2A68B",
"{.	c #635646",
"].	c #C2A78D",
"^.	c #63574A",
"/.	c #3E352E",
"(.	c #CAB193",
"_.	c #9C886F",
":.	c #C5AA8C",
"<.	c #C5AB91",
"[.	c #BCA184",
"}.	c #C5AC8E",
"|.	c #B79F81",
"1.	c #BCA286",
"2.	c #BEA489",
"3.	c #B79D81",
"4.	c #BDA385",
"5.	c #BDA486",
"6.	c #B79D7E",
"7.	c #C6A88F",
"8.	c #C6AB8C",
"9.	c #41372D",
"0.	c #CBAF93",
"a.	c #6D6053",
"b.	c #C4A790",
"c.	c #B79E82",
"d.	c #B3997B",
"e.	c #BFA68A",
"f.	c #C5AD92",
"g.	c #BCA08B",
"h.	c #BCA487",
"i.	c #C5AC92",
"j.	c #BAA085",
"k.	c #B59B7E",
"l.	c #BEA58A",
"m.	c #BDA489",
"n.	c #BA9F83",
"o.	c #C2A78C",
"p.	c #B49B7E",
"q.	c #C2A88D",
"r.	c #5F554B",
"s.	c #B49E91",
"t.	c #353338",
"u.	c #7A6C5D",
"v.	c #837565",
"w.	c #877969",
"x.	c #826F67",
"y.	c #88776F",
"z.	c #8C7D71",
"A.	c #897B6B",
"B.	c #877867",
"C.	c #84776B",
"D.	c #7D6E61",
"E.	c #77685B",
"F.	c #41392F",
"  . + + @ # $ $ + % & % + * $ % = @ % % & & # % + % & @ % # # + % & & + % & + % % # @ - & # % # ;   ",
"> @ , ' ' ) ! ' ) ~ { ] ~ ' ^ ) / ~ ) ~ / ~ ) ~ ) ~ ( { / / / ~ / ] ~ ) ] ] ~ / / ) / _ / ~ ] : , < ",
"[ } ' | 1 2 3 4 5 6 7 8 9 0 a 2 9 9 b 7 0 7 c 8 9 b 9 0 9 9 9 b 7 9 d b 9 9 5 9 9 _ 5 0 9 9 9 2 ! @ ",
"[ e { 0 0 3 f g 7 7 h 8 i i 3 a j j 7 0 i 8 9 k 8 c i i 8 i i 7 l m c 7 j n 9 j i 7 9 o 0 8 i 2 ! + ",
"< p { 0 i q j r q 8 h 8 m n l c k k c j n l q n q q n n 8 j j q m n l d m m 7 m j c m r q 8 n 3 ! + ",
". p { i n 9 i r 8 q n n s t t t t t t t t t t t t t t t t t t u 8 n 8 q m n c m n a q r v n v 2 ! . ",
"; w ( 0 n 7 h h 8 q m m t t t t t t t t t t t t t t t t t t t t x n q 7 m r 8 n m 7 q n n m n c ! + ",
"y } ( i n 8 h n 7 q n z t t t t t t t t t t t t t t t t t t t t t n 7 7 m n 8 n m d 7 n m m n q ! # ",
"y A { 0 i 7 n r q j n B t t t C D s E F G H I J K L x M N O t t t P 8 7 8 m l m m c 8 n m j n 3 Q + ",
"[ p ( i i 7 m h l l v B t t R l k v l j n 8 7 n m q v k m v t t t S j l m m a j m 3 8 r v j v a ! + ",
". A ( i m 7 m v a l g T t t U c k v q m n l 7 n l q v r v k t t t V m 7 v m c j v c l k v 0 v 2 ! # ",
"W A ( i 8 7 m g l l k X t t Y 7 n m 7 m m 7 7 n m 7 m n m m t t t P 7 7 j m c j m 7 8 n n 8 n Z ! # ",
"W e ] j j 7 f g l l r B t t U 7 n i 7 m m 7 7 n n 7 m n j m t t t P 7 7 m m 7 m m 7 q n n 8 n 5 Q + ",
". A _ n n 7 f i l j n B t t Y q m n 7 m h 8 8 n i 7 m n m m t t t V m 7 m n 7 m j 7 8 n n 8 n 5 { ` ",
". e ( j n l k o q 9 n B t t  .q m m 7 m n 8 7 n 8 7 n m n n t t t P 7 7 m m 8 m m 7 8 n n j n 3 ..+.",
". A @.j m 8 k k q 9 n B t t t C #.$.%.&.*.8 m h m 8 n m m m t t t P m 7 8 m 8 n m 7 8 h n 8 n Z ..+.",
"=.A -.m n 9 i o 9 8 n ;.t t t t t t t t t m q n m 7 m n m m t t t V m 7 n m 7 m n 7 m n n 8 n Z ..+.",
"=.A -.m k 0 f f 9 8 h k t t t t t t t t t q q n m q m n m n t t t V q 7 n n q m n 7 q n n m r c ..+.",
"y A @.m v j k o 7 8 n n g >.,.'.).!.t t t m m n m 7 m h n n t t t ~.m 7 m n m n m 7 q n n i r a -.+.",
"y A / j v j f k 7 7 m f k k 0 q n &.t t t m m h m 7 m n m n t t t V q 7 m n m n m 7 q n j 8 r 3 -.+.",
"y e / 8 m l f o i 7 h n v k 0 q n &.t t t m q n m m n n m m t t t V 8 7 m m q m n q 8 n m 8 v q -.+.",
"[ e @.m n c 0 r 7 i h n f k q q n &.t t t 7 d m m q m n m m t t t V m 7 m m 7 q n 7 q h m m j 5 ] + ",
"[ {.@.j n 9 i h 7 7 i n j f 9 c m ].t t t 8 q m 7 7 m h n n t t t ~.8 7 m m 7 m m 7 7 n n m m c -.& ",
"[ {.@.j i 9 i h 7 7 h n k k 9 7 n &.t t t q c m m 7 m n m n t t t V 7 7 m 8 7 m m 7 q n n m m c ..& ",
"[ ^.@.m j a l k i 7 h n i n 3 7 m &.t t t q 7 n m 7 m n m m t t t V 8 q m m 7 m m q q n m 8 j Z ..& ",
"[ e -.m m l v n 7 7 h n i n 9 c m ].t t t 8 q n m 7 m h m m t t t ~.q q 8 m 7 m m 7 q n m 8 i c ..& ",
"[ ^.@.j m l k f 7 8 n n n k i c m &.t t t j 8 n m q m n m m t t t V 8 7 m m 7 m m 7 q n m 8 m q ..% ",
"[ {.@.j m 3 i k 7 8 n m j n 9 c m &.t t t l q n 8 7 m n m m t t t V 8 7 m m q m n q q r n 8 j 3 2 & ",
"/.{.@.j n j m r 9 8 n n m n j 7 n (.t t t j 8 n 8 q m k m m t t t S 8 q m m 7 m m 7 q r n 8 n 3 2 & ",
"y e _ m n q 0 k 8 q r h m n m 7 m &.t t t 8 7 n j l m r m m t t t V j q m n 8 m n 7 8 n m m k c ..& ",
". {._.j n l r o 8 c m v v r j 7 m &.t t t j l k m q m v m k t t t S q 7 m n j n m 7 q n m m k 3 ..& ",
". {._.8 n i k k q c v k k r j 7 m *.t t t j 8 r j q m k m n t t t V q 7 m n 8 n m 7 q n j j k q ..& ",
"y {.@.8 m q n o 8 8 v :.t t t t t t t t t q q r m l m n v k t t t t t t t t t m n 7 q n m m n 7 ..& ",
"[ {.@.m n 7 8 o 8 8 <.t t t t t t t t t t q 7 m j c m k j m t t t t t t t t t t m q q n n m n c ..& ",
"[ {.@.8 j 7 i f q q t t t t t t t t t t t q 7 m 8 c m v f v t t t t t t t t t t m 7 7 r m j n 3 ..& ",
"[ {._.8 j c i k c c t t t t Y [.}.G |.1.].q 8 n j l m k j k 2.3.4.s 5.6.s t t t m d 7 n m j i c ..& ",
"[ {._.m m d 8 o l q t t t 7.q c m m q 8 m q 7 n m l v k m m m q 8 n q 7 8 t t t n 7 q n j 8 n 3 ..& ",
"/.{.@.m n 7 i n c q t t t 7.8 7 m n c 8 n 8 q m 8 l j v j v k a l n l 7 8 t t t j q q n m 8 m c ..& ",
"[ {./ 8 n m m r q q t t t 8.8 7 m n c j n 8 q m j c m k j v k c 8 n q 7 8 t t t m q q n m 8 m c ..% ",
"> {._.8 m 7 n n q q t t t 8.8 7 m n q 8 n 8 l n j c m v m m j q 8 n 8 7 m t t t m 7 q n m 8 j 3 ..% ",
"9.{._.8 n 9 i i 8 q t t t 0.q 7 m n q 8 n 8 q n m 3 f k m j n 7 8 r 8 c 8 t t t n 7 q n m 8 m 3 2 + ",
"[ {.@.m n 9 i h 8 q t t t t m 7 n n q 8 k 8 q k m q j k j j m q q r 8 7 m t t t n q q n m 8 m c b + ",
"[ {._.8 n 8 i o q q t t t t t t t t t t t t t t t t t t t t t t t t t t t t t t n 7 q n m 8 m q ..% ",
"[ {._.q n 8 h o 9 7 s t t t t t t t t t t t t t t t t t t t t t t t t t t t t a.n 7 7 n m j m 0 Q % ",
"[ {._.q n 7 n h l c v b.t t t t t t t t t t t t t t t t t t t t t t t t t t t 8 n 7 7 n m 8 n 3 Q % ",
"/.= ] 8 n 5 7 h 8 l v g j O c.d.e.f.g.h.i.j.k.l.2.u m.S m.m.m.u n.s o.p.q.j d 8 n 7 7 n m 8 m q { r.",
"y = ] 9 i 5 8 m l c v v 4 m l d j i q 8 j 3 c 0 i Z 8 k j f m a q v 8 7 j j c 8 m d 2 n v 0 j Z ! r.",
"[ @ ) 6 6 b | 0 3 2 s.4 s.4 3 b 6 0 b Z 6 b _ c | 2 Z 1 0 8 3 b 2 0 3 -.| | 2 Z 4 2 2 3 3 0 1 2 ! ^.",
"t.# p , , u.v.) w.x.y.z.y.A.B.x.B.A.B.B.B.x.u.B.w.x.v.A.B.A.A.v.C.z.w., C.w.D.v.A., E.u.u.E.u.p p ` ",
"t.t.. ` . F.` ` =.=.; ` ` ` 9.9.` ` F.` ` 9.9.F.` 9.F.` F.` =.9./.` F.. ` /././.` /./.. ` ` ` W . > "};
