/* XPM */
static char * number_7_xpm[] = {
"50 50 160 2",
"  	c #363332",
". 	c #3F3935",
"+ 	c #4C4137",
"@ 	c #564B41",
"# 	c #4D4239",
"$ 	c #4C3F39",
"% 	c #52463A",
"& 	c #55493C",
"* 	c #504437",
"= 	c #594E43",
"- 	c #5F5145",
"; 	c #413638",
"> 	c #36312D",
", 	c #7F7464",
"' 	c #94897B",
") 	c #93846D",
"! 	c #9C8D81",
"~ 	c #978871",
"{ 	c #9E917C",
"] 	c #9C8C7B",
"^ 	c #907E71",
"/ 	c #9C8B73",
"( 	c #9F9177",
"_ 	c #A49277",
": 	c #948572",
"< 	c #453D39",
"[ 	c #3C3533",
"} 	c #665C53",
"| 	c #AF9C89",
"1 	c #B6A191",
"2 	c #AB9683",
"3 	c #B39E8A",
"4 	c #BBA493",
"5 	c #AE9A7C",
"6 	c #ACA08B",
"7 	c #B49A7E",
"8 	c #BBA286",
"9 	c #B6A184",
"0 	c #B5A38B",
"a 	c #B19782",
"b 	c #A9967C",
"c 	c #B59C82",
"d 	c #B1977B",
"e 	c #66594B",
"f 	c #BFA890",
"g 	c #C9AE98",
"h 	c #C9B092",
"i 	c #BDA98B",
"j 	c #BDA48A",
"k 	c #C4AB91",
"l 	c #BA9E89",
"m 	c #C1A68C",
"n 	c #C3A98E",
"o 	c #C6B095",
"p 	c #6A6158",
"q 	c #B99E84",
"r 	c #C9AD95",
"s 	c #C3A691",
"t 	c #695E52",
"u 	c #3F3638",
"v 	c #3A3333",
"w 	c #BEA689",
"x 	c #695C4C",
"y 	c #C2A88E",
"z 	c #A39281",
"A 	c #C0A98E",
"B 	c #C6AB93",
"C 	c #3F382F",
"D 	c #C0A88C",
"E 	c #AD9A83",
"F 	c #C4AA8E",
"G 	c #C4AB90",
"H 	c #433A33",
"I 	c #A3927D",
"J 	c #4A3F34",
"K 	c #A18D75",
"L 	c #BEA688",
"M 	c #C6AE92",
"N 	c #413632",
"O 	c #A28F7A",
"P 	c #C8AF90",
"Q 	c #BAA584",
"R 	c #B9A083",
"S 	c #CCB495",
"T 	c #B89F82",
"U 	c #C5AC8F",
"V 	c #C3A98C",
"W 	c #BBA084",
"X 	c #C4AA8D",
"Y 	c #C2A78B",
"Z 	c #B59B7C",
"` 	c #C1A68B",
" .	c #C6AC90",
"..	c #C3A88C",
"+.	c #C6AB8C",
"@.	c #C7AD8F",
"#.	c #C7AE8F",
"$.	c #B9A78A",
"%.	c #BDA285",
"&.	c #C6AD90",
"*.	c #C6AD91",
"=.	c #C3A98D",
"-.	c #CAB191",
";.	c #645549",
">.	c #C1A68A",
",.	c #C2A78C",
"'.	c #BDA388",
").	c #635646",
"!.	c #BEA687",
"~.	c #BCA387",
"{.	c #63574A",
"].	c #C3A78A",
"^.	c #B59B7D",
"/.	c #BA9F84",
"(.	c #BFA789",
"_.	c #C4AA8F",
":.	c #BFA88A",
"<.	c #B9A584",
"[.	c #B59C7F",
"}.	c #3E352E",
"|.	c #CCB595",
"1.	c #B9A183",
"2.	c #9C886F",
"3.	c #CAAE94",
"4.	c #BBA082",
"5.	c #CCB094",
"6.	c #C6AD8F",
"7.	c #BA9E88",
"8.	c #BEA585",
"9.	c #C6A990",
"0.	c #BDA385",
"a.	c #C6AC8D",
"b.	c #C3A68F",
"c.	c #41372D",
"d.	c #81715F",
"e.	c #BEA489",
"f.	c #C3A58F",
"g.	c #C7AF94",
"h.	c #BDA38C",
"i.	c #BCA185",
"j.	c #B69D7E",
"k.	c #BFA589",
"l.	c #BEA589",
"m.	c #B69D80",
"n.	c #BDA489",
"o.	c #5F554B",
"p.	c #B49E91",
"q.	c #353338",
"r.	c #7A6C5D",
"s.	c #837565",
"t.	c #877969",
"u.	c #826F67",
"v.	c #88776F",
"w.	c #8C7D71",
"x.	c #897B6B",
"y.	c #877867",
"z.	c #84776B",
"A.	c #7D6E61",
"B.	c #77685B",
"C.	c #41392F",
"  . + + @ # $ $ + % & % + * $ % = @ % % & & # % + % & @ % # # + % & & + % & + % % # @ - & # % # ;   ",
"> @ , ' ' ) ! ' ) ~ { ] ~ ' ^ ) / ~ ) ~ / ~ ) ~ ) ~ ( { / / / ~ / ] ~ ) ] ] ~ / / ) / _ / ~ ] : , < ",
"[ } ' | 1 2 3 4 5 6 7 8 9 0 a 2 9 9 b 7 0 7 c 8 9 b 9 0 9 9 9 b 7 9 d b 9 9 5 9 9 _ 5 0 9 9 9 2 ! @ ",
"[ e { 0 0 3 f g 7 7 h 8 i i 3 a j j 7 0 i 8 9 k 8 c i i 8 i i 7 l m c 7 j n 9 j i 7 9 o 0 8 i 2 ! + ",
"< p { 0 i q j r q 8 h 8 m n l c k k c j n l q n q q n n 8 j j q m n l d m m 7 m j c m r q 8 n 3 ! + ",
". p { i n 9 i r 8 q n n n r q 7 m k l m r q q m m q m h j k s c 8 n 8 q m n c m n a q r s n s 2 ! . ",
"; t ( 0 n 7 h h 8 q m m m n q 7 m n 7 8 n 8 m n q 7 m m m n k l m n q 7 m r 8 n m 7 q n n m n c ! + ",
"u } ( i n 8 h n 7 q n v v v v v v v v v v v v v v v v v v v v v v v v v v v w n m d 7 n m m n q ! # ",
"u x { 0 i 7 n r q j v v v v v v v v v v v v v v v v v v v v v v v v v v v v v y m c 8 n m j n 3 z + ",
"[ p ( i i 7 m h l l v v v v v v v v v v v v v v v v v v v v v v v v v v v v v A m 3 8 r s j s a ! + ",
". x ( i m 7 m s a l v v v m q c k s q m n l 7 n l q s r s k s q 8 n m 7 B v v A s c l k s 0 s 2 ! # ",
"C x ( i 8 7 m g l l v v v n 8 7 n m 7 m m 7 7 n m 7 m n m m m c m h 7 7 D v v A m 7 8 n n 8 n E ! # ",
"C e ] j j 7 f g l l v v v m q 7 n i 7 m m 7 7 n n 7 m n j m 8 7 n h 7 7 F v v G m 7 q n n 8 n 5 z + ",
". x _ n n 7 f i l j v v v n 8 q m n 7 m h 8 8 n i 7 m n m m n 7 7 n m 7 F v v G j 7 8 n n 8 n 5 { H ",
". e ( j n l k o q 9 v v v k 0 q m m 7 m n 8 7 n 8 7 n m n n m 7 7 h 7 7 F v v G m 7 8 n n j n 3 I J ",
". x K j m 8 k k q 9 v v v k 0 q h n 7 m n 8 m h m 8 n m m m n 8 m h m 7 L v v M m 7 8 h n 8 n E I J ",
"N x O m n 9 i o 9 8 v v v P Q R F S T F U V W X Y Z ` n m m m 7 m n m 7  .v v G n 7 m n n 8 n E I J ",
"N x O m k 0 f f 9 8 v v v v v v v v v v v v v v v v v ..m n n q m n q 7  .v v G n 7 q n n m r c I J ",
"u x K m s j k o 7 8 +.v v v v v v v v v v v v v v v v v n n n q m m m 7 F v v M m 7 q n n i r a O J ",
"u x / j s j f k 7 7 m f @.#.$.%.&.*.T w =.V ..-.Y ;.v v m n n q m n q 7 F v v M m 7 q n j 8 r 3 O J ",
"u e / 8 m l f o i 7 h n s k 0 q n n 7 q n m q n m >.v v m m n q 8 n 8 7 F v v G n q 8 n m 8 s q O J ",
"[ e K m n c 0 r 7 i h n f k q q n n 7 m n 7 d ,.Y v v v m m m 7 m n m 7 F v v '.n 7 q h m m j 5 ] + ",
"[ ).K j n 9 i h 7 7 i n j f 9 c m m 8 m F !.v v v v v v n n n 7 8 m 8 7 F v v G m 7 7 n n m m c O & ",
"[ ).K j i 9 i h 7 7 h n k k 9 7 n n ~.v v v v v v v v ..m n n q m n 7 7 F v v G m 7 q n n m m c I & ",
"[ {.K m j a l k i 7 h n i n 3 7 m v v v v v v v ].^.m n m m m 7 8 n 8 q F v v G m q q n m 8 j E I & ",
"[ e O m m l s n 7 7 h n i n 9 c v v v v v !./.n m 7 m h m m m 7 8 m q q (.v v _.m 7 q n m 8 i c I & ",
"[ {.K j m l k f 7 8 n n n k i v v v v :.n j 8 n m q m n m m n q 8 n 8 7 v v v m m 7 q n m 8 m q I % ",
"[ ).K j m 3 i k 7 8 n m j n <.v v v T 8 n l q n 8 7 m n m m n 7 m n 8 [.v v v m n q q r n 8 j 3 2 & ",
"}.).K j n j m r 9 8 n n m n v v v |.q 8 r j 8 n 8 q m k m m m 7 8 r 8 v v v 1.m m 7 q r n 8 n 3 2 & ",
"u e _ m n q 0 k 8 q r h m n v v v n q m n 8 7 n j l m r m m n q 8 X v v v v 8 m n 7 8 n m m k c I & ",
". ).2.j n l r o 8 c m s s 3.v v v n q 8 r j l k m q m s m k r 4.v v v v v _.j n m 7 q n m m k 3 I & ",
". ).2.8 n i k k q c s k k 5.v v X n q q n j 8 r j q m k >.v v v v v v v ,.n 8 n m 7 q n j j k q I & ",
"u ).K 8 m q n o 8 8 s n j 5.v v 6.n q q n q q r m 7.v v v v v v v v 8.c 8 m 7 m n 7 q n m m n 7 I & ",
"[ ).K m n 7 8 o 8 8 k s j 9.v v 6.n m m r q 7 m j v v v v v v v 0.g 8 q 8 m 7 8 m q q n n m n c I & ",
"[ ).K 8 j 7 i f q q r r k a.v v X n q 8 n q 7 m 8 v v v v b.m c 8 r l 7 m m 7 8 m 7 7 r m j n 3 I & ",
"[ ).2.8 j c i k c c j k n a.v v 6.n 7 q m q 8 n j v v v j k j c 8 n 8 7 m m 7 m m d 7 n m j i c I & ",
"[ ).2.m m d 8 o l q s s m 9.v v X m q 8 m q 7 n m v v v m m m q 8 n q 7 8 m 7 8 n 7 q n j 8 n 3 I & ",
"}.).K m n 7 i n c q r s j 9.v v X n c 8 n 8 q m 8 v v v j s k a l n l 7 8 m 7 8 j q q n m 8 m c I & ",
"[ )./ 8 n m m r q q r m m a.v v X n c j n 8 q m j v v v j s k c 8 n q 7 8 m q m m q q n m 8 m c I % ",
"> ).2.8 m 7 n n q q r s m a.v v X n q 8 n 8 l n j v v v m m j q 8 n 8 7 m m q m m 7 q n m 8 j 3 I % ",
"c.).2.8 n 9 i i 8 q r s m 5.v v X n q 8 n 8 q n m v v v m j n 7 8 r 8 c 8 n q 8 n 7 q n m 8 m 3 2 + ",
"[ ).K m n 9 i h 8 q m r m 9.v v 6.n q 8 k 8 q k m v v v j j m q q r 8 7 m m q m n q q n m 8 m c b + ",
"[ ).2.8 n 8 i o q q n n n a.v v d.n q 8 r m 8 n e.v v v s n k l 8 n q d 8 n 8 m n 7 q n m 8 m q I % ",
"[ ).2.q n 8 h o 9 7 n s m a.v v v v v v v v v v v v v v j j n l 8 r q d 8 n 8 m n 7 7 n m j m 0 z % ",
"[ ).2.q n 7 n h l c s s m r v v v v v v v v v v v v v f.j f k l 8 h 8 d j n q 8 n 7 7 n m 8 n 3 z % ",
"}.= ] 8 n 5 7 h 8 l s g j m c Z D g.h.w M i.j.k.l.m.n.r j j j c q n m 7 n j d 8 n 7 7 n m 8 m q { o.",
"u = ] 9 i 5 8 m l c s s 4 m l d j i q 8 j 3 c 0 i E 8 k j f m a q s 8 7 j j c 8 m d 2 n s 0 j E ! o.",
"[ @ ) 6 6 b | 0 3 2 p.4 p.4 3 b 6 0 b E 6 b _ c | 2 E 1 0 8 3 b 2 0 3 O | | 2 E 4 2 2 3 3 0 1 2 ! {.",
"q.# p , , r.s.) t.u.v.w.v.x.y.u.y.x.y.y.y.u.r.y.t.u.s.x.y.x.x.s.z.w.t., z.t.A.s.x., B.r.r.B.r.p p H ",
"q.q.. H . C.H H N N ; H H H c.c.H H C.H H c.c.C.H c.C.H C.H N c.}.H C.. H }.}.}.H }.}.. H H H C . > "};
