/* XPM */
static char * number_6_xpm[] = {
"50 50 212 2",
"  	c #363332",
". 	c #3F3935",
"+ 	c #4C4137",
"@ 	c #564B41",
"# 	c #4D4239",
"$ 	c #4C3F39",
"% 	c #52463A",
"& 	c #55493C",
"* 	c #504437",
"= 	c #594E43",
"- 	c #5F5145",
"; 	c #413638",
"> 	c #36312D",
", 	c #7F7464",
"' 	c #94897B",
") 	c #93846D",
"! 	c #9C8D81",
"~ 	c #978871",
"{ 	c #9E917C",
"] 	c #9C8C7B",
"^ 	c #907E71",
"/ 	c #9C8B73",
"( 	c #9F9177",
"_ 	c #A49277",
": 	c #948572",
"< 	c #453D39",
"[ 	c #3C3533",
"} 	c #665C53",
"| 	c #AF9C89",
"1 	c #B6A191",
"2 	c #AB9683",
"3 	c #B39E8A",
"4 	c #BBA493",
"5 	c #AE9A7C",
"6 	c #ACA08B",
"7 	c #B49A7E",
"8 	c #BBA286",
"9 	c #B6A184",
"0 	c #B5A38B",
"a 	c #B19782",
"b 	c #A9967C",
"c 	c #B59C82",
"d 	c #B1977B",
"e 	c #66594B",
"f 	c #BFA890",
"g 	c #C9AE98",
"h 	c #C9B092",
"i 	c #BDA98B",
"j 	c #BDA48A",
"k 	c #C4AB91",
"l 	c #BA9E89",
"m 	c #C1A68C",
"n 	c #C3A98E",
"o 	c #C6B095",
"p 	c #6A6158",
"q 	c #B99E84",
"r 	c #C9AD95",
"s 	c #C3AA8E",
"t 	c #CBB096",
"u 	c #BCA185",
"v 	c #BBA184",
"w 	c #C3A88B",
"x 	c #C2A78B",
"y 	c #BA9F83",
"z 	c #C2A68A",
"A 	c #C9AF90",
"B 	c #BDA388",
"C 	c #C4AA8F",
"D 	c #C3A68F",
"E 	c #B69D80",
"F 	c #BCA384",
"G 	c #C4AA8C",
"H 	c #BDA485",
"I 	c #BBA084",
"J 	c #C3A691",
"K 	c #695E52",
"L 	c #B69C7F",
"M 	c #3A3333",
"N 	c #CAAE95",
"O 	c #3F3638",
"P 	c #C4AA8E",
"Q 	c #C6AC8E",
"R 	c #695C4C",
"S 	c #C4A88B",
"T 	c #BFA88A",
"U 	c #C5AC90",
"V 	c #BEA587",
"W 	c #BDA586",
"X 	c #C4AA8D",
"Y 	c #B69B7D",
"Z 	c #C3A98C",
"` 	c #C1A68A",
" .	c #B59B7C",
"..	c #CAB090",
"+.	c #BEA687",
"@.	c #A39281",
"#.	c #C6AB8C",
"$.	c #C8B092",
"%.	c #3F382F",
"&.	c #C8AD8E",
"*.	c #AD9A83",
"=.	c #BEA589",
"-.	c #C0A688",
";.	c #433A33",
">.	c #BAA382",
",.	c #C6A88F",
"'.	c #A3927D",
").	c #4A3F34",
"!.	c #A18D75",
"~.	c #C7AD8F",
"{.	c #413632",
"].	c #A28F7A",
"^.	c #BEA484",
"/.	c #C2AA8E",
"(.	c #C2A78C",
"_.	c #3B3434",
":.	c #413936",
"<.	c #403835",
"[.	c #3F3734",
"}.	c #403734",
"|.	c #403834",
"1.	c #413835",
"2.	c #B79D7E",
"3.	c #C5AC8F",
"4.	c #4A4139",
"5.	c #796858",
"6.	c #C2A689",
"7.	c #977E5A",
"8.	c #927855",
"9.	c #937C61",
"0.	c #BA9F82",
"a.	c #B89C7C",
"b.	c #C3A98D",
"c.	c #4C4138",
"d.	c #4A4037",
"e.	c #4A3F36",
"f.	c #483C34",
"g.	c #473C32",
"h.	c #493D35",
"i.	c #493E35",
"j.	c #4A4036",
"k.	c #493F39",
"l.	c #C4A98B",
"m.	c #BAA085",
"n.	c #C0AB88",
"o.	c #C5AB8F",
"p.	c #B59B7D",
"q.	c #C5AA8C",
"r.	c #BCA286",
"s.	c #635646",
"t.	c #BDA587",
"u.	c #BBA185",
"v.	c #B69C7E",
"w.	c #63574A",
"x.	c #C0AB89",
"y.	c #C1A68B",
"z.	c #B89F81",
"A.	c #B8A083",
"B.	c #BCA18A",
"C.	c #C1A589",
"D.	c #3E352E",
"E.	c #C4A88A",
"F.	c #BCA082",
"G.	c #BB9F88",
"H.	c #C3A88C",
"I.	c #BEA688",
"J.	c #9C886F",
"K.	c #B99E80",
"L.	c #C6AD91",
"M.	c #C3A58E",
"N.	c #C9AC92",
"O.	c #C0A88C",
"P.	c #CAAF95",
"Q.	c #CBAF94",
"R.	c #BEA586",
"S.	c #B59D80",
"T.	c #B89F82",
"U.	c #B9A081",
"V.	c #C7AC8C",
"W.	c #CAAE94",
"X.	c #C4A98C",
"Y.	c #C2A88D",
"Z.	c #41372D",
"`.	c #C7A98E",
" +	c #BDA385",
".+	c #BFA789",
"++	c #BEA689",
"@+	c #C6AE92",
"#+	c #BB9F82",
"$+	c #C6AC8D",
"%+	c #C5AB8E",
"&+	c #B89E7F",
"*+	c #B59A7B",
"=+	c #B8A186",
"-+	c #BCA387",
";+	c #BB9F87",
">+	c #BCA385",
",+	c #5F554B",
"'+	c #B49E91",
")+	c #353338",
"!+	c #7A6C5D",
"~+	c #837565",
"{+	c #877969",
"]+	c #826F67",
"^+	c #88776F",
"/+	c #8C7D71",
"(+	c #897B6B",
"_+	c #877867",
":+	c #84776B",
"<+	c #7D6E61",
"[+	c #77685B",
"}+	c #41392F",
"  . + + @ # $ $ + % & % + * $ % = @ % % & & # % + % & @ % # # + % & & + % & + % % # @ - & # % # ;   ",
"> @ , ' ' ) ! ' ) ~ { ] ~ ' ^ ) / ~ ) ~ / ~ ) ~ ) ~ ( { / / / ~ / ] ~ ) ] ] ~ / / ) / _ / ~ ] : , < ",
"[ } ' | 1 2 3 4 5 6 7 8 9 0 a 2 9 9 b 7 0 7 c 8 9 b 9 0 9 9 9 b 7 9 d b 9 9 5 9 9 _ 5 0 9 9 9 2 ! @ ",
"[ e { 0 0 3 f g 7 7 h 8 i i 3 a j j 7 0 i 8 9 k 8 c i i 8 i i 7 l m c 7 j n 9 j i 7 9 o 0 8 i 2 ! + ",
"< p { 0 i q j r q 8 h 8 m n l c k k c j n l q n q q n n 8 j j q m n l d m m 7 m j c m r q 8 n 3 ! + ",
". p { i n 9 i r 8 q n n n r q 7 m k l s t u v w x y z A B C D E F G H I m n c m n a q r J n J 2 ! . ",
"; K ( 0 n 7 h h 8 q m m m n q L M M M M M M M M M M M M M M M M M M M M M N 8 n m 7 q n n m n c ! + ",
"O } ( i n 8 h n 7 q n n n P M M M M M M M M M M M M M M M M M M M M M M M Q 8 n m d 7 n m m n q ! # ",
"O R { 0 i 7 n r q j n m S M M M M M M T U V W X x Y z Z B ` z  .F ..+.M M M l m m c 8 n m j n 3 @.+ ",
"[ p ( i i 7 m h l l J #.M M M M $.J l j n 8 7 n m q J k m J j c j r j M M M a j m 3 8 r J j J a ! + ",
". R ( i m 7 m J a l g M M M M c k J q m n l 7 n l q J r J k J q 8 n m M M M c j J c l k J 0 J 2 ! # ",
"%.R ( i 8 7 m g l l &.M M M 8 7 n m 7 m m 7 7 n m 7 m n m m m c m h 7 M M M c j m 7 8 n n 8 n *.! # ",
"%.e ] j j 7 f g l l M M M m q 7 n i 7 m m 7 7 n n 7 m n j m 8 7 n h 7 M M M 7 m m 7 q n n 8 n 5 @.+ ",
". R _ n n 7 f i l =.M M -.n 8 q m n 7 m h 8 8 n i 7 m n m m n 7 7 n m M M M 7 m j 7 8 n n 8 n 5 { ;.",
". e ( j n l k o q >.M M ,.k 0 q m m 7 m n 8 7 n 8 7 n m n n m 7 7 h 7 M M M 8 m m 7 8 n n j n 3 '.).",
". R !.j m 8 k k q >.M M ~.k 0 q h n 7 m n 8 Z M M M M M M M M M M M M M M M 8 n m 7 8 h n 8 n *.'.).",
"{.R ].m n 9 i o 9 ^.M M /.k 9 c m h 7 m n M M M M M M M M M M M M M M M M (.7 m n 7 m n n 8 n *.'.).",
"{.R ].m k 0 f f 9 ^.M M ~.k 8 7 m n 7 m n M _.:.<.<.[.}.[.}.}.|.|.1.<.2.P n q m n 7 q n n m r c '.).",
"O R !.m J j k o 7 ^.M M t g i c n n 8 8 3.M 4.5.x Y 6.7.8.9.Z 0.z x m 7 m n m n m 7 q n n i r a ].).",
"O R / j J j f k 7 a.M M ~.k 0 q n n 7 8 b.M _.< c.d.e.f.g.h.i.e.j.+ k.k.l.n m n m 7 q n j 8 r 3 ].).",
"O e / 8 m l f o i a.M M ,.k 0 q n n 7 q 3.M M M M M M M M M M M M M M M M M m.m n q 8 n m 8 J q ].).",
"[ e !.m n c 0 r 7 n.M M /.k q q n n 7 m o.M M M x y m n m m m p.z q.M M M M M r.n 7 q h m m j 5 ] + ",
"[ s.!.j n 9 i h 7 a.M M -.f 9 c m m 8 m n t.u.m 7 7 m h n n n 7 8 m 8 v.M M M M m 7 7 n n m m c ].& ",
"[ s.!.j i 9 i h 7 a.M M ~.k 9 7 n n q m n q c m m 7 m n m n n q m n 7 7 m M M M 3.7 q n n m m c '.& ",
"[ w.!.m j a l k i a.M M x.n 3 7 m n q m n q 7 n m 7 m n m m m 7 8 n 8 q m (.M M M q q n m 8 j *.'.& ",
"[ e ].m m l J n 7 a.M M x.n 9 c m m q 8 n 8 q n m 7 m h m m m 7 8 m q q 8 m M M M E q n m 8 i c '.& ",
"[ w.!.j m l k f 7 ^.M M #.k i c m n q 8 n j 8 X x y z Z y.m n q 8 n 8 7 m m z.M M A.q n m 8 m q '.% ",
"[ s.!.j m 3 i k 7 ^.M M -.n 9 c m n 7 8 n B.M M M M M M M C.n 7 m n 8 7 m m r.M M B q r n 8 j 3 2 & ",
"D.s.!.j n j m r 9 ^.M M E.n j 7 n h q 8 r M M M M M M M M M ` 7 8 r 8 q m m z.M M A.q r n 8 n 3 2 & ",
"O e _ m n q 0 k 8 F.M M E.n m 7 m n q m 3.M M M =.G.z M M M H.q 8 n j q m n I.M M A.8 n m m k c '.& ",
". s.J.j n l r o 8 K.M M ,.r j 7 m n q 8 t M M L.m q m M.M M N.q 8 r q 7 m n O.M M A.q n m m k 3 '.& ",
". s.J.8 n i k k q K.M M ~.r j 7 m n q q 3.M M P.j q m P M M H.q 8 n q 7 m n I.M M A.q n j j k q '.& ",
"O s.!.8 m q n o 8 ^.M M -.r m q n n q q 3.M M Q.m l m w M M D q 8 n 8 c 8 m z.M M A.q n m m n 7 '.& ",
"[ s.!.m n 7 8 o 8 ^.M M -.J q 7 n n m m N M M M M M M M M M b.c 8 g 8 q 8 m z.M M B q n n m n c '.& ",
"[ s.!.8 j 7 i f q F.M M ~.n 7 7 m n q 8 n M M M M M M M M M m c 8 r l 7 m m z.M M A.7 r m j n 3 '.& ",
"[ s.J.8 j c i k c K.M M #.n 8 q n n 7 q m q R.M M M M M B k j c 8 n 8 7 m m z.M M S.7 n m j i c '.& ",
"[ s.J.m m d 8 o l F.M M M J q c m m q 8 m q 7 n m l J k m m m q 8 n q 7 8 m z.M M T.q n j 8 n 3 '.& ",
"D.s.!.m n 7 i n c q M M M J 8 7 m n c 8 n 8 q m 8 l j J j J k a l n l 7 8 m U.M M q q n m 8 m c '.& ",
"[ s./ 8 n m m r q q M M M V.8 7 m n c j n 8 q m j c m k j J k c 8 n q 7 8 b.M M 3.q q n m 8 m c '.% ",
"> s.J.8 m 7 n n q q W.M M M M 7 m n q 8 n 8 l n j c m J m m j q 8 n 8 7 X.M M M Y.7 q n m 8 j 3 '.% ",
"Z.s.J.8 n 9 i i 8 q r `.M M M M Y.n q 8 n 8 q n m 3 f k m j n 7 8 r  +M M M M .+n 7 q n m 8 m 3 2 + ",
"[ s.!.m n 9 i h 8 q m r M M M M M M M ++@+8 q k m q j k j j ` 0.#+M M M M M M m n q q n m 8 m c b + ",
"[ s.J.8 n 8 i o q q n n n $+M M M M M M M M M M M M M M M M M M M M M M M %+8 m n 7 q n m 8 m q '.% ",
"[ s.J.q n 8 h o 9 7 n J m n m &+M M M M M M M M M M M M M M M M M M M *+8 n 8 m n 7 7 n m j m 0 @.% ",
"[ s.J.q n 7 n h l c J J m r q c m n =+-+U M M M M M M M M M P ;+>+h 8 d j n q 8 n 7 7 n m 8 n 3 @.% ",
"D.= ] 8 n 5 7 h 8 l J g j m c d j k l 8 k q 7 j j c j r j j j c q n m 7 n j d 8 n 7 7 n m 8 m q { ,+",
"O = ] 9 i 5 8 m l c J J 4 m l d j i q 8 j 3 c 0 i *.8 k j f m a q J 8 7 j j c 8 m d 2 n J 0 j *.! ,+",
"[ @ ) 6 6 b | 0 3 2 '+4 '+4 3 b 6 0 b *.6 b _ c | 2 *.1 0 8 3 b 2 0 3 ].| | 2 *.4 2 2 3 3 0 1 2 ! w.",
")+# p , , !+~+) {+]+^+/+^+(+_+]+_+(+_+_+_+]+!+_+{+]+~+(+_+(+(+~+:+/+{+, :+{+<+~+(+, [+!+!+[+!+p p ;.",
")+)+. ;.. }+;.;.{.{.; ;.;.;.Z.Z.;.;.}+;.;.Z.Z.}+;.Z.}+;.}+;.{.Z.D.;.}+. ;.D.D.D.;.D.D.. ;.;.;.%.. > "};
