/* XPM */
static char * number_9_xpm[] = {
"50 50 174 2",
"  	c #363332",
". 	c #3F3935",
"+ 	c #4C4137",
"@ 	c #564B41",
"# 	c #4D4239",
"$ 	c #4C3F39",
"% 	c #52463A",
"& 	c #55493C",
"* 	c #504437",
"= 	c #594E43",
"- 	c #5F5145",
"; 	c #413638",
"> 	c #36312D",
", 	c #7F7464",
"' 	c #94897B",
") 	c #93846D",
"! 	c #9C8D81",
"~ 	c #978871",
"{ 	c #9E917C",
"] 	c #9C8C7B",
"^ 	c #907E71",
"/ 	c #9C8B73",
"( 	c #9F9177",
"_ 	c #A49277",
": 	c #948572",
"< 	c #453D39",
"[ 	c #3C3533",
"} 	c #665C53",
"| 	c #AF9C89",
"1 	c #B6A191",
"2 	c #AB9683",
"3 	c #B39E8A",
"4 	c #BBA493",
"5 	c #AE9A7C",
"6 	c #ACA08B",
"7 	c #B49A7E",
"8 	c #BBA286",
"9 	c #B6A184",
"0 	c #B5A38B",
"a 	c #B19782",
"b 	c #A9967C",
"c 	c #B59C82",
"d 	c #B1977B",
"e 	c #66594B",
"f 	c #BFA890",
"g 	c #C9AE98",
"h 	c #C9B092",
"i 	c #BDA98B",
"j 	c #BDA48A",
"k 	c #C4AB91",
"l 	c #BA9E89",
"m 	c #C1A68C",
"n 	c #C3A98E",
"o 	c #C6B095",
"p 	c #6A6158",
"q 	c #B99E84",
"r 	c #C9AD95",
"s 	c #BA9F84",
"t 	c #BBA084",
"u 	c #C2A78B",
"v 	c #C2A78A",
"w 	c #BA9F82",
"x 	c #C1A68A",
"y 	c #C3A691",
"z 	c #695E52",
"A 	c #B69C7F",
"B 	c #C4AA8F",
"C 	c #3A3333",
"D 	c #C4A98D",
"E 	c #3F3638",
"F 	c #C4AA8E",
"G 	c #B79D7E",
"H 	c #695C4C",
"I 	c #BDA586",
"J 	c #BDA486",
"K 	c #C4AA8D",
"L 	c #B59B7C",
"M 	c #C3A88B",
"N 	c #A39281",
"O 	c #BDA78C",
"P 	c #C5A992",
"Q 	c #C2A78C",
"R 	c #C5A892",
"S 	c #B69C81",
"T 	c #A99279",
"U 	c #B49B84",
"V 	c #BEA485",
"W 	c #C3A88C",
"X 	c #3F382F",
"Y 	c #BC9F88",
"Z 	c #C6AC8D",
"` 	c #C1AA8D",
" .	c #AD9A83",
"..	c #C1A888",
"+.	c #C2A88C",
"@.	c #C0A98D",
"#.	c #433A33",
"$.	c #BB9F83",
"%.	c #BCA385",
"&.	c #B59B7D",
"*.	c #C4AB90",
"=.	c #A3927D",
"-.	c #4A3F34",
";.	c #A18D75",
">.	c #BCA082",
",.	c #C6AB8C",
"'.	c #C1A58A",
").	c #413632",
"!.	c #A28F7A",
"~.	c #BAA382",
"{.	c #C4A88A",
"].	c #C1A68B",
"^.	c #C6AE92",
"/.	c #C7AD8F",
"(.	c #C5AB8D",
"_.	c #B89C7C",
":.	c #C2AA8E",
"<.	c #C0AB88",
"[.	c #BCA184",
"}.	c #635646",
"|.	c #63574A",
"1.	c #BEAA8A",
"2.	c #BCA384",
"3.	c #BDA385",
"4.	c #3E352E",
"5.	c #B79E80",
"6.	c #C5AC8F",
"7.	c #B69C7E",
"8.	c #BFA588",
"9.	c #9C886F",
"0.	c #C6A990",
"a.	c #C0A78A",
"b.	c #BCA286",
"c.	c #BBA185",
"d.	c #CAAE94",
"e.	c #C2A68B",
"f.	c #BA9E88",
"g.	c #695A4E",
"h.	c #C7AE90",
"i.	c #BFA78E",
"j.	c #C2A88D",
"k.	c #C6AD91",
"l.	c #B89F81",
"m.	c #C3A98D",
"n.	c #BEA589",
"o.	c #BB9F87",
"p.	c #C4A98B",
"q.	c #C0A789",
"r.	c #BFA68C",
"s.	c #BEA587",
"t.	c #41372D",
"u.	c #BA9E83",
"v.	c #BCA387",
"w.	c #BEA688",
"x.	c #CBAF96",
"y.	c #B69D80",
"z.	c #BEA488",
"A.	c #B59B7B",
"B.	c #CAB191",
"C.	c #5F554B",
"D.	c #B49E91",
"E.	c #353338",
"F.	c #7A6C5D",
"G.	c #837565",
"H.	c #877969",
"I.	c #826F67",
"J.	c #88776F",
"K.	c #8C7D71",
"L.	c #897B6B",
"M.	c #877867",
"N.	c #84776B",
"O.	c #7D6E61",
"P.	c #77685B",
"Q.	c #41392F",
"  . + + @ # $ $ + % & % + * $ % = @ % % & & # % + % & @ % # # + % & & + % & + % % # @ - & # % # ;   ",
"> @ , ' ' ) ! ' ) ~ { ] ~ ' ^ ) / ~ ) ~ / ~ ) ~ ) ~ ( { / / / ~ / ] ~ ) ] ] ~ / / ) / _ / ~ ] : , < ",
"[ } ' | 1 2 3 4 5 6 7 8 9 0 a 2 9 9 b 7 0 7 c 8 9 b 9 0 9 9 9 b 7 9 d b 9 9 5 9 9 _ 5 0 9 9 9 2 ! @ ",
"[ e { 0 0 3 f g 7 7 h 8 i i 3 a j j 7 0 i 8 9 k 8 c i i 8 i i 7 l m c 7 j n 9 j i 7 9 o 0 8 i 2 ! + ",
"< p { 0 i q j r q 8 h 8 m n l c k k c j n l q n q q n n 8 j j q m n l d m m 7 m j c m r q 8 n 3 ! + ",
". p { i n 9 i r 8 q n n n r q 7 m k l m r s t u v w x h j k y c 8 n 8 q m n c m n a q r y n y 2 ! . ",
"; z ( 0 n 7 h h 8 q m m m n q A B C C C C C C C C C C C C C C C v D q 7 m r 8 n m 7 q n n m n c ! + ",
"E } ( i n 8 h n 7 q n n n F C C C C C C C C C C C C C C C C C C C C C G m n 8 n m d 7 n m m n q ! # ",
"E H { 0 i 7 n r q j n m C C C C C C C C C I J K v L x M C C C C C C C C C m l m m c 8 n m j n 3 N + ",
"[ p ( i i 7 m h l l y C C C C C O P l j n 8 7 n m q y k Q R j S T C C C C C U j m 3 8 r y j y a ! + ",
". H ( i m 7 m y a l C C C C V c k y q m n l 7 n l q y r y k y q 8 n W C C C C j y c l k y 0 y 2 ! # ",
"X H ( i 8 7 m g l Y C C C Z 8 7 n m 7 m m 7 7 n m 7 m n m m m c m h 7 7 C C C ` m 7 8 n n 8 n  .! # ",
"X e ] j j 7 f g l C C C ..m q 7 n i 7 m m 7 7 n n 7 m n j m 8 7 n h 7 7 +.C C C m 7 q n n 8 n 5 N + ",
". H _ n n 7 f i l C C C j n 8 q m n 7 m h 8 8 n i 7 m n m m n 7 7 n m 7 m C C C @.7 8 n n 8 n 5 { #.",
". e ( j n l k o $.C C C y k 0 q m m 7 m n 8 7 K %.&.n m n n m 7 7 h 7 7 m F C C *.7 8 n n j n 3 =.-.",
". H ;.j m 8 k k >.C C ,.k k 0 q h n 7 m n C C C C C C C '.m n 8 m h m 7 8 C C C *.7 8 h n 8 n  .=.-.",
").H !.m n 9 i o ~.C C {.f k 9 c m h 7 m C C C C C C C C C ].m 7 m n m 7 n Q C C ^.7 m n n 8 n  .=.-.",
").H !.m k 0 f f ~.C C /.k k 8 7 m n 7 m C C C (.v w C C C W n q m n q 7 n n C C ^.7 q n n m r c =.-.",
"E H ;.m y j k o _.C C ,.g g i c n n 8 8 C C W n m 7 '.C C W n q m m m 7 m n C C *.7 q n n i r a !.-.",
"E H / j y j f k _.C C :.k k 0 q n n 7 8 C C W h m 7 '.C C W n q m n q 7 m n C C *.7 q n j 8 r 3 !.-.",
"E e / 8 m l f o <.C C ,.y k 0 q n n 7 q C C [.n m m W C C x n q 8 n 8 7 m m C C ^.q 8 n m 8 y q !.-.",
"[ e ;.m n c 0 r _.C C ,.f k q q n n 7 m C C C C C C C C C x m 7 m n m 7 m m C C ^.7 q h m m j 5 ] + ",
"[ }.;.j n 9 i h _.C C ,.j f 9 c m m 8 m C C C C C C C C C n n 7 8 m 8 7 m m C C *.7 7 n n m m c !.& ",
"[ }.;.j i 9 i h _.C C ,.k k 9 7 n n q m n C C C C C C C ].n n q m n 7 7 m 8 C C *.7 q n n m m c =.& ",
"[ |.;.m j a l k 1.C C C i n 3 7 m n q m n q 7 n m 7 m n m m m 7 8 n 8 q m m C C *.q q n m 8 j  .=.& ",
"[ e !.m m l y n 7 C C C i n 9 c m m q 8 n 8 q n m 7 m h m m m 7 8 m q q 8 m C C *.7 q n m 8 i c =.& ",
"[ |.;.j m l k f 7 C C C 2.k i c m n q 8 n j 8 n m q m n m m n q 8 n 8 7 m m C C *.7 q n m 8 m q =.% ",
"[ }.;.j m 3 i k 7 3.C C C Z 9 c m n 7 8 n l q n 8 7 m n m m n 7 m n 8 7 m m C C ^.q q r n 8 j 3 2 & ",
"4.}.;.j n j m r 9 8 C C C C C 5.n h q 8 r j 8 n 8 q m k m m m 7 8 r 8 q m m C C *.7 q r n 8 n 3 2 & ",
"E e _ m n q 0 k 8 q r C C C C C C C C F 6.I 7.K 8.C C C C m n q 8 n j q m n C C ^.7 8 n m m k c =.& ",
". }.9.j n l r o 8 c m y 0.C C C C C C C C C C C C C C C C k r q 8 r q 7 m n C C *.7 q n m m k 3 =.& ",
". }.9.8 n i k k q c y k k r a.C C C C C C C C C C C C C C n n q 8 n q 7 m n C C *.7 q n j j k q =.& ",
"E }.;.8 m q n o 8 8 y n j r m q n n q b.6.c.t d.e.f.g.C C k y q 8 n 8 c 8 m C C ^.7 q n m m n 7 =.& ",
"[ }.;.m n 7 8 o 8 8 k y j C C C C C C C C C C C C C C C C m n c 8 g 8 q 8 m C C *.q q n n m n c =.& ",
"[ }.;.8 j 7 i f q q r r h.C C C C C C C C C C C C C C C i.y m c 8 r l 7 m j.C C *.7 7 r m j n 3 =.& ",
"[ }.9.8 j c i k c c j k Z C C C k.k.l.b.m.c.J K n.o.x *.j k j c 8 n 8 7 m F C C *.d 7 n m j i c =.& ",
"[ }.9.m m d 8 o l q y y p.C C c m m q 8 m q 7 n m l y k m m m q 8 n q 7 8 F C C ^.7 q n j 8 n 3 =.& ",
"4.}.;.m n 7 i n c q r y q.C C 7 m n c 8 n 8 q m 8 l j y j y k a l n l 7 8 C C C r.q q n m 8 m c =.& ",
"[ }./ 8 n m m r q q r m p.C C 7 m n c j n 8 q m j c m k j y k c 8 n q 7 s.C C C m q q n m 8 m c =.% ",
"> }.9.8 m 7 n n q q r y p.C C 7 m n q 8 n 8 l n j c m y m m j q 8 n 8 G C C C 6.m 7 q n m 8 j 3 =.% ",
"t.}.9.8 n 9 i i 8 q r y p.C C 7 m n q 8 n 8 q n m 3 f k m j n 7 8 r J C C C C 8 n 7 q n m 8 m 3 2 + ",
"[ }.;.m n 9 i h 8 q m r p.C C 7 n n q 8 k 8 q k m q j k j j m u.$.C C C C C q m n q q n m 8 m c b + ",
"[ }.9.8 n 8 i o q q n n Z C C C k.k.v.w.x.W J K n.y.z.C C C C C C C C C C n 8 m n 7 q n m 8 m q =.% ",
"[ }.9.q n 8 h o 9 7 n y p.C C C C C C C C C C C C C C C C C C C C C C A.8 n 8 m n 7 7 n m j m 0 N % ",
"[ }.9.q n 7 n h l c y y m C C C C C C C C C C C C C C C C C C C 3.B.8 d j n q 8 n 7 7 n m 8 n 3 N % ",
"4.= ] 8 n 5 7 h 8 l y g j m c d j k l 8 k q 7 j j c j r j j j c q n m 7 n j d 8 n 7 7 n m 8 m q { C.",
"E = ] 9 i 5 8 m l c y y 4 m l d j i q 8 j 3 c 0 i  .8 k j f m a q y 8 7 j j c 8 m d 2 n y 0 j  .! C.",
"[ @ ) 6 6 b | 0 3 2 D.4 D.4 3 b 6 0 b  .6 b _ c | 2  .1 0 8 3 b 2 0 3 !.| | 2  .4 2 2 3 3 0 1 2 ! |.",
"E.# p , , F.G.) H.I.J.K.J.L.M.I.M.L.M.M.M.I.F.M.H.I.G.L.M.L.L.G.N.K.H., N.H.O.G.L., P.F.F.P.F.p p #.",
"E.E.. #.. Q.#.#.).).; #.#.#.t.t.#.#.Q.#.#.t.t.Q.#.t.Q.#.Q.#.).t.4.#.Q.. #.4.4.4.#.4.4.. #.#.#.X . > "};
