/* XPM */
static char * number_0_xpm[] = {
"50 50 393 2",
"  	c #363332",
". 	c #3F3935",
"+ 	c #4C4137",
"@ 	c #564B41",
"# 	c #4D4239",
"$ 	c #4C3F39",
"% 	c #52463A",
"& 	c #55493C",
"* 	c #504437",
"= 	c #594E43",
"- 	c #5F5145",
"; 	c #413638",
"> 	c #36312D",
", 	c #7F7464",
"' 	c #94897B",
") 	c #93846D",
"! 	c #9C8D81",
"~ 	c #978871",
"{ 	c #9E917C",
"] 	c #9C8C7B",
"^ 	c #907E71",
"/ 	c #9C8B73",
"( 	c #9F9177",
"_ 	c #A49277",
": 	c #948572",
"< 	c #453D39",
"[ 	c #3C3533",
"} 	c #665C53",
"| 	c #AF9C89",
"1 	c #B6A191",
"2 	c #AB9683",
"3 	c #B39E8A",
"4 	c #BBA493",
"5 	c #AE9A7C",
"6 	c #ACA08B",
"7 	c #B49A7E",
"8 	c #BBA286",
"9 	c #B6A184",
"0 	c #B5A38B",
"a 	c #B19782",
"b 	c #A9967C",
"c 	c #B59C82",
"d 	c #B1977B",
"e 	c #66594B",
"f 	c #BFA890",
"g 	c #C9AE98",
"h 	c #C9B092",
"i 	c #BDA98B",
"j 	c #BDA48A",
"k 	c #C4AB91",
"l 	c #BA9E89",
"m 	c #C1A68C",
"n 	c #C3A98E",
"o 	c #C6B095",
"p 	c #6A6158",
"q 	c #B99E84",
"r 	c #C9AD95",
"s 	c #BAA288",
"t 	c #BEA48A",
"u 	c #B59A85",
"v 	c #B49A80",
"w 	c #B69D82",
"x 	c #B9A087",
"y 	c #B89D83",
"z 	c #B1977C",
"A 	c #A38C77",
"B 	c #A28D78",
"C 	c #998272",
"D 	c #827060",
"E 	c #5C5048",
"F 	c #574B44",
"G 	c #5A4E46",
"H 	c #5C5148",
"I 	c #594D45",
"J 	c #6C5E53",
"K 	c #9F8777",
"L 	c #96816D",
"M 	c #9B8670",
"N 	c #B89F86",
"O 	c #B9A085",
"P 	c #C3A691",
"Q 	c #695E52",
"R 	c #BFA58B",
"S 	c #B19A81",
"T 	c #816F5E",
"U 	c #66574B",
"V 	c #453C39",
"W 	c #3E3635",
"X 	c #3D3635",
"Y 	c #3B3434",
"Z 	c #3A3333",
"` 	c #3F3736",
" .	c #62554B",
"..	c #6F5F53",
"+.	c #9C866E",
"@.	c #BCA288",
"#.	c #3F3638",
"$.	c #BAA187",
"%.	c #877564",
"&.	c #544942",
"*.	c #3C3534",
"=.	c #433B38",
"-.	c #706154",
";.	c #94806D",
">.	c #927E6B",
",.	c #8D7866",
"'.	c #8E7B67",
").	c #907C6A",
"!.	c #4B413D",
"~.	c #443B38",
"{.	c #423937",
"].	c #776659",
"^.	c #AA937C",
"/.	c #BAA186",
"(.	c #695C4C",
"_.	c #746457",
":.	c #3D3534",
"<.	c #4A403C",
"[.	c #867261",
"}.	c #988370",
"|.	c #BAA087",
"1.	c #AC9379",
"2.	c #BFA585",
"3.	c #A08B74",
"4.	c #96836E",
"5.	c #483F3B",
"6.	c #564A43",
"7.	c #A28A78",
"8.	c #C0A58C",
"9.	c #A39281",
"0.	c #B09682",
"a.	c #76645A",
"b.	c #76675A",
"c.	c #BA9E87",
"d.	c #A38E78",
"e.	c #6E5E54",
"f.	c #524741",
"g.	c #A58F79",
"h.	c #AF9681",
"i.	c #78665A",
"j.	c #3D3535",
"k.	c #716155",
"l.	c #C5AA8A",
"m.	c #B69E80",
"n.	c #76655A",
"o.	c #403837",
"p.	c #776759",
"q.	c #BEA28E",
"r.	c #3F382F",
"s.	c #B49985",
"t.	c #60524B",
"u.	c #6B5B52",
"v.	c #C5A98A",
"w.	c #BFA78B",
"x.	c #9F8974",
"y.	c #A8917B",
"z.	c #AD9A83",
"A.	c #978170",
"B.	c #403836",
"C.	c #8E7B69",
"D.	c #C1A78B",
"E.	c #443C38",
"F.	c #766558",
"G.	c #B3997D",
"H.	c #947E6E",
"I.	c #65584D",
"J.	c #B99F86",
"K.	c #C5AB8E",
"L.	c #4E443E",
"M.	c #6F6054",
"N.	c #B2987D",
"O.	c #433A33",
"P.	c #C0AB91",
"Q.	c #68594E",
"R.	c #917E6B",
"S.	c #BCA487",
"T.	c #A28B72",
"U.	c #897562",
"V.	c #96826E",
"W.	c #B79E85",
"X.	c #C5AC8F",
"Y.	c #AC957C",
"Z.	c #443B39",
"`.	c #4F453F",
" +	c #9F8870",
".+	c #A3927D",
"++	c #4A3F34",
"@+	c #A18D75",
"#+	c #BCA48B",
"$+	c #514640",
"%+	c #746556",
"&+	c #504640",
"*+	c #C3A88C",
"=+	c #BEA688",
"-+	c #483E3B",
";+	c #97816B",
">+	c #413632",
",+	c #A28F7A",
"'+	c #BEA98F",
")+	c #514740",
"!+	c #AB937D",
"~+	c #413937",
"{+	c #463D3A",
"]+	c #776658",
"^+	c #C2A78C",
"/+	c #B79E80",
"(+	c #473E3A",
"_+	c #B7A18A",
":+	c #988570",
"<+	c #99836E",
"[+	c #B49C84",
"}+	c #B39A82",
"|+	c #AB927B",
"1+	c #AE967F",
"2+	c #6C5D52",
"3+	c #C4A98C",
"4+	c #BCA286",
"5+	c #51463F",
"6+	c #6D5E52",
"7+	c #9D8973",
"8+	c #C3A98D",
"9+	c #6E5F53",
"0+	c #BFA48B",
"a+	c #998570",
"b+	c #534942",
"c+	c #B79C83",
"d+	c #9B8570",
"e+	c #C1A68F",
"f+	c #68594D",
"g+	c #AF967A",
"h+	c #C2A68A",
"i+	c #635646",
"j+	c #C1A98C",
"k+	c #8F806B",
"l+	c #6B5D50",
"m+	c #9E8A73",
"n+	c #C3A98C",
"o+	c #6A5B4F",
"p+	c #B39A81",
"q+	c #63574A",
"r+	c #B2997D",
"s+	c #C1A68A",
"t+	c #BBA288",
"u+	c #6C5E52",
"v+	c #6B5B51",
"w+	c #3E352E",
"x+	c #9A8673",
"y+	c #524841",
"z+	c #988372",
"A+	c #9E8876",
"B+	c #9C886F",
"C+	c #B89C88",
"D+	c #998273",
"E+	c #C9AD93",
"F+	c #C0A88B",
"G+	c #524740",
"H+	c #947E6F",
"I+	c #5D4F47",
"J+	c #AC937B",
"K+	c #C7AB94",
"L+	c #BCA289",
"M+	c #857362",
"N+	c #C4A68F",
"O+	c #94816F",
"P+	c #947F6C",
"Q+	c #5C4F46",
"R+	c #6B5C50",
"S+	c #423A38",
"T+	c #4A413C",
"U+	c #B39B80",
"V+	c #514741",
"W+	c #A28A79",
"X+	c #B89F80",
"Y+	c #8F7C6A",
"Z+	c #C2A78B",
"`+	c #A18A74",
" @	c #8D7869",
".@	c #998672",
"+@	c #BEA488",
"@@	c #B89F81",
"#@	c #A28A71",
"$@	c #C1AB91",
"%@	c #6E5D54",
"&@	c #C4A68E",
"*@	c #9D866F",
"=@	c #726356",
"-@	c #917D69",
";@	c #A68E7C",
">@	c #C3A88D",
",@	c #7E6C5A",
"'@	c #98826D",
")@	c #6B5C51",
"!@	c #BFA789",
"~@	c #877464",
"{@	c #998470",
"]@	c #B89D84",
"^@	c #B59B82",
"/@	c #826F5F",
"(@	c #78675A",
"_@	c #C3A98B",
":@	c #B69C7F",
"<@	c #97826E",
"[@	c #66584E",
"}@	c #B69D84",
"|@	c #41372D",
"1@	c #A89079",
"2@	c #5C4F48",
"3@	c #746459",
"4@	c #AF957D",
"5@	c #CBB196",
"6@	c #A9937A",
"7@	c #95806C",
"8@	c #917E69",
"9@	c #C2A88E",
"0@	c #A8907A",
"a@	c #594D46",
"b@	c #49403C",
"c@	c #7F6D5B",
"d@	c #8F7C69",
"e@	c #BEA58A",
"f@	c #BBA084",
"g@	c #BDA385",
"h@	c #B1977F",
"i@	c #9D8671",
"j@	c #867365",
"k@	c #443C39",
"l@	c #3E3735",
"m@	c #897564",
"n@	c #BEA38A",
"o@	c #5E5148",
"p@	c #CBAF95",
"q@	c #BDA486",
"r@	c #C4AA8D",
"s@	c #BEA589",
"t@	c #B79D81",
"u@	c #C3A68F",
"v@	c #BFA68A",
"w@	c #4F4540",
"x@	c #907D6A",
"y@	c #B8A084",
"z@	c #C2A591",
"A@	c #B99F87",
"B@	c #433A37",
"C@	c #4B413C",
"D@	c #7C6A59",
"E@	c #AC957B",
"F@	c #C0A78C",
"G@	c #C8AC95",
"H@	c #A68F78",
"I@	c #9F8874",
"J@	c #79695A",
"K@	c #716154",
"L@	c #716053",
"M@	c #6A5D52",
"N@	c #79695B",
"O@	c #736257",
"P@	c #877563",
"Q@	c #B7A086",
"R@	c #AD967C",
"S@	c #BCA38A",
"T@	c #C2AA90",
"U@	c #B89D88",
"V@	c #B9A084",
"W@	c #AA947E",
"X@	c #99826E",
"Y@	c #8B7763",
"Z@	c #857463",
"`@	c #857363",
" #	c #887664",
".#	c #9C8773",
"+#	c #A9917E",
"@#	c #A38D78",
"##	c #B59D84",
"$#	c #BBA389",
"%#	c #B49B81",
"&#	c #5F554B",
"*#	c #B4A28A",
"=#	c #BBA88A",
"-#	c #AC9982",
";#	c #B49E91",
">#	c #353338",
",#	c #7A6C5D",
"'#	c #837565",
")#	c #877969",
"!#	c #826F67",
"~#	c #88776F",
"{#	c #8C7D71",
"]#	c #897B6B",
"^#	c #877867",
"/#	c #84776B",
"(#	c #7D6E61",
"_#	c #77685B",
":#	c #41392F",
"  . + + @ # $ $ + % & % + * $ % = @ % % & & # % + % & @ % # # + % & & + % & + % % # @ - & # % # ;   ",
"> @ , ' ' ) ! ' ) ~ { ] ~ ' ^ ) / ~ ) ~ / ~ ) ~ ) ~ ( { / / / ~ / ] ~ ) ] ] ~ / / ) / _ / ~ ] : , < ",
"[ } ' | 1 2 3 4 5 6 7 8 9 0 a 2 9 9 b 7 0 7 c 8 9 b 9 0 9 9 9 b 7 9 d b 9 9 5 9 9 _ 5 0 9 9 9 2 ! @ ",
"[ e { 0 0 3 f g 7 7 h 8 i i 3 a j j 7 0 i 8 9 k 8 c i i 8 i i 7 l m c 7 j n 9 j i 7 9 o 0 8 i 2 ! + ",
"< p { 0 i q j r q 8 h 8 m n l c k k c s t u v t v v t t w x j q m n l d m m 7 m j c m r q 8 n 3 ! + ",
". p { i n 9 i r 8 q n n n r y z A B C D E F F G G F G H I J K L M N O q m n c m n a q r P n P 2 ! . ",
"; Q ( 0 n 7 h h 8 q m m R S T U V W X Y Z Z Z Z Z Z Z Z Z Y W W `  ...+.@.r 8 n m 7 q n n m n c ! + ",
"#.} ( i n 8 h n 7 q n $.%.&.*.Z Y < =.-.;.>.>.;.>.,.>.>.'.).!.~.` Z Z {.].^./.n m d 7 n m m n q ! # ",
"#.(.{ 0 i 7 n r q j $._.:.Z <.[.}.|.1.2.n 8 8 n m 7 m n j m |.1.3.4.5.Z Z 6.7.8.m c 8 n m j n 3 9.+ ",
"[ p ( i i 7 m h l 0.a.:.Y b.c.l k P l j n 8 7 n m q P k m P j c j r d.e.Y Z f.g.m 3 8 r P j P a ! + ",
". (.( i m 7 m P h.i.j.Z k.l.q c k P q m n l 7 n l q P r P k P q 8 n m m.n.o.Z p.q.c l k P 0 P 2 ! # ",
"r.(.( i 8 7 m g s.t.Z u.v.n 8 7 n m 7 m m 7 7 n m 7 m n m m m c m h 7 7 w.x.{.=.y.7 8 n n 8 n z.! # ",
"r.e ] j j 7 f g A.B.Z C.t m q 7 n i 7 m m 7 7 n n 7 m n j m 8 7 n h 7 7 m D.E.Z F.G.q n n 8 n 5 9.+ ",
". (._ n n 7 f i H.:.I.J.j n 8 q m n 7 m h 8 8 n i 7 m n m m n 7 7 n m 7 m K.L.Z M.N.8 n n 8 n 5 { O.",
". e ( j n l k P.Q.Y R.n P k 0 q m m 7 m n S.T.;.'.U.V.W.X.n m 7 7 h 7 7 m m Y.Z.`. +8 n n j n 3 .+++",
". (.@+j m 8 k #+$+Z ;.n k k 0 q h n 7 m S %+&+Z Z Z Z V M.*+n 8 m h m 7 8 m =+-+W ;+8 h n 8 n z..+++",
">+(.,+m n 9 i '+)+Z ;.m f k 9 c m h 7 !+&.Z ~+{+{+E.V Y Y ]+^+7 m n m 7 n m /+(+` ;+m n n 8 n z..+++",
">+(.,+m k 0 f _+)+Z :+k k k 8 7 m n 7 >.Z L.<+[+}+|+1+2+Y -+3+q m n q 7 n n 4+(+` ;+q n n m r c .+++",
"#.(.@+m P j k '+5+Z ;.n g g i c n n 8 '.Z 6+t n m 7 m 7+:.-+3+q m m m 7 m n 8+-+` ;+q n n i r a ,+++",
"#.(./ j P j f #+5+Z >.f k k 0 q n n 7 '.Z 9+0+h m 7 m a+:.-+3+q m n q 7 m n 8+-+` ;+q n j 8 r 3 ,+++",
"#.e / 8 m l f '+b+Z :+n P k 0 q n n 7 ,.Z 9+c+n m m n a+:.(+3+q 8 n 8 7 m m 4+(+` d+8 n m 8 P q ,+++",
"[ e @+m n c 0 e+5+Z :+n f k q q n n 7 >.Z f+g+m m q m a+:.(+h+7 m n m 7 m m /+{+` ;+q h m m j 5 ] + ",
"[ i+@+j n 9 i j+5+Z k+n j f 9 c m m 8 >.Z l+c+m 7 7 m m+:.-+n+7 8 m 8 7 m m /+(+` ;+7 n n m m c ,+& ",
"[ i+@+j i 9 i j+5+Z :+n k k 9 7 n n q >.Z o+p+m m 7 m a+:.-+n+q m n 7 7 m 8 /+(+` ;+q n n m m c .+& ",
"[ q+@+m j a l #+b+Z :+n i n 3 7 m n q >.Z o+r+n m 7 m a+:.(+s+7 8 n 8 q m m /+(+` d+q n m 8 j z..+& ",
"[ e ,+m m l P t+5+Z :+n i n 9 c m m q '.Z l+c+n m 7 m m+:.(+s+7 8 m q q 8 m /+(+` ;+q n m 8 i c .+& ",
"[ q+@+j m l k _+5+Z ;.n n k i c m n q '.Z u+O n m q m a+:.(+*+q 8 n 8 7 m m /+(+` ;+q n m 8 m q .+% ",
"[ i+@+j m 3 i #+5+Z ;.m j n 9 c m n 7 '.Z v+c+n 8 7 m a+:.(+n+7 m n 8 7 m m 4+(+` d+q r n 8 j 3 2 & ",
"w+i+@+j n j m e+)+Z ;.n m n j 7 n h q '.Z u+O n 8 q m x+:.(+s+7 8 r 8 q m m /+(+` ;+q r n 8 n 3 2 & ",
"#.e _ m n q 0 #+y+Z z+h m n m 7 m n q >.Z l+r+n j l m A+:.(+n+q 8 n j q m n =+(+` ;+8 n m m k c .+& ",
". i+B+j n l r '+y+Z >.P P r j 7 m n q '.Z u+C+k m q m D+:.5.E+q 8 r q 7 m n F+-+` ;+q n m m k 3 .+& ",
". i+B+8 n i k #+G+Z H+k k r j 7 m n q ,.Z u+O r j q m x+:.-+n+q 8 n q 7 m n =+-+` ;+q n j j k q .+& ",
"#.i+@+8 m q n '+y+Z H+n j r m q n n q ,.Z I+J+K+0+C+L+M+Y 5.N+q 8 n 8 c 8 m /+(+` ;+q n m m n 7 .+& ",
"[ i+@+m n 7 8 '+y+Z O+P j P q 7 n n m P+Z Y Q+k.M.R+6+S+Z T+3+c 8 g 8 q 8 m /+{+` d+q n n m n c .+& ",
"[ i+@+8 j 7 i _+G+Z z+r k n 7 7 m n q U+_.B.Z Z Z Z Z Y V+W+m c 8 r l 7 m m X+{+` ;+7 r m j n 3 .+& ",
"[ i+B+8 j c i #+$+Z Y+k n n 8 q n n 7 q Z+`+'.;.Y+ @>..@+@k j c 8 n 8 7 m m @@(+G #@7 n m j i c .+& ",
"[ i+B+m m d 8 $@%@Y a.&@m P q c m m q 8 m q 7 n m l P k m m m q 8 n q 7 8 m *@B.=@r+q n j 8 n 3 .+& ",
"w+i+@+m n 7 i n -@*.~+;@j P 8 7 m n c 8 n 8 q m 8 l j P j P k a l n l 7 8 >@,@Z -.c+q n m 8 m c .+& ",
"[ i+/ 8 n m m r '@{.Z )@|.n 8 7 m n c j n 8 q m j c m k j P k c 8 n q 7 !@~@B.` {@]@q n m 8 m c .+% ",
"> i+B+8 m 7 n n ^@/@j.Y (@_@8 7 m n q 8 n 8 l n j c m P m m j q 8 n 8 :@<@` Z [@}@7 q n m 8 j 3 .+% ",
"|@i+B+8 n 9 i i 8 1@2@Z Y 3@4@7 m n q 8 n 8 q n m 3 f k m j n 7 8 5@6@7@=.Z {.8@9@7 q n m 8 m 3 2 + ",
"[ i+@+m n 9 i h 8 ]@0@a@Z Z b@c@d@e@f@g@k 8 q k m q j k j j }@h@i@j@k@l@Z V m@n@n q q n m 8 m c b + ",
"[ i+B+8 n 8 i o q q 9@^.o@~+Z Z Y !.{+'.p@*+q@r@s@t@+@E+u@v@w@Z.` Z Z Y `.x@y@m n 7 q n m 8 m q .+% ",
"[ i+B+q n 8 h o 9 7 n z@A@V. .B@o.Z Z B.-+(+{+-+(+V (+5.(+{+Z Z W V C@D@E@F@8 m n 7 7 n m j m 0 9.% ",
"[ i+B+q n 7 n h l c P P m G@4@H@I@J@K@L@<.` W j.:.X ` ` ~+M@N@O@P@Q@R@g+j n q 8 n 7 7 n m 8 n 3 9.% ",
"w+= ] 8 n 5 7 h 8 l P g j m c d S@T@U@V@W@X@Y@Z@`@ #.#+#@###$#%#y n m 7 n j d 8 n 7 7 n m 8 m q { &#",
"#.= ] 9 i 5 8 m l c P P 4 m l d j i q 8 j 3 %#*#=#-#8 k j f m a q P 8 7 j j c 8 m d 2 n P 0 j z.! &#",
"[ @ ) 6 6 b | 0 3 2 ;#4 ;#4 3 b 6 0 b z.6 b _ c | 2 z.1 0 8 3 b 2 0 3 ,+| | 2 z.4 2 2 3 3 0 1 2 ! q+",
">## p , , ,#'#) )#!#~#{#~#]#^#!#^#]#^#^#^#!#,#^#)#!#'#]#^#]#]#'#/#{#)#, /#)#(#'#]#, _#,#,#_#,#p p O.",
">#>#. O.. :#O.O.>+>+; O.O.O.|@|@O.O.:#O.O.|@|@:#O.|@:#O.:#O.>+|@w+O.:#. O.w+w+w+O.w+w+. O.O.O.r.. > "};
