/* XPM */
static char * number_8_xpm[] = {
"50 50 184 2",
"  	c #363332",
". 	c #3F3935",
"+ 	c #4C4137",
"@ 	c #564B41",
"# 	c #4D4239",
"$ 	c #4C3F39",
"% 	c #52463A",
"& 	c #55493C",
"* 	c #504437",
"= 	c #594E43",
"- 	c #5F5145",
"; 	c #413638",
"> 	c #36312D",
", 	c #7F7464",
"' 	c #94897B",
") 	c #93846D",
"! 	c #9C8D81",
"~ 	c #978871",
"{ 	c #9E917C",
"] 	c #9C8C7B",
"^ 	c #907E71",
"/ 	c #9C8B73",
"( 	c #9F9177",
"_ 	c #A49277",
": 	c #948572",
"< 	c #453D39",
"[ 	c #3C3533",
"} 	c #665C53",
"| 	c #AF9C89",
"1 	c #B6A191",
"2 	c #AB9683",
"3 	c #B39E8A",
"4 	c #BBA493",
"5 	c #AE9A7C",
"6 	c #ACA08B",
"7 	c #B49A7E",
"8 	c #BBA286",
"9 	c #B6A184",
"0 	c #B5A38B",
"a 	c #B19782",
"b 	c #A9967C",
"c 	c #B59C82",
"d 	c #B1977B",
"e 	c #66594B",
"f 	c #BFA890",
"g 	c #C9AE98",
"h 	c #C9B092",
"i 	c #BDA98B",
"j 	c #BDA48A",
"k 	c #C4AB91",
"l 	c #BA9E89",
"m 	c #C1A68C",
"n 	c #C3A98E",
"o 	c #C6B095",
"p 	c #6A6158",
"q 	c #B99E84",
"r 	c #C9AD95",
"s 	c #BB9F89",
"t 	c #BBA084",
"u 	c #C4AA8D",
"v 	c #BA9F83",
"w 	c #BA9F82",
"x 	c #C3A98C",
"y 	c #C3A88C",
"z 	c #BBA285",
"A 	c #C2A88E",
"B 	c #C8B194",
"C 	c #3A3333",
"D 	c #BCA385",
"E 	c #C4A98D",
"F 	c #C3A691",
"G 	c #695E52",
"H 	c #BEA486",
"I 	c #B59B7E",
"J 	c #3F3638",
"K 	c #C4AA8E",
"L 	c #C2A78B",
"M 	c #C1A68A",
"N 	c #C1A58A",
"O 	c #695C4C",
"P 	c #C4AA8F",
"Q 	c #B59A7D",
"R 	c #BDA384",
"S 	c #A39281",
"T 	c #BDA28A",
"U 	c #B39983",
"V 	c #CAAF97",
"W 	c #B9A184",
"X 	c #3F382F",
"Y 	c #C7AD8F",
"Z 	c #C7AD8D",
"` 	c #AD9A83",
" .	c #CCB092",
"..	c #C2A78C",
"+.	c #BDA486",
"@.	c #BEAA8A",
"#.	c #B59B7C",
"$.	c #C3A98D",
"%.	c #433A33",
"&.	c #A3927D",
"*.	c #4A3F34",
"=.	c #A18D75",
"-.	c #BEA587",
";.	c #413632",
">.	c #A28F7A",
",.	c #695A4E",
"'.	c #C6AC8E",
").	c #C6AB8C",
"!.	c #CBB097",
"~.	c #C1A589",
"{.	c #C4A88A",
"].	c #B79D7E",
"^.	c #BBA085",
"/.	c #BDA485",
"(.	c #BDA386",
"_.	c #C6AC8D",
":.	c #C7AF92",
"<.	c #C3A88B",
"[.	c #635646",
"}.	c #C0AB89",
"|.	c #B59B7D",
"1.	c #B9A080",
"2.	c #B79D7C",
"3.	c #B89F81",
"4.	c #C4AB8F",
"5.	c #C2A68B",
"6.	c #B79D7D",
"7.	c #63574A",
"8.	c #C4A98C",
"9.	c #C2A88D",
"0.	c #B69B7D",
"a.	c #C7AC8B",
"b.	c #BBA086",
"c.	c #3E352E",
"d.	c #BDA587",
"e.	c #B8A083",
"f.	c #BEA688",
"g.	c #9C886F",
"h.	c #C3A58D",
"i.	c #C9AC93",
"j.	c #C0A88C",
"k.	c #C3A68F",
"l.	c #BDA388",
"m.	c #BDA387",
"n.	c #B59D80",
"o.	c #B89F82",
"p.	c #C6A88F",
"q.	c #BCA082",
"r.	c #41372D",
"s.	c #B69C7F",
"t.	c #BEA485",
"u.	c #BCA387",
"v.	c #C6AD92",
"w.	c #BDA488",
"x.	c #BEA488",
"y.	c #C2A68A",
"z.	c #BB9F82",
"A.	c #C5AB8E",
"B.	c #C4AB8E",
"C.	c #C5AB8D",
"D.	c #BCA083",
"E.	c #B2987B",
"F.	c #B9A185",
"G.	c #BCA286",
"H.	c #C5AC8F",
"I.	c #BDA586",
"J.	c #C0A88E",
"K.	c #C5AB8F",
"L.	c #BB9F87",
"M.	c #5F554B",
"N.	c #B49E91",
"O.	c #353338",
"P.	c #7A6C5D",
"Q.	c #837565",
"R.	c #877969",
"S.	c #826F67",
"T.	c #88776F",
"U.	c #8C7D71",
"V.	c #897B6B",
"W.	c #877867",
"X.	c #84776B",
"Y.	c #7D6E61",
"Z.	c #77685B",
"`.	c #41392F",
"  . + + @ # $ $ + % & % + * $ % = @ % % & & # % + % & @ % # # + % & & + % & + % % # @ - & # % # ;   ",
"> @ , ' ' ) ! ' ) ~ { ] ~ ' ^ ) / ~ ) ~ / ~ ) ~ ) ~ ( { / / / ~ / ] ~ ) ] ] ~ / / ) / _ / ~ ] : , < ",
"[ } ' | 1 2 3 4 5 6 7 8 9 0 a 2 9 9 b 7 0 7 c 8 9 b 9 0 9 9 9 b 7 9 d b 9 9 5 9 9 _ 5 0 9 9 9 2 ! @ ",
"[ e { 0 0 3 f g 7 7 h 8 i i 3 a j j 7 0 i 8 9 k 8 c i i 8 i i 7 l m c 7 j n 9 j i 7 9 o 0 8 i 2 ! + ",
"< p { 0 i q j r q 8 h 8 m n l c k k c j n s t u v w x y z j j q m n l d m m 7 m j c m r q 8 n 3 ! + ",
". p { i n 9 i r 8 q n n n r q 7 A B C C C C C C C C C C C C C C D E 8 q m n c m n a q r F n F 2 ! . ",
"; G ( 0 n 7 h h 8 q m m m n H C C C C C C C C C C C C C C C C C C C C I m r 8 n m 7 q n n m n c ! + ",
"J } ( i n 8 h n 7 q n n K C C C C C C C C y y u L w M N C C C C C C C C y n 8 n m d 7 n m m n q ! # ",
"J O { 0 i 7 n r q j n m C C C C C P 7 8 n 8 8 n m 7 m n j m m Q R C C C C y l m m c 8 n m j n 3 S + ",
"[ p ( i i 7 m h l l F C C C C T k F l j n 8 7 n m q F k m F j c j r C C C C U j m 3 8 r F j F a ! + ",
". O ( i m 7 m F a l V C C C t c k F q m n l 7 n l q F r F k F q 8 n m C C C W j F c l k F 0 F 2 ! # ",
"X O ( i 8 7 m g l l Y C C Z 8 7 n m 7 m m 7 7 n m 7 m n m m m c m h 7 7 C C C j m 7 8 n n 8 n ` ! # ",
"X e ] j j 7 f g l l  .C C ..q 7 n i 7 m m 7 7 n n 7 m n j m 8 7 n h 7 7 C C C m m 7 q n n 8 n 5 S + ",
". O _ n n 7 f i l j C C C n 8 q m n 7 m h 8 +.u @.#.M $.m m n 7 7 n m 7 x C C m j 7 8 n n 8 n 5 { %.",
". e ( j n l k o q 9 C C C k 0 q m m 7 m K C C C C C C C C n m 7 7 h 7 7 x C C m m 7 8 n n j n 3 &.*.",
". O =.j m 8 k k q 9 C C C k 0 q h n 7 m C C C C C C C C C m n 8 m h m 7 -.C C n m 7 8 h n 8 n ` &.*.",
";.O >.m n 9 i o 9 8 C C C k 9 c m h 7 m C C C u m Q ,.C C M m 7 m n m 7 '.C C m n 7 m n n 8 n ` &.*.",
";.O >.m k 0 f f 9 8 C C C k 8 7 m n 7 m C C C n m q N C C y n q m n q 7 C C C m n 7 q n n m r c &.*.",
"J O =.m F j k o 7 8 ).C C !.i c n n 8 8 C C C n m 7 ~.C C y n q m m m 7 C C C n m 7 q n n i r a >.*.",
"J O / j F j f k 7 7 {.C C C 0 q n n 7 8 C C C C C C C C C n n q m n q ].C C C n m 7 q n j 8 r 3 >.*.",
"J e / 8 m l f o i 7 h C C C C ^.n n 7 q C C C C C C C C C m n q 8 n /.C C C (.m n q 8 n m 8 F q >.*.",
"[ e =.m n c 0 r 7 i h _.C C C C :.n 7 m C C C C C C C <.m m m 7 C C C C C C 7 q n 7 q h m m j 5 ] + ",
"[ [.=.j n 9 i h 7 7 }.C C C C C C A 8 m n 8 q m 7 7 m h n n n |.C C C C C C 1.m m 7 7 n n m m c >.& ",
"[ [.=.j i 9 i h 7 2.C C C C C 3.4.n q m n q c m m 7 m n m n n q 5.u 6.C C C C C m 7 q n n m m c &.& ",
"[ 7.=.m j a l k i C C C C n 3 7 m n q m n q 7 n m 7 m n m m m 7 8 n 8 q 8.C C C 9.q q n m 8 j ` &.& ",
"[ e >.m m l F n 0.C C C i n 9 c m m q 8 n 8 q n m 7 m h m m m 7 8 m q q 8 u C C C 7 q n m 8 i c &.& ",
"[ 7.=.j m l k f C C C a.n k i c m n q 8 n j 8 n m q m n m m n q 8 n 8 7 m m C C C 7 q n m 8 m q &.% ",
"[ [.=.j m 3 i k C C C m j n 9 c m n 7 8 K C C C C C C C N m n 7 m n 8 7 m m C C C b.q r n 8 j 3 2 & ",
"c.[.=.j n j m r C C C n m n j 7 n h q d.C C C C C C C C C M m 7 8 r 8 q m m 3.C C e.q r n 8 n 3 2 & ",
"J e _ m n q 0 k C C C h m n m 7 m n q C C C C C C C C C C C $.q 8 n j q m n f.C C e.8 n m m k c &.& ",
". [.g.j n l r o C C C F F r j 7 m n q C C C l k m q m h.C C i.q 8 r q 7 m n j.C C e.q n m m k 3 &.& ",
". [.g.8 n i k k C C C k k r j 7 m n q C C C 8 r j q m K C C x q 8 n q 7 m n f.C C e.q n j j k q &.& ",
"J [.=.8 m q n o C C C n j r m q n n q C C C q r m l m <.C C k.q 8 n 8 c 8 m 3.C C e.q n m m n 7 &.& ",
"[ [.=.m n 7 8 o C C C F j F q 7 n n m C C C C C C C C C C C x c 8 g 8 q 8 m 3.C C l.q n n m n c &.& ",
"[ [.=.8 j 7 i f C C C r k n 7 7 m n q C C C C C C C C C C C m c 8 r l 7 m m 3.C C e.7 r m j n 3 &.& ",
"[ [.g.8 j c i k C C C k n n 8 q n n 7 q $.C C C C C C C m.k j c 8 n 8 7 m m 3.C C n.7 n m j i c &.& ",
"[ [.g.m m d 8 o C C C F m F q c m m q 8 m q 7 n m l F k m m m q 8 n q 7 8 m 3.C C o.q n j 8 n 3 &.& ",
"c.[.=.m n 7 i n C C C p.j F 8 7 m n c 8 n 8 q m 8 l j F j F k a l n l 7 8 m C C C q q n m 8 m c &.& ",
"[ [./ 8 n m m r q.C C C m n 8 7 m n c j n 8 q m j c m k j F k c 8 n q 7 8 C C C C q q n m 8 m c &.% ",
"> [.g.8 m 7 n n q C C C C K 8 7 m n q 8 n 8 l n j c m F m m j q 8 n 8 7 8.C C C 9.7 q n m 8 j 3 &.% ",
"r.[.g.8 n 9 i i 8 q.C C C C C s.m n q 8 n 8 q n m 3 f k m j n 7 8 r t.C C C C C n 7 q n m 8 m 3 2 + ",
"[ [.=.m n 9 i h 8 q {.C C C C C C C u.f.v.8 q k m q j k w.x.y.z.C C C C C C (.m n q q n m 8 m c b + ",
"[ [.g.8 n 8 i o q q n n C C C C C C C C C C C C C C C C C C C C C C C C C A.8 m n 7 q n m 8 m q &.% ",
"[ [.g.q n 8 h o 9 7 n F m B.C.C C C C C C C C C C C C C C C C C C C D.E.8 n 8 m n 7 7 n m j m 0 S % ",
"[ [.g.q n 7 n h l c F F m r q c m 4.F.G.H.I.C C C C C C l.J.K.L.8 h 8 d j n q 8 n 7 7 n m 8 n 3 S % ",
"c.= ] 8 n 5 7 h 8 l F g j m c d j k l 8 k q 7 j j c j r j j j c q n m 7 n j d 8 n 7 7 n m 8 m q { M.",
"J = ] 9 i 5 8 m l c F F 4 m l d j i q 8 j 3 c 0 i ` 8 k j f m a q F 8 7 j j c 8 m d 2 n F 0 j ` ! M.",
"[ @ ) 6 6 b | 0 3 2 N.4 N.4 3 b 6 0 b ` 6 b _ c | 2 ` 1 0 8 3 b 2 0 3 >.| | 2 ` 4 2 2 3 3 0 1 2 ! 7.",
"O.# p , , P.Q.) R.S.T.U.T.V.W.S.W.V.W.W.W.S.P.W.R.S.Q.V.W.V.V.Q.X.U.R., X.R.Y.Q.V., Z.P.P.Z.P.p p %.",
"O.O.. %.. `.%.%.;.;.; %.%.%.r.r.%.%.`.%.%.r.r.`.%.r.`.%.`.%.;.r.c.%.`.. %.c.c.c.%.c.c.. %.%.%.X . > "};
