/* XPM */
static char * number_3_xpm[] = {
"50 50 274 2",
"  	c #363332",
". 	c #3F3935",
"+ 	c #4C4137",
"@ 	c #564B41",
"# 	c #4D4239",
"$ 	c #4C3F39",
"% 	c #52463A",
"& 	c #55493C",
"* 	c #504437",
"= 	c #594E43",
"- 	c #5F5145",
"; 	c #413638",
"> 	c #36312D",
", 	c #7F7464",
"' 	c #94897B",
") 	c #93846D",
"! 	c #9C8D81",
"~ 	c #978871",
"{ 	c #9E917C",
"] 	c #9C8C7B",
"^ 	c #907E71",
"/ 	c #9C8B73",
"( 	c #9F9177",
"_ 	c #A49277",
": 	c #948572",
"< 	c #453D39",
"[ 	c #3C3533",
"} 	c #665C53",
"| 	c #AF9C89",
"1 	c #B6A191",
"2 	c #AB9683",
"3 	c #B39E8A",
"4 	c #BBA493",
"5 	c #AE9A7C",
"6 	c #ACA08B",
"7 	c #B49A7E",
"8 	c #BBA286",
"9 	c #B6A184",
"0 	c #B5A38B",
"a 	c #B19782",
"b 	c #A9967C",
"c 	c #B59C82",
"d 	c #B1977B",
"e 	c #66594B",
"f 	c #BFA890",
"g 	c #C9AE98",
"h 	c #C9B092",
"i 	c #BDA98B",
"j 	c #BDA48A",
"k 	c #C4AB91",
"l 	c #BA9E89",
"m 	c #C1A68C",
"n 	c #C3A98E",
"o 	c #C6B095",
"p 	c #6A6158",
"q 	c #B99E84",
"r 	c #C9AD95",
"s 	c #C3AA8F",
"t 	c #C4AB92",
"u 	c #847366",
"v 	c #94806E",
"w 	c #907D6A",
"x 	c #998572",
"y 	c #9A8875",
"z 	c #8E796B",
"A 	c #988472",
"B 	c #9E8A79",
"C 	c #968372",
"D 	c #9B8775",
"E 	c #968271",
"F 	c #9C8877",
"G 	c #958471",
"H 	c #998776",
"I 	c #C5AE96",
"J 	c #C3A692",
"K 	c #C3A691",
"L 	c #695E52",
"M 	c #A7917E",
"N 	c #3A3333",
"O 	c #3C3535",
"P 	c #403A39",
"Q 	c #4C423F",
"R 	c #3F3638",
"S 	c #B99F85",
"T 	c #3B3434",
"U 	c #695C4C",
"V 	c #BFA78F",
"W 	c #A39281",
"X 	c #BCA28F",
"Y 	c #C4A892",
"Z 	c #BFA88F",
"` 	c #C0A68D",
" .	c #3F382F",
"..	c #C0A58D",
"+.	c #AD9A83",
"@.	c #CAB193",
"#.	c #BFA58D",
"$.	c #C1A88F",
"%.	c #433A33",
"&.	c #B9A58A",
"*.	c #A3927D",
"=.	c #4A3F34",
"-.	c #A18D75",
";.	c #C5AD93",
">.	c #B6A58D",
",.	c #B9A086",
"'.	c #C8B093",
").	c #C2A98F",
"!.	c #B39B80",
"~.	c #C2AA8F",
"{.	c #BBA388",
"].	c #C1A78E",
"^.	c #C9B194",
"/.	c #C2A88F",
"(.	c #413632",
"_.	c #A28F7A",
":.	c #BCA48A",
"<.	c #C2A88E",
"[.	c #C3A98F",
"}.	c #473F3B",
"|.	c #3A3434",
"1.	c #A68F7B",
"2.	c #9F8C7A",
"3.	c #907F6F",
"4.	c #7B6C5D",
"5.	c #7A6C5E",
"6.	c #7D6D61",
"7.	c #7C6D61",
"8.	c #7D6F64",
"9.	c #676360",
"0.	c #3E3838",
"a.	c #B4A48F",
"b.	c #847F79",
"c.	c #C4AB8F",
"d.	c #635953",
"e.	c #484242",
"f.	c #B59C7F",
"g.	c #635646",
"h.	c #BFA891",
"i.	c #C1A78D",
"j.	c #BBA387",
"k.	c #C1A78C",
"l.	c #C3AA8E",
"m.	c #BCA387",
"n.	c #BAA085",
"o.	c #C2A78D",
"p.	c #B69C7F",
"q.	c #C3AB92",
"r.	c #C2A78C",
"s.	c #63574A",
"t.	c #C2A990",
"u.	c #B59C81",
"v.	c #C1A68D",
"w.	c #3E352E",
"x.	c #56504D",
"y.	c #908276",
"z.	c #474241",
"A.	c #C3AA90",
"B.	c #9C886F",
"C.	c #B6A089",
"D.	c #8B847C",
"E.	c #62605E",
"F.	c #484344",
"G.	c #403B3B",
"H.	c #3E3939",
"I.	c #3F3839",
"J.	c #3F3939",
"K.	c #40393A",
"L.	c #403A3B",
"M.	c #413B3B",
"N.	c #423D3D",
"O.	c #C5AD94",
"P.	c #B0987F",
"Q.	c #B49D88",
"R.	c #B39E87",
"S.	c #AA947E",
"T.	c #AA947F",
"U.	c #B29D87",
"V.	c #A79480",
"W.	c #A5927E",
"X.	c #B19C8A",
"Y.	c #A99684",
"Z.	c #A59180",
"`.	c #AFA195",
" +	c #BAA48C",
".+	c #C4AB95",
"++	c #BCA48C",
"@+	c #AF9781",
"#+	c #B29C85",
"$+	c #B59E87",
"%+	c #AC947E",
"&+	c #A38D78",
"*+	c #A28E7A",
"=+	c #95816F",
"-+	c #93806E",
";+	c #9F8B7A",
">+	c #A28E7C",
",+	c #A69080",
"'+	c #B1A194",
")+	c #B19C87",
"!+	c #605754",
"~+	c #484141",
"{+	c #464140",
"]+	c #474140",
"^+	c #494443",
"/+	c #534F4C",
"(+	c #54504F",
"_+	c #53504D",
":+	c #4A4544",
"<+	c #443D3D",
"[+	c #484342",
"}+	c #413B3A",
"|+	c #423C3C",
"1+	c #504B4A",
"2+	c #5D5958",
"3+	c #605C5B",
"4+	c #3D3636",
"5+	c #C4A792",
"6+	c #B7A088",
"7+	c #BEA58B",
"8+	c #B1977C",
"9+	c #BBA28A",
"0+	c #41372D",
"a+	c #C9AF97",
"b+	c #C1A790",
"c+	c #B1987D",
"d+	c #C2A98E",
"e+	c #B89E84",
"f+	c #BAA286",
"g+	c #C8AD95",
"h+	c #C0A78D",
"i+	c #BEA68D",
"j+	c #B79F86",
"k+	c #BFA78E",
"l+	c #CAAF98",
"m+	c #C4A995",
"n+	c #897867",
"o+	c #B69D82",
"p+	c #6D5E55",
"q+	c #B0987E",
"r+	c #C9AF9A",
"s+	c #BEA68E",
"t+	c #C1A78F",
"u+	c #B59D85",
"v+	c #B1987E",
"w+	c #BCA48B",
"x+	c #C2AA91",
"y+	c #B89D89",
"z+	c #B9A187",
"A+	c #C2AB92",
"B+	c #B89F86",
"C+	c #B49B81",
"D+	c #BDA58D",
"E+	c #BDA68E",
"F+	c #B69F87",
"G+	c #BEA78F",
"H+	c #CAAF99",
"I+	c #B69E86",
"J+	c #B99F87",
"K+	c #5F554B",
"L+	c #B49E91",
"M+	c #353338",
"N+	c #7A6C5D",
"O+	c #837565",
"P+	c #877969",
"Q+	c #826F67",
"R+	c #88776F",
"S+	c #8C7D71",
"T+	c #897B6B",
"U+	c #877867",
"V+	c #84776B",
"W+	c #7D6E61",
"X+	c #77685B",
"Y+	c #41392F",
"  . + + @ # $ $ + % & % + * $ % = @ % % & & # % + % & @ % # # + % & & + % & + % % # @ - & # % # ;   ",
"> @ , ' ' ) ! ' ) ~ { ] ~ ' ^ ) / ~ ) ~ / ~ ) ~ ) ~ ( { / / / ~ / ] ~ ) ] ] ~ / / ) / _ / ~ ] : , < ",
"[ } ' | 1 2 3 4 5 6 7 8 9 0 a 2 9 9 b 7 0 7 c 8 9 b 9 0 9 9 9 b 7 9 d b 9 9 5 9 9 _ 5 0 9 9 9 2 ! @ ",
"[ e { 0 0 3 f g 7 7 h 8 i i 3 a j j 7 0 i 8 9 k 8 c i i 8 i i 7 l m c 7 j n 9 j i 7 9 o 0 8 i 2 ! + ",
"< p { 0 i q j r q 8 h 8 m n l c k k c j n l q n q q n n 8 j j q m n l d m m 7 m j c m r q 8 n 3 ! + ",
". p { i n 9 i r 8 q n s t u v w x y z A B v v C D E F G H I J c 8 n 8 q m n c m n a q r K n K 2 ! . ",
"; L ( 0 n 7 h h 8 q M N N O N N N N P N N N N N N N N N N N N N Q n q 7 m r 8 n m 7 q n n m n c ! + ",
"R } ( i n 8 h n 7 S N N N N N N N N N N N N N N N N N N N N N N N N T 7 m n 8 n m d 7 n m m n q ! # ",
"R U { 0 i 7 n r q V N N N N N N N N N N N N N N N N N N N N N N N N N N 8 m l m m c 8 n m j n 3 W + ",
"[ p ( i i 7 m h l X N N N k l l k K l j n 8 7 n m q K k m Y Z N N N N N ` m a j m 3 8 r K j K a ! + ",
". U ( i m 7 m K a X N N N m q c k K q m n l 7 n l q K r K k K q 8 N N N N m c j K c l k K 0 K 2 ! # ",
" .U ( i 8 7 m g l X N N N n 8 7 n m 7 m m 7 7 n m 7 m n m m m c m N N N N ..c j m 7 8 n n 8 n +.! # ",
" .e ] j j 7 f g l X N N N m q 7 n i 7 m m 7 7 n n 7 m n j m 8 7 n @.N N N #.7 m m 7 q n n 8 n 5 W + ",
". U _ n n 7 f i l f N N N n 8 q m n 7 m h 8 8 n i 7 m n m m n 7 7 n N N N $.7 m j 7 8 n n 8 n 5 { %.",
". e ( j n l k o q &.N N N k 0 q m m 7 m n 8 7 n 8 7 n m n n m 7 7 h N N N #.8 m m 7 8 n n j n 3 *.=.",
". U -.j m 8 k k q &.N N N ;.>.,.'.).!.` ~.{.].^./.8 n m m m n 8 m h N N N #.8 n m 7 8 h n 8 n +.*.=.",
"(.U _.m n 9 i o 9 :.N N N N N N N N N N N N N N N N m n m m m 7 m n N N N #.7 m n 7 m n n 8 n +.*.=.",
"(.U _.m k 0 f f 9 8 N N N N N N N N N N N N N N N N <.n m n n q m n N N N $.q m n 7 q n n m r c *.=.",
"R U -.m K j k o 7 8 [.}.N N N N N N N N N N N |.T N /.h n n n q m m N N N $.m n m 7 q n n i r a _.=.",
"R U / j K j f k 7 7 m f k k 0 1.2.3.4.5.6.7.8.9.0.N <.n m n n q m n N N N $.m n m 7 q n j 8 r 3 _.=.",
"R e / 8 m l f o i 7 h n K k a.b.0.N N N N N N N N N c.n m m n q 8 ).N N N ..q m n q 8 n m 8 K q _.=.",
"[ e -.m n c 0 r 7 i h n f k d.e.O N N N N N N N N N m n m m m f.N N N N N m 7 q n 7 q h m m j 5 ] + ",
"[ g.-.j n 9 i h 7 7 i n j h.N N N i.j.k.l.m.n.o.p.7 m h n N N N N N N N N N 7 m m 7 7 n n m m c _.& ",
"[ g.-.j i 9 i h 7 7 h n k q.N N N n q m n q c m m 7 m n r.N N N N N N N N N N m m 7 q n n m m c *.& ",
"[ s.-.m j a l k i 7 h n i t.N N N n q m n q 7 n m 7 m n m o.].u.{.N N N N N N N m q q n m 8 j +.*.& ",
"[ e _.m m l K n 7 7 h n i t.N N N m q 8 n 8 q n m 7 m h m m m 7 8 m q N N N N N v.7 q n m 8 i c *.& ",
"[ s.-.j m l k f 7 8 n n n q.N N N n q 8 n j 8 n m q m n m m n q 8 n 8 7 N N N N N 7 q n m 8 m q *.% ",
"[ g.-.j m 3 i k 7 8 n m j t.N N N n 7 8 n l q n 8 7 m n m m n 7 m n 8 7 m N N N N q q r n 8 j 3 2 & ",
"w.g.-.j n j m r 9 8 n n m ).x.T N N N N N N N N N N N ;.i.m m 7 8 r 8 q m ].N N N 7 q r n 8 n 3 2 & ",
"R e _ m n q 0 k 8 q r h m n y.z.N N N N N N N N N N N N N m n q 8 n j q m A.N N N 7 8 n m m k c *.& ",
". g.B.j n l r o 8 c m K K r C.D.E.F.G.H.I.J.K.L.M.M.N.T N O.r q 8 r q 7 m A.N N N 7 q n m m k 3 *.& ",
". g.B.8 n i k k q c K k k r j P.Q.R.S.T.U.V.W.X.Y.Z.`.0.N N n q 8 n q 7 m A.N N N 7 q n j j k q *.& ",
"R g.-.8 m q n o 8 8 K k  +.+++@+#+$+%+&+*+=+-+;+>+,+'+0.N N K q 8 n 8 c 8 ].N N N 7 q n m m n 7 *.& ",
"[ g.-.m n 7 8 o 8 8 )+!+~+{+]+^+/+(+_+:+<+[+}+|+1+2+3+4+N N n c 8 g 8 q 8 ].N N N q q n n m n c *.& ",
"[ g.-.8 j 7 i f q S N N N N N N N N N N N N N N N N N N N 5+m c 8 r l 7 m ].N N N 7 7 r m j n 3 *.& ",
"[ g.B.8 j c i k c 6+N N N N N N N N N N N N N N N N N N 7+k j c 8 n 8 7 m ].N N N 8+7 n m j i c *.& ",
"[ g.B.m m d 8 o l 9+N N N K q c m m q 8 m q 7 n m l K k m m m q 8 n q 7 8 ].N N N 7 q n j 8 n 3 *.& ",
"w.g.-.m n 7 i n c 9+N N N K 8 7 m n c 8 n 8 q m 8 l j K j K k a l n l 7 8 $.N N N q q n m 8 m c *.& ",
"[ g./ 8 n m m r q 9+N N N n 8 7 m n c j n 8 q m j c m k j K k c 8 n q 7 j.N N N N q q n m 8 m c *.% ",
"> g.B.8 m 7 n n q 9+N N N n 8 7 m n q 8 n 8 l n j c m K m m j q 8 n 8 7 N N N N ].7 q n m 8 j 3 *.% ",
"0+g.B.8 n 9 i i 8 9+N N N r q 7 m n q 8 n 8 q n m 3 f k m j n 7 8 r m.N N N N N [.7 q n m 8 m 3 2 + ",
"[ g.-.m n 9 i h 8 9+N N N K m 7 n n q 8 k 8 q k m q j k j j m q q a+N N N N N b+n q q n m 8 m c b + ",
"[ g.B.8 n 8 i o q 9+N N N N i.c+d+d+e+f+g+h+{.A.i+j+k+l+m+N N N N N N N N N n+m n 7 q n m 8 m q *.% ",
"[ g.B.q n 8 h o 9 o+N N N N N N N N N N N N N N N N N N N N N N N N N N N $.8 m n 7 7 n m j m 0 W % ",
"[ g.B.q n 7 n h l c p+N N N N N N N N N N N N N N N N N N N N N N N N q+j n q 8 n 7 7 n m 8 n 3 W % ",
"w.= ] 8 n 5 7 h 8 l K r+s+t+u+v+w+x+y+z+A+B+C+D+E+F+G+H+G+s+s+I+J+[.m 7 n j d 8 n 7 7 n m 8 m q { K+",
"R = ] 9 i 5 8 m l c K K 4 m l d j i q 8 j 3 c 0 i +.8 k j f m a q K 8 7 j j c 8 m d 2 n K 0 j +.! K+",
"[ @ ) 6 6 b | 0 3 2 L+4 L+4 3 b 6 0 b +.6 b _ c | 2 +.1 0 8 3 b 2 0 3 _.| | 2 +.4 2 2 3 3 0 1 2 ! s.",
"M+# p , , N+O+) P+Q+R+S+R+T+U+Q+U+T+U+U+U+Q+N+U+P+Q+O+T+U+T+T+O+V+S+P+, V+P+W+O+T+, X+N+N+X+N+p p %.",
"M+M+. %.. Y+%.%.(.(.; %.%.%.0+0+%.%.Y+%.%.0+0+Y+%.0+Y+%.Y+%.(.0+w.%.Y+. %.w.w.w.%.w.w.. %.%.%. .. > "};
