/* XPM */
static char * number_4_xpm[] = {
"50 50 163 2",
"  	c #363332",
". 	c #3F3935",
"+ 	c #4C4137",
"@ 	c #564B41",
"# 	c #4D4239",
"$ 	c #4C3F39",
"% 	c #52463A",
"& 	c #55493C",
"* 	c #504437",
"= 	c #594E43",
"- 	c #5F5145",
"; 	c #413638",
"> 	c #36312D",
", 	c #7F7464",
"' 	c #94897B",
") 	c #93846D",
"! 	c #9C8D81",
"~ 	c #978871",
"{ 	c #9E917C",
"] 	c #9C8C7B",
"^ 	c #907E71",
"/ 	c #9C8B73",
"( 	c #9F9177",
"_ 	c #A49277",
": 	c #948572",
"< 	c #453D39",
"[ 	c #3C3533",
"} 	c #665C53",
"| 	c #AF9C89",
"1 	c #B6A191",
"2 	c #AB9683",
"3 	c #B39E8A",
"4 	c #BBA493",
"5 	c #AE9A7C",
"6 	c #ACA08B",
"7 	c #B49A7E",
"8 	c #BBA286",
"9 	c #B6A184",
"0 	c #B5A38B",
"a 	c #B19782",
"b 	c #A9967C",
"c 	c #B59C82",
"d 	c #B1977B",
"e 	c #66594B",
"f 	c #BFA890",
"g 	c #C9AE98",
"h 	c #C9B092",
"i 	c #BDA98B",
"j 	c #BDA48A",
"k 	c #C4AB91",
"l 	c #BA9E89",
"m 	c #C1A68C",
"n 	c #C3A98E",
"o 	c #C6B095",
"p 	c #6A6158",
"q 	c #B99E84",
"r 	c #C9AD95",
"s 	c #BB9F83",
"t 	c #C6AB8C",
"u 	c #C6AC8C",
"v 	c #C6AC8D",
"w 	c #CCB095",
"x 	c #BDA386",
"y 	c #B89F81",
"z 	c #C4AB8F",
"A 	c #C7AF93",
"B 	c #BDA28B",
"C 	c #C3A98D",
"D 	c #CAAE95",
"E 	c #C9AF90",
"F 	c #BEA488",
"G 	c #C5AB8F",
"H 	c #C4A68F",
"I 	c #B79D81",
"J 	c #BDA385",
"K 	c #C5AB8D",
"L 	c #BDA486",
"M 	c #BCA185",
"N 	c #C4A98D",
"O 	c #C5AC90",
"P 	c #C3A691",
"Q 	c #695E52",
"R 	c #3A3333",
"S 	c #3F3638",
"T 	c #BA9E82",
"U 	c #C6AD91",
"V 	c #695C4C",
"W 	c #C5A989",
"X 	c #C4A98B",
"Y 	c #C7AE91",
"Z 	c #C0A88B",
"` 	c #BDA387",
" .	c #C4AA8F",
"..	c #B79F81",
"+.	c #B59A7C",
"@.	c #C2A68A",
"#.	c #B69B7D",
"$.	c #CAB191",
"%.	c #B79E7F",
"&.	c #BFA788",
"*.	c #C4AB90",
"=.	c #A39281",
"-.	c #BFA78B",
";.	c #C1A68A",
">.	c #C0A98E",
",.	c #C3A68F",
"'.	c #3F382F",
").	c #AD9A83",
"!.	c #BDA488",
"~.	c #433A33",
"{.	c #C3A88C",
"].	c #A3927D",
"^.	c #4A3F34",
"/.	c #A18D75",
"(.	c #BBA284",
"_.	c #C6AE92",
":.	c #413632",
"<.	c #A28F7A",
"[.	c #BDA587",
"}.	c #BEA38A",
"|.	c #695A4F",
"1.	c #C1A58A",
"2.	c #BDA388",
"3.	c #635646",
"4.	c #B59B7D",
"5.	c #3C3534",
"6.	c #C3A88D",
"7.	c #63574A",
"8.	c #BBA083",
"9.	c #C4AA8D",
"0.	c #3E352E",
"a.	c #C0A583",
"b.	c #CBB290",
"c.	c #9C886F",
"d.	c #BEA484",
"e.	c #BCA287",
"f.	c #C7AD8F",
"g.	c #BDA489",
"h.	c #BEA78A",
"i.	c #CAAE94",
"j.	c #BFA78E",
"k.	c #BEA687",
"l.	c #BB9E87",
"m.	c #B69C80",
"n.	c #41372D",
"o.	c #B49E88",
"p.	c #C5AB8E",
"q.	c #B59C81",
"r.	c #5F554B",
"s.	c #B49E91",
"t.	c #353338",
"u.	c #7A6C5D",
"v.	c #837565",
"w.	c #877969",
"x.	c #826F67",
"y.	c #88776F",
"z.	c #8C7D71",
"A.	c #897B6B",
"B.	c #877867",
"C.	c #84776B",
"D.	c #7D6E61",
"E.	c #77685B",
"F.	c #41392F",
"  . + + @ # $ $ + % & % + * $ % = @ % % & & # % + % & @ % # # + % & & + % & + % % # @ - & # % # ;   ",
"> @ , ' ' ) ! ' ) ~ { ] ~ ' ^ ) / ~ ) ~ / ~ ) ~ ) ~ ( { / / / ~ / ] ~ ) ] ] ~ / / ) / _ / ~ ] : , < ",
"[ } ' | 1 2 3 4 5 6 7 8 9 0 a 2 9 9 b 7 0 7 c 8 9 b 9 0 9 9 9 b 7 9 d b 9 9 5 9 9 _ 5 0 9 9 9 2 ! @ ",
"[ e { 0 0 3 f g 7 7 h 8 i i 3 a j j 7 0 i 8 9 k 8 c i i 8 i i 7 l m c 7 j n 9 j i 7 9 o 0 8 i 2 ! + ",
"< p { 0 i q j r q 8 h 8 m n l c k k c j n l q n q q n n 8 j j q m n l d m m 7 m j c m r q 8 n 3 ! + ",
". p { i n 9 i r 8 s t u v w x y z A B C D q q m m q m E F G H I J K L M N O c m n a q r P n P 2 ! . ",
"; Q ( 0 n 7 h h J R R R R R R R R R R R R L m n q 7 R R R R R R R R R R R R R n m 7 q n n m n c ! + ",
"S } ( i n 8 h n R R R R R R R R R R R R R R m n m T R R R R R R R R R R R R R U m d 7 n m m n q ! # ",
"S V { 0 i 7 n r R R R W X Y Z ` U  ...R R R 8 n m +.R R R @.@.#.J $.L %.&.R R *.m c 8 n m j n 3 =.+ ",
"[ p ( i i 7 m h R R R n j k l l k P l -.R R 7 n m T R R ;.P j c j r j l m R R >.m 3 8 r P j P a ! + ",
". V ( i m 7 m P R R R r m m q c k P q C R R 7 n l T R R ,.k P q 8 n m 7 P R R >.P c l k P 0 P 2 ! # ",
"'.V ( i 8 7 m g R R R P m n 8 7 n m 7 C R R 7 n m +.R R ;.m m c m h 7 7 j R R >.m 7 8 n n 8 n ).! # ",
"'.e ] j j 7 f g R R R n j m q 7 n i 7 C R R 7 n n +.R R !.m 8 7 n h 7 7 m R R *.m 7 q n n 8 n 5 =.+ ",
". V _ n n 7 f i R R R m j n 8 q m n 7 C R R 8 n i +.R R ;.m n 7 7 n m 7 m R R *.j 7 8 n n 8 n 5 { ~.",
". e ( j n l k o R R R n P k 0 q m m 7 C R R 7 n 8 +.R R {.n m 7 7 h 7 7 m R R *.m 7 8 n n j n 3 ].^.",
". V /.j m 8 k k R R R n k k 0 q h n 7 C R R m h m (.R R ;.m n 8 m h m 7 8 R R _.m 7 8 h n 8 n ).].^.",
":.V <.m n 9 i o R R R m f k 9 c m h 7 C R R q n m +.R R ;.m m 7 m n m 7 n R R *.n 7 m n n 8 n ).].^.",
":.V <.m k 0 f f R R R k k k 8 7 m n 7 C R R q n m T R R ;.n n q m n q 7 n R R *.n 7 q n n m r c ].^.",
"S V /.m P j k o R R R n g g i c n n 8 [.R R }.n m +.R R {.n n q m m m 7 m R R _.m 7 q n n i r a <.^.",
"S V / j P j f k R R R f k k 0 q n n 7 [.R R |.h m +.R R ;.n n q m n q 7 m R R _.m 7 q n j 8 r 3 <.^.",
"S e / 8 m l f o R R R n P k 0 q n n 7 M R R R n m 1.R R ;.m n q 8 n 8 7 m R R *.n q 8 n m 8 P q <.^.",
"[ e /.m n c 0 r R R R n f k q q n n 7 C R R R }.m T R R ;.m m 7 m n m 7 m R R 2.n 7 q h m m j 5 ] + ",
"[ 3./.j n 9 i h R R R n j f 9 c m m 8 C R R R R 4.5.R R {.n n 7 8 m 8 7 m R R *.m 7 7 n n m m c <.& ",
"[ 3./.j i 9 i h R R R n k k 9 7 n n q 6.R R R R R R R R ;.n n q m n 7 7 m R R *.m 7 q n n m m c ].& ",
"[ 7./.m j a l k R R R n i n 3 7 m n q m R R R R R R R R m m m 7 8 n 8 q m R R *.m q q n m 8 j ).].& ",
"[ e <.m m l P n R R R n i n 9 c m m q 8 n L 8.9.@.+.1.h m m m 7 8 m q q 8 R R *.m 7 q n m 8 i c ].& ",
"[ 7./.j m l k f R R R n n k i c m n q 8 n j 8 n m q m n m m n q 8 n 8 7 m R R *.m 7 q n m 8 m q ].% ",
"[ 3./.j m 3 i k R R R m j n 9 c m n 7 8 n l q n 8 7 m n m m n 7 m n 8 7 m R R *.n q q r n 8 j 3 2 & ",
"0.3./.j n j m r R R R n m n j 7 n h q 8 r j 8 n 8 q m k m m m 7 8 r 8 q m R R *.m 7 q r n 8 n 3 2 & ",
"S e _ m n q 0 k a.R R b.m n m 7 m n q m n 8 7 n j l m r m m n q 8 n j q m R R *.n 7 8 n m m k c ].& ",
". 3.c.j n l r o d.R R R P r j 7 m n q 8 r j l k m q m P m k r q 8 r q 7 m R R _.m 7 q n m m k 3 ].& ",
". 3.c.8 n i k k q R R R R r j 7 m n q q n j 8 r j q m k m n n q 8 n q 7 m R R _.m 7 q n j j k q ].& ",
"S 3./.8 m q n o 8 J R R R R K e.n n q q n q q r m l m n P k P q 8 n 8 c 8 R R *.n 7 q n m m n 7 ].& ",
"[ 3./.m n 7 8 o 8 8 f.R R R R R R R R R R R R R R R R R g.m n c 8 g 8 q 8 R R h.m q q n n m n c ].& ",
"[ 3./.8 j 7 i f q q r i.R R R R R R R R R R R R R R R R j.P m c 8 r l 7 m R R h.m 7 7 r m j n 3 ].& ",
"[ 3.c.8 j c i k c c j k n n k.` R R R R R R R R R R R R !.k j c 8 n 8 7 m R R *.m d 7 n m j i c ].& ",
"[ 3.c.m m d 8 o l q P P m P q c m m q 8 m q 7 n m l.R R ;.m m q 8 n q 7 8 R R h.n 7 q n j 8 n 3 ].& ",
"0.3./.m n 7 i n c q r P j P 8 7 m n c 8 n 8 q m 8 l.R R !.P k a l n l 7 8 R R h.j q q n m 8 m c ].& ",
"[ 3./ 8 n m m r q q r m m n 8 7 m n c j n 8 q m j m.R R !.P k c 8 n q 7 8 R R *.m q q n m 8 m c ].% ",
"> 3.c.8 m 7 n n q q r P m n 8 7 m n q 8 n 8 l n j m.R R ;.m j q 8 n 8 7 m R R *.m 7 q n m 8 j 3 ].% ",
"n.3.c.8 n 9 i i 8 q r P m r q 7 m n q 8 n 8 q n m o.R R ;.j n 7 8 r 8 c 8 R R h.n 7 q n m 8 m 3 2 + ",
"[ 3./.m n 9 i h 8 q m r m P m 7 n n q 8 k 8 q k m T R R R F @.s 8.i.L %.p.R R *.n q q n m 8 m c b + ",
"[ 3.c.8 n 8 i o q q n n n n m d n n q 8 r m 8 n j q.R R R R R R R R R R R R R  .n 7 q n m 8 m q ].% ",
"[ 3.c.q n 8 h o 9 7 n P m n m 7 m n q l n m 8 n m a 2.R R R R R R R R R R R R m n 7 7 n m j m 0 =.% ",
"[ 3.c.q n 7 n h l c P P m r q c m n c q n 8 q r m c j P j f k l 8 h 8 d j n q 8 n 7 7 n m 8 n 3 =.% ",
"0.= ] 8 n 5 7 h 8 l P g j m c d j k l 8 k q 7 j j c j r j j j c q n m 7 n j d 8 n 7 7 n m 8 m q { r.",
"S = ] 9 i 5 8 m l c P P 4 m l d j i q 8 j 3 c 0 i ).8 k j f m a q P 8 7 j j c 8 m d 2 n P 0 j ).! r.",
"[ @ ) 6 6 b | 0 3 2 s.4 s.4 3 b 6 0 b ).6 b _ c | 2 ).1 0 8 3 b 2 0 3 <.| | 2 ).4 2 2 3 3 0 1 2 ! 7.",
"t.# p , , u.v.) w.x.y.z.y.A.B.x.B.A.B.B.B.x.u.B.w.x.v.A.B.A.A.v.C.z.w., C.w.D.v.A., E.u.u.E.u.p p ~.",
"t.t.. ~.. F.~.~.:.:.; ~.~.~.n.n.~.~.F.~.~.n.n.F.~.n.F.~.F.~.:.n.0.~.F.. ~.0.0.0.~.0.0.. ~.~.~.'.. > "};
