/* XPM */
static char * dead_2_xpm[] = {
"50 50 173 2",
"  	c None",
". 	c #050303",
"+ 	c #0C0505",
"@ 	c #3B151A",
"# 	c #66242F",
"$ 	c #311215",
"% 	c #2B0D0D",
"& 	c #642432",
"* 	c #481B24",
"= 	c #541F26",
"- 	c #561D2C",
"; 	c #671935",
"> 	c #5B132A",
", 	c #483029",
"' 	c #3C2420",
") 	c #451B1E",
"! 	c #792139",
"~ 	c #932344",
"{ 	c #A1234E",
"] 	c #751A3B",
"^ 	c #926E56",
"/ 	c #95725A",
"( 	c #5B4535",
"_ 	c #291212",
": 	c #961F46",
"< 	c #B92C58",
"[ 	c #C4305F",
"} 	c #BE8E70",
"| 	c #D9AB86",
"1 	c #AD8566",
"2 	c #513D30",
"3 	c #341A22",
"4 	c #4B3F41",
"5 	c #513D40",
"6 	c #C29475",
"7 	c #F0B78A",
"8 	c #E8B288",
"9 	c #85654E",
"0 	c #1F291E",
"a 	c #055639",
"b 	c #025348",
"c 	c #241917",
"d 	c #282218",
"e 	c #01351C",
"f 	c #033B22",
"g 	c #C89A77",
"h 	c #6A5140",
"i 	c #1B120D",
"j 	c #755944",
"k 	c #E2B892",
"l 	c #BC9878",
"m 	c #2C1A25",
"n 	c #997660",
"o 	c #815A51",
"p 	c #542935",
"q 	c #542C3A",
"r 	c #44222C",
"s 	c #4C2933",
"t 	c #693442",
"u 	c #261217",
"v 	c #0B060A",
"w 	c #2C1424",
"x 	c #5C2E3D",
"y 	c #4C2634",
"z 	c #24131B",
"A 	c #130B0C",
"B 	c #0E080C",
"C 	c #14070E",
"D 	c #633442",
"E 	c #2A141C",
"F 	c #3A1E2B",
"G 	c #31151E",
"H 	c #1B0C12",
"I 	c #251623",
"J 	c #401F2B",
"K 	c #1C121D",
"L 	c #331D2C",
"M 	c #150E19",
"N 	c #3C2131",
"O 	c #602D3A",
"P 	c #4E293A",
"Q 	c #1B0F1A",
"R 	c #2D1A29",
"S 	c #1A0A0E",
"T 	c #743746",
"U 	c #442433",
"V 	c #230D0B",
"W 	c #28160E",
"X 	c #542124",
"Y 	c #964338",
"Z 	c #974943",
"` 	c #A35F46",
" .	c #A56C46",
"..	c #8D5D3A",
"+.	c #432518",
"@.	c #5E313E",
"#.	c #783335",
"$.	c #CD5B58",
"%.	c #DC6F62",
"&.	c #E58A65",
"*.	c #EC9F66",
"=.	c #D08D58",
"-.	c #6F392A",
";.	c #582327",
">.	c #AC744A",
",.	c #9E6644",
"'.	c #4F3527",
").	c #2A0C13",
"!.	c #3C212F",
"~.	c #363321",
"{.	c #014B2C",
"].	c #266D3E",
"^.	c #6D463A",
"/.	c #00522A",
"(.	c #088449",
"_.	c #327346",
":.	c #55543F",
"<.	c #4C3734",
"[.	c #13111A",
"}.	c #391C24",
"|.	c #00894C",
"1.	c #0B784A",
"2.	c #174F41",
"3.	c #0C2F35",
"4.	c #008446",
"5.	c #007D4D",
"6.	c #532935",
"7.	c #00834B",
"8.	c #025C4C",
"9.	c #103337",
"0.	c #01624C",
"a.	c #0E393A",
"b.	c #008D50",
"c.	c #006C4D",
"d.	c #034A4C",
"e.	c #11252A",
"f.	c #10342B",
"g.	c #02271D",
"h.	c #006C3C",
"i.	c #0F0F19",
"j.	c #150B13",
"k.	c #053D3D",
"l.	c #0A1820",
"m.	c #0C212B",
"n.	c #005C51",
"o.	c #01743E",
"p.	c #016842",
"q.	c #014D50",
"r.	c #005650",
"s.	c #007740",
"t.	c #021F0E",
"u.	c #00724C",
"v.	c #104924",
"w.	c #050D05",
"x.	c #1F411F",
"y.	c #004C23",
"z.	c #00421F",
"A.	c #321D18",
"B.	c #5F241E",
"C.	c #57291C",
"D.	c #007B41",
"E.	c #006834",
"F.	c #003611",
"G.	c #36230D",
"H.	c #492918",
"I.	c #A9513C",
"J.	c #9E4934",
"K.	c #3B160C",
"L.	c #814228",
"M.	c #5E3424",
"N.	c #7B362A",
"O.	c #A84838",
"P.	c #89362C",
"                                                                                                    ",
"                                                                                                    ",
"                                                                                                    ",
"                                      . . + @ #                                                     ",
"                                    $ $ $ % @ & &                                                   ",
"                                    * * = = = - ; >                                                 ",
"                                    , ' ) = # ! ~ { ]                                               ",
"                                    ^ / ( _ - ! : < [                                               ",
"                                    } | 1 2 3 4 5 ! <                                               ",
"                                    6 7 8 9 0 a b c                                                 ",
"                                    } 7 7 ^ d e f                                                   ",
"                                    ^ g 8 6 h i .                                                   ",
"                                    2 j g k l 2 +                                                   ",
"                                          6 | 9 m 3                                                 ",
"                                            n o p q r                                               ",
"                                            c s t t p u                                             ",
"                                          v . w x t y z                                             ",
"                                        A B v C r D r E 3                                           ",
"                                        B B . B F y G 3 p                                           ",
"                                        v v B z F m E F p p                                         ",
"                                        v + H m I w y J F q J                                       ",
"                                        v . A K 3 p x L z y p 3                                     ",
"                                          + E r p D y K M N x p u                                   ",
"                                          G O t O P F M Q R y J S                                   ",
"                                            T t q F M B C M z S .                                   ",
"                                          3 p U R M v B M E 3 z +                                   ",
"                                        . C H C v . B K R y O x 3                                   ",
"                                        + V _ W _ W M I L U 5 t q                                   ",
"                                        X Y Z `  ...+.K R U @.D D                                   ",
"                                        #.$.%.&.*.=.-.M R U q @.D                                   ",
"                                        ;.Z Z ` >.,.'.M R N p @.D J                                 ",
"                                          z ).> ; * Q Q m !.y x 5 r S                               ",
"                                            ~.] : ; w K R N U q D r H                               ",
"                                          {.].^.~ ] w M I R N q D y u                               ",
"                                          /.(._.:.<.I [.I R N P D O }.                              ",
"                                          /.(.|.1.2.3.[.K R N U 5 t r                               ",
"                                          /.4.|.5.b 3.M z w F U D t 6.                              ",
"                                          /.7.|.5.8.9.M Q I L N p t 6.                              ",
"                                          /.(.|.5.0.a.M K I L L J p 3 A                             ",
"                                          /.4.b.5.c.d.M Q I m I E e.f.g.                            ",
"                                            h.|.7.5.a i.j.K K e.k.b 0.{.                            ",
"                                            /.7.7.5.a l.m.3.k.b n.c.|.h.e                           ",
"                                            e o.7.5.p.d.d.q.r.8.c.5.b.s.f                           ",
"                                            t.a 7.7.7.p.0.0.0.u.7.|.s.v.                            ",
"                                            w.e o.7.7.7.5.5.4.|.b.o.x.+.                            ",
"                                            + w.y.o.7.|.|.|.4.4.o.z.A.B.                            ",
"                                            C.V .   h.s.D.s.E.z.F.G.H.C.                            ",
"                                        -.I.J.B.V     z././.    K.L.L.M.                            ",
"                                        N.O.O.P.B.              N.I.J.N.                            ",
"                                                                                                    "};
