/* XPM */
static char * dead_9_xpm[] = {
"50 50 160 2",
"  	c None",
". 	c #28171A",
"+ 	c #1A0C12",
"@ 	c #341B23",
"# 	c #43222C",
"$ 	c #2B151B",
"% 	c #3A1D24",
"& 	c #311817",
"* 	c #210E12",
"= 	c #442330",
"- 	c #4C2632",
"; 	c #4A252F",
"> 	c #150A0E",
", 	c #0D0709",
"' 	c #2B1B1D",
") 	c #3B2222",
"! 	c #251315",
"~ 	c #331B1D",
"{ 	c #522A35",
"] 	c #572C38",
"^ 	c #361D2A",
"/ 	c #37261E",
"( 	c #6C4935",
"_ 	c #895A37",
": 	c #925F3A",
"< 	c #52322C",
"[ 	c #59303B",
"} 	c #592F3A",
"| 	c #3D202B",
"1 	c #45171D",
"2 	c #531425",
"3 	c #771934",
"4 	c #A4274D",
"5 	c #BB315A",
"6 	c #902B49",
"7 	c #502731",
"8 	c #481523",
"9 	c #4E3128",
"0 	c #A87247",
"a 	c #D88A59",
"b 	c #BB734A",
"c 	c #66392E",
"d 	c #571A28",
"e 	c #8D1C3F",
"f 	c #A31E48",
"g 	c #6F3948",
"h 	c #35333A",
"i 	c #162828",
"j 	c #391F2B",
"k 	c #2B1A25",
"l 	c #563C2B",
"m 	c #C87852",
"n 	c #EC9A62",
"o 	c #724031",
"p 	c #482B29",
"q 	c #3A1016",
"r 	c #4D1A20",
"s 	c #691830",
"t 	c #7E2741",
"u 	c #514048",
"v 	c #294144",
"w 	c #211815",
"x 	c #362129",
"y 	c #272A29",
"z 	c #1F362F",
"A 	c #574D39",
"B 	c #C28454",
"C 	c #E68D60",
"D 	c #BC6B4E",
"E 	c #362D2C",
"F 	c #36332F",
"G 	c #3D1119",
"H 	c #332E32",
"I 	c #243233",
"J 	c #483429",
"K 	c #76493C",
"L 	c #805040",
"M 	c #292427",
"N 	c #2E252A",
"O 	c #38363F",
"P 	c #526A64",
"Q 	c #4F756D",
"R 	c #717065",
"S 	c #D6765B",
"T 	c #AA594A",
"U 	c #58372F",
"V 	c #1D4638",
"W 	c #145241",
"X 	c #112B22",
"Y 	c #031D15",
"Z 	c #2A0C11",
"` 	c #321217",
" .	c #3B1D1C",
"..	c #38261F",
"+.	c #352421",
"@.	c #7A5743",
"#.	c #BB7D61",
"$.	c #7D5845",
"%.	c #47494D",
"&.	c #656669",
"*.	c #6F7174",
"=.	c #56585D",
"-.	c #3B3B43",
";.	c #6C757C",
">.	c #698985",
",.	c #74797A",
"'.	c #AF6D58",
").	c #C36556",
"!.	c #9C4C47",
"~.	c #164A3E",
"{.	c #025B4C",
"].	c #015144",
"^.	c #00493C",
"/.	c #004035",
"(.	c #170709",
"_.	c #5E4434",
":.	c #674A36",
"<.	c #AE795D",
"[.	c #9B6750",
"}.	c #694C45",
"|.	c #464A50",
"1.	c #231D22",
"2.	c #272129",
"3.	c #57575B",
"4.	c #888E95",
"5.	c #A0A5AE",
"6.	c #8D95A4",
"7.	c #929CA2",
"8.	c #89979F",
"9.	c #5E6F71",
"0.	c #514C46",
"a.	c #82423B",
"b.	c #823F3C",
"c.	c #6B3432",
"d.	c #10342E",
"e.	c #0A4B43",
"f.	c #085449",
"g.	c #00544B",
"h.	c #004F46",
"i.	c #00433A",
"j.	c #003E35",
"k.	c #00362E",
"l.	c #050102",
"m.	c #856047",
"n.	c #9F7355",
"o.	c #433A3B",
"p.	c #666870",
"q.	c #787B84",
"r.	c #565862",
"s.	c #585B68",
"t.	c #969B9D",
"u.	c #AAB0BB",
"v.	c #A2AAB5",
"w.	c #80888F",
"x.	c #4C555C",
"y.	c #1C1113",
"z.	c #102020",
"A.	c #143B37",
"B.	c #005F50",
"C.	c #002823",
"                                                                                                    ",
"                                                                                                    ",
"                                                                                                    ",
"                                                                                                    ",
"                                                                                                    ",
"                                                                                                    ",
"                                                                                                    ",
"                                                                                                    ",
"                                                                                                    ",
"                                                                                                    ",
"                                                                                                    ",
"                                                                                                    ",
"                                                                                                    ",
"                                                                                                    ",
"                                                                                                    ",
"                                                                                                    ",
"                                                                                                    ",
"                                                                                                    ",
"                                                                                                    ",
"                                                                                                    ",
"                                                                                                    ",
"                                                                                                    ",
"                                                                                                    ",
"                                                                                                    ",
"                                                                                                    ",
"                                                                                                    ",
"                                                                                                    ",
"                                                                                                    ",
"                                                                                                    ",
"                                                                                                    ",
"                                                                                                    ",
"                                                                                                    ",
"                                                                                                    ",
"                                                                                                    ",
"                                                                                                    ",
"                                                                                                    ",
"                                                                                                    ",
"                                                                                                    ",
"                                                                                                    ",
"                                                                . + @ # @ $                         ",
"                                                            . % & * @ = - ; #                       ",
"                                                        > , ' ) ' ! ~ # { ] { =                     ",
"                                    ' ~ @ % % % % % ^ @ $ > / ( _ : _ < { [ } { |                   ",
"      1 2 3 4 5 6               | # # # ; - 7 7 - ; - 8 @ > 9 0 a a b c { [ } { #                   ",
"    1 d 3 e f 4 g h i       $ ; 7 7 - # j ; 7 - - - = | k > l m n n m o p { { - j +                 ",
"  q r d s 3 e t u v i w     ~ ; 7 { - 8 @ k ^ j j j x k y z A B n C D c E F E x ' ,                 ",
"  G 1 1 8 2 d d H I J K L J ' % j # ; 8 j M N k k k k O P Q R B a S T U V W W z X Y                 ",
"  Z q `  .% ..~ ' +.@.#.#.$.F k + $ k x %.&.*.=.h k -.;.>.>.,.'.).).!.< ~.{.{.{.].^./.              ",
"  , (.* . ' _.:.p / $.<.[.}.%.|.1.2.O -.3.4.5.6.;.=.,.7.8.9.0.K a.b.c./ d.e.f.{.{.{.g.h.h.i.j.k.    ",
"  l.l.+ ! & m.n.:./ :.@.U o.p.q.h h r.s.p.t.u.v.6.w.t.v.4.x.M ~  . .$ y.z.A.A.e.B.B.{.g.].].].i.C.  "};
