/* XPM */
static char * dead_7_xpm[] = {
"50 50 150 2",
"  	c None",
". 	c #010101",
"+ 	c #1D1115",
"@ 	c #4F1D20",
"# 	c #150510",
"$ 	c #13050A",
"% 	c #0B0505",
"& 	c #351818",
"* 	c #320C0D",
"= 	c #BA155F",
"- 	c #BB1E6E",
"; 	c #3A2B23",
"> 	c #7D5A4B",
", 	c #240F12",
"' 	c #2B0506",
") 	c #8E1F32",
"! 	c #D03171",
"~ 	c #6D0D49",
"{ 	c #410326",
"] 	c #D59C7C",
"^ 	c #F3BA9A",
"/ 	c #392A26",
"( 	c #541D28",
"_ 	c #C43F61",
": 	c #32151B",
"< 	c #36061E",
"[ 	c #F22488",
"} 	c #5E453A",
"| 	c #E8A986",
"1 	c #6C5144",
"2 	c #231618",
"3 	c #271825",
"4 	c #520620",
"5 	c #E72D6E",
"6 	c #FF387B",
"7 	c #6B1933",
"8 	c #E5A37F",
"9 	c #B58870",
"0 	c #0C0614",
"a 	c #AC385F",
"b 	c #6B253E",
"c 	c #C09172",
"d 	c #FFBB8F",
"e 	c #FFC89B",
"f 	c #C58C76",
"g 	c #140B12",
"h 	c #0D1B27",
"i 	c #0A202B",
"j 	c #473529",
"k 	c #FDB68C",
"l 	c #FFC299",
"m 	c #B9876E",
"n 	c #05060A",
"o 	c #FFBC91",
"p 	c #0C0A0C",
"q 	c #905E4B",
"r 	c #FFA685",
"s 	c #E58267",
"t 	c #1E121B",
"u 	c #492533",
"v 	c #150707",
"w 	c #9F5950",
"x 	c #F08F76",
"y 	c #753C39",
"z 	c #452432",
"A 	c #5C2D3C",
"B 	c #2A151D",
"C 	c #302620",
"D 	c #AD7E6B",
"E 	c #2E1A25",
"F 	c #532B39",
"G 	c #4F2839",
"H 	c #130A0E",
"I 	c #B3A58D",
"J 	c #C5AA94",
"K 	c #0A060A",
"L 	c #391C25",
"M 	c #24141C",
"N 	c #3D212C",
"O 	c #43232C",
"P 	c #393B33",
"Q 	c #6F6D5E",
"R 	c #0F0A10",
"S 	c #331D29",
"T 	c #351724",
"U 	c #542B37",
"V 	c #4E2834",
"W 	c #241420",
"X 	c #5E313D",
"Y 	c #190B0F",
"Z 	c #3A1D29",
"` 	c #3D2331",
" .	c #16130E",
"..	c #61323D",
"+.	c #2C2824",
"@.	c #331B24",
"#.	c #653442",
"$.	c #99664A",
"%.	c #E79B5A",
"&.	c #D58059",
"*.	c #A56B46",
"=.	c #FFB467",
"-.	c #F0A362",
";.	c #462928",
">.	c #6A323D",
",.	c #7D5537",
"'.	c #FEAA63",
").	c #0B1B19",
"!.	c #F9955C",
"~.	c #A55043",
"{.	c #0A3A34",
"].	c #004F3F",
"^.	c #034435",
"/.	c #01120C",
"(.	c #2A1A1F",
"_.	c #170F18",
":.	c #627A72",
"<.	c #7BC2B9",
"[.	c #AC9B79",
"}.	c #F8865C",
"|.	c #8B4E3C",
"1.	c #005F56",
"2.	c #006354",
"3.	c #000905",
"4.	c #8E9D90",
"5.	c #3D403A",
"6.	c #141017",
"7.	c #BBC8BE",
"8.	c #E1F6F3",
"9.	c #80594B",
"0.	c #E6765B",
"a.	c #D06A5C",
"b.	c #873C3F",
"c.	c #033532",
"d.	c #005444",
"e.	c #00594E",
"f.	c #00615B",
"g.	c #CED7E5",
"h.	c #A1AAB7",
"i.	c #6E7382",
"j.	c #424149",
"k.	c #D4E6E9",
"l.	c #C7D2DD",
"m.	c #5F6474",
"n.	c #014A45",
"o.	c #004640",
"p.	c #00352F",
"q.	c #002D29",
"r.	c #001A17",
"s.	c #000B09",
"                                                                                                    ",
"                                                                                                    ",
"                                                                                                    ",
"                                                                                                    ",
"                                                                                                    ",
"                                                                                                    ",
"                                                                                                    ",
"                                                                                                    ",
"                                                                                                    ",
"                                                                                                    ",
"                                                                                                    ",
"                                                                                                    ",
"                                                                                                    ",
"                                                                                                    ",
"                                                                                                    ",
"                                                                                                    ",
"                                                                                                    ",
"                                                                                                    ",
"                                                                                                    ",
"                                                                                                    ",
"                                                                                                    ",
"                                                                                                    ",
"                                                                                                    ",
"                        . . . . .                                                                   ",
"                    . . . . . . . .                                                                 ",
"                  . . . . . . + @ # $                                                               ",
"                . . % . . $ & & * = -                                                               ",
"                . . % ; > & , ' ) ! ~ {                                                             ",
"                . . % ] ^ / . ( _ : < [                                                             ",
"                . . } | | 1 $ 2 3 4 5 6 7                                                           ",
"                  ; ] | 8 | 9 } 0 ( a b                                                             ",
"                  c | d d d e f g h i                                                               ",
"                    j k d k l m . n                                                                 ",
"                    % 9 o k o > n p                                                                 ",
"                        q r s @ t u @ 0                                                             ",
"                        v w x y g z A z B                                                           ",
"                          C ^ D . E F G u H . .                                                     ",
"                          2 I J K t z F L . M N % % L O +                                           ",
"                          n P Q 0 R S G T , U B . B U V , . % p                                     ",
"                          n n n . n W z z X M . Y N z z Z S O Z Y                                   ",
"                          p p n n . R ` G G $ . L Z  .p g u ..A O +                                 ",
"                          p p p . . R +.z G M K S @. .% % @.U X #.L .                               ",
"                            W W . g S E ` z z M 0 $.%.%.&./ u ....U + . .                           ",
"                            E Z p R t M S ` u W . *.=.=.-.;.z >.A ..@.. .                           ",
"                            3 z E R n + 3 @.C + . ,.'.'.&.E O U O N Y . .                           ",
"                            K W T E 3 g W S g . ).Q '.!.~.M {.].^./.. . .                           ",
"                             .Y (.B W _.M # p :.<.[.!.}.|.@.{.1.2.^./.3./.                          ",
"                                4.5.. 6.% +.7.8.:.9.0.a.b.T c.d.e.f.2.d.d.]./.                      ",
"                                g.h.i.3 j.k.l.m.6.+ : , g p ).{.n.e.1.f.f.f.o.p.c.q.r..             ",
"                                                                                      s.            "};
