/* XPM */
static char * dead_3_xpm[] = {
"50 50 178 2",
"  	c None",
". 	c #020101",
"+ 	c #190609",
"@ 	c #311214",
"# 	c #250C0B",
"$ 	c #16070C",
"% 	c #341719",
"& 	c #69272C",
"* 	c #4C1D23",
"= 	c #6B2531",
"- 	c #42151C",
"; 	c #431926",
"> 	c #2E050D",
", 	c #38060F",
"' 	c #70213A",
") 	c #7A1A38",
"! 	c #4F0D2A",
"~ 	c #6F5342",
"{ 	c #8B6751",
"] 	c #291C1B",
"^ 	c #221314",
"/ 	c #541B29",
"( 	c #9B214A",
"_ 	c #A61E54",
": 	c #931F50",
"< 	c #C89578",
"[ 	c #E6A684",
"} 	c #D19A7C",
"| 	c #862848",
"1 	c #D5A080",
"2 	c #C28A6D",
"3 	c #775748",
"4 	c #0E1419",
"5 	c #2E3843",
"6 	c #3E3644",
"7 	c #ECAB89",
"8 	c #1C120F",
"9 	c #070D10",
"0 	c #132A2E",
"a 	c #1C2C33",
"b 	c #F5B390",
"c 	c #C38E75",
"d 	c #4A352C",
"e 	c #9C7560",
"f 	c #B8846A",
"g 	c #ECB290",
"h 	c #3D2A21",
"i 	c #A97B63",
"j 	c #835B47",
"k 	c #A4775B",
"l 	c #613E38",
"m 	c #24131C",
"n 	c #150D14",
"o 	c #5C3337",
"p 	c #5E3240",
"q 	c #4B2936",
"r 	c #4D2A38",
"s 	c #341C25",
"t 	c #0C060B",
"u 	c #5A2E3C",
"v 	c #552D3A",
"w 	c #3D212D",
"x 	c #432533",
"y 	c #381D29",
"z 	c #160E18",
"A 	c #45232E",
"B 	c #5C313E",
"C 	c #291524",
"D 	c #180D15",
"E 	c #522937",
"F 	c #1C111C",
"G 	c #492634",
"H 	c #1A0E19",
"I 	c #241523",
"J 	c #2A1925",
"K 	c #2C1A29",
"L 	c #3D2231",
"M 	c #0D0C12",
"N 	c #140A0B",
"O 	c #0C0B0D",
"P 	c #1C1320",
"Q 	c #271825",
"R 	c #5B2D40",
"S 	c #460E1D",
"T 	c #623441",
"U 	c #2C171D",
"V 	c #661526",
"W 	c #BA2144",
"X 	c #A01F4A",
"Y 	c #411333",
"Z 	c #693747",
"` 	c #9C1E46",
" .	c #7E1B4B",
"..	c #45163B",
"+.	c #8D203C",
"@.	c #6A1B4A",
"#.	c #022614",
"$.	c #175C42",
"%.	c #205F46",
"&.	c #561944",
"*.	c #004A28",
"=.	c #008250",
"-.	c #007950",
";.	c #082A2C",
">.	c #362137",
",.	c #002C14",
"'.	c #006334",
").	c #008B4F",
"!.	c #01754E",
"~.	c #064946",
"{.	c #142E36",
"].	c #351D2C",
"^.	c #006B3B",
"/.	c #01564F",
"(.	c #0A343B",
"_.	c #17353A",
":.	c #391824",
"<.	c #005A55",
"[.	c #073E42",
"}.	c #223443",
"|.	c #131D24",
"1.	c #008A53",
"2.	c #006253",
"3.	c #13222A",
"4.	c #153B44",
"5.	c #0E2A34",
"6.	c #00220C",
"7.	c #03522C",
"8.	c #0D5F39",
"9.	c #03544A",
"0.	c #050A0A",
"a.	c #64332D",
"b.	c #1B1816",
"c.	c #885B3A",
"d.	c #85613E",
"e.	c #444839",
"f.	c #0D1B20",
"g.	c #022021",
"h.	c #3B281D",
"i.	c #704C2F",
"j.	c #AA7046",
"k.	c #DC8D55",
"l.	c #0D0205",
"m.	c #04474A",
"n.	c #005C5A",
"o.	c #023A3B",
"p.	c #B0794D",
"q.	c #C88855",
"r.	c #DE825A",
"s.	c #874C35",
"t.	c #0F342E",
"u.	c #043534",
"v.	c #015654",
"w.	c #024646",
"x.	c #071619",
"y.	c #AA6748",
"z.	c #C27450",
"A.	c #B8634C",
"B.	c #025658",
"C.	c #2D1B14",
"D.	c #4B2A26",
"E.	c #9D5449",
"F.	c #984744",
"G.	c #BB5D51",
"H.	c #B15D4F",
"I.	c #00342E",
"J.	c #975B3D",
"K.	c #5C2C2C",
"L.	c #094335",
"M.	c #764735",
"N.	c #E3A577",
"O.	c #99674A",
"P.	c #512322",
"Q.	c #913A30",
"R.	c #793329",
"S.	c #A85946",
"T.	c #9B4C3D",
"U.	c #62261E",
"                                                                                                    ",
"                                                                                                    ",
"                                                                                                    ",
"                                                                                                    ",
"                                                                                                    ",
"                                  . . +                                                             ",
"                              @ + # $ $ @ %                                                         ",
"                            & & * = - # ; ; .                                                       ",
"                            > , - = * ; ' ) !                                                       ",
"                            ~ { ~ ] ^ / ( _ :                                                       ",
"                            < [ } ~ $ % | | |                                                       ",
"                            1 [ 2 3 ^ 4 5 6 ;                                                       ",
"                            } 7 } 3 8 9 0 a                                                         ",
"                            < [ b c d . 9 9                                                         ",
"                            e f 2 g f h .                                                           ",
"                                { i [ i ] . . .                                                     ",
"                                  j k c l % ^ m n                                                   ",
"                                      ^ o p q r s t                                                 ",
"                                      t m u v w x y z                                               ",
"                                      n n A B s C q ;                                               ",
"                                      n D s u E F s p ; m                                           ",
"                                      n n D y v y z G u y ]                                         ",
"                                      F F z m q q m m v v A                                         ",
"                                      ^ H I J G G K z s E x                                         ",
"                                      m F s E u L J n M N O                                         ",
"                                      D z ; p E w I z n m y A                                       ",
"                                        D A u x K I z I L v p q                                     ",
"                                          y G s I I P Q x v R G                                     ",
"                                            m $ t n F Q x R B A .                                   ",
"                                            # S ; H F Q G v T v U                                   ",
"                                            V W X Y H C x R B Z v                                   ",
"                                            ) `  ...F K x R B T v                                   ",
"                                          V +. .@...P K x B B B v J                                 ",
"                                          & | @.@...P K L B B B v U                                 ",
"                                        #.$.%.U &...P Q w v B B R h                                 ",
"                                        *.=.-.;.>.>.4 P w q p B p q ^                               ",
"                                      ,.'.).!.~.{.a 4 F ].q B B p B s                               ",
"                                      ,.^.).-./.(._.4 z K L u B p p :.                              ",
"                                      ,.^.).-.<.[.}.|.n Q ].G R p p s                               ",
"                                      ,.^.1.!.2.[.}.3.O Q K ].x p v U                               ",
"                                      ,.^.1.!.2.~.4.5.M I K K L L m                                 ",
"                                      6.7.8.7.9.~.4.{.M F Q K Q M 9 0.                              ",
"                                      a.b.a.c.d.e.~._.4 z I F t f.[.g.                              ",
"                                    h.j i.j.k.k.j ~.[.f.l.l.9 ;.m.n.o.                              ",
"                                    h.c.p.q.k.r.s.t.9.u.;.5.(.m.v.n.w.x.                            ",
"                                    h y.y.z.r.A.d 9.<.v.B.B.B.<.2.v._.C.                            ",
"                                    D.E.F.G.H.a.~.2.9.v.v.v././.w.I.J.s.#                           ",
"                                      K.F.F.K.a.e.L.I.I.I.u.I.I.x.M.N.O.C.                          ",
"                                        A P.Q.Q.R.                S.A.T.U.                          ",
"                                                                                                    "};
