/* XPM */
static char * dead_5_xpm[] = {
"50 50 162 2",
"  	c None",
". 	c #040405",
"+ 	c #0D0407",
"@ 	c #1B0A0A",
"# 	c #2A0F10",
"$ 	c #511A23",
"% 	c #47181F",
"& 	c #240E0E",
"* 	c #120807",
"= 	c #5C212C",
"- 	c #482525",
"; 	c #5D1934",
"> 	c #2A141C",
", 	c #321722",
"' 	c #491725",
") 	c #230C13",
"! 	c #291A18",
"~ 	c #311B1B",
"{ 	c #31141C",
"] 	c #782435",
"^ 	c #73233A",
"/ 	c #871C4B",
"( 	c #781C42",
"_ 	c #765847",
": 	c #977059",
"< 	c #7C1E3F",
"[ 	c #A62757",
"} 	c #9A7660",
"| 	c #B98A6E",
"1 	c #895248",
"2 	c #372324",
"3 	c #493638",
"4 	c #522738",
"5 	c #9D7863",
"6 	c #B2866C",
"7 	c #A17A63",
"8 	c #0C3025",
"9 	c #044B3D",
"0 	c #27352C",
"a 	c #D6A080",
"b 	c #5A4236",
"c 	c #03241A",
"d 	c #04402F",
"e 	c #052A18",
"f 	c #886A58",
"g 	c #A9846C",
"h 	c #DFA581",
"i 	c #011209",
"j 	c #040D06",
"k 	c #836653",
"l 	c #A8795F",
"m 	c #D8A27F",
"n 	c #C89779",
"o 	c #4B2633",
"p 	c #431E2B",
"q 	c #1C0C13",
"r 	c #613140",
"s 	c #522435",
"t 	c #44222E",
"u 	c #5D3241",
"v 	c #4C2836",
"w 	c #552B3A",
"x 	c #2B1A28",
"y 	c #331C2A",
"z 	c #452331",
"A 	c #231623",
"B 	c #542936",
"C 	c #3E212D",
"D 	c #5B2D3C",
"E 	c #5F313F",
"F 	c #612F3E",
"G 	c #251728",
"H 	c #622C41",
"I 	c #271828",
"J 	c #3D1C2B",
"K 	c #14121C",
"L 	c #1E1320",
"M 	c #06070A",
"N 	c #080408",
"O 	c #13070B",
"P 	c #170D16",
"Q 	c #160E1A",
"R 	c #0E0A12",
"S 	c #210207",
"T 	c #290C18",
"U 	c #381422",
"V 	c #63313F",
"W 	c #22351F",
"X 	c #006B3B",
"Y 	c #00663C",
"Z 	c #52081D",
"` 	c #531B32",
" .	c #2C1523",
"..	c #24131D",
"+.	c #015029",
"@.	c #008146",
"#.	c #008847",
"$.	c #01743E",
"%.	c #295437",
"&.	c #3A312D",
"*.	c #003017",
"=.	c #008A4A",
"-.	c #007E46",
";.	c #008249",
">.	c #0B7343",
",.	c #373D3B",
"'.	c #351A26",
").	c #006835",
"!.	c #007C49",
"~.	c #016C49",
"{.	c #044B41",
"].	c #16232A",
"^.	c #004623",
"/.	c #093536",
"(.	c #0D2428",
"_.	c #A46B2E",
":.	c #6A4A21",
"<.	c #1E5027",
"[.	c #1B111B",
"}.	c #3C1D26",
"|.	c #A56B3B",
"1.	c #CA8143",
"2.	c #E29246",
"3.	c #007341",
"4.	c #017448",
"5.	c #025544",
"6.	c #113E34",
"7.	c #1B2428",
"8.	c #DF8D4F",
"9.	c #F19752",
"0.	c #D1794C",
"a.	c #013D2B",
"b.	c #A17857",
"c.	c #E38259",
"d.	c #BA5646",
"e.	c #18413F",
"f.	c #015448",
"g.	c #032325",
"h.	c #025A38",
"i.	c #034838",
"j.	c #D9E5DF",
"k.	c #9EA8AD",
"l.	c #B2C2B9",
"m.	c #C86C4C",
"n.	c #D96E5D",
"o.	c #B04C49",
"p.	c #015848",
"q.	c #053E36",
"r.	c #EFFAED",
"s.	c #EFF3F2",
"t.	c #BBC8D0",
"u.	c #99A6B1",
"v.	c #5F6767",
"w.	c #B45852",
"x.	c #C75E59",
"y.	c #A6474A",
"z.	c #1F3F3F",
"A.	c #C1CCD4",
"B.	c #3F4349",
"C.	c #023B23",
"D.	c #0C1415",
"E.	c #2D1926",
"                                                                                                    ",
"                                                                                                    ",
"                                                                                                    ",
"                                                                                                    ",
"                                                                                                    ",
"                                                                                                    ",
"                                                                                                    ",
"                                                                                                    ",
"                                                                                                    ",
"                                                                                                    ",
"                                                                                                    ",
"                                                                                                    ",
"                                                                                                    ",
"                                                                                                    ",
"                                                                                                    ",
"                                      . . + @ #                                                     ",
"                                  $ % # & * @ # &                                                   ",
"                                  $ = - ; $ > , ' )                                                 ",
"                                  ! ~ { $ ] ^ ; / (                                                 ",
"                                  _ : : ~ % < ( / [                                                 ",
"                                  } | | 1 * 2 3 4 (                                                 ",
"                                  5 | 6 7 2 8 9 0 {                                                 ",
"                                  } | a 6 b c d e                                                   ",
"                                  f g a h 7 ! i j                                                   ",
"                                  k k l m n 3 +                                                     ",
"                                        k b , o p                                                   ",
"                                          q 4 r s p                                                 ",
"                                          t u v w t q                                               ",
"                                          t r o x y >                                               ",
"                                          t u z A y B ,                                             ",
"                                          o u C A x D B >                                           ",
"                                          o E 2 A x w F v >                                         ",
"                                        ) B D x A G z D F 4 )                                       ",
"                                        # D w G A G x v D H t q                                     ",
"                                        { D v A A I G y J o B y                                     ",
"                                      * 2 r C K L I G L M . N N                                     ",
"                                      O t F , N P Q R . ) J t z                                     ",
"                                        p p q j + S ) T U D D V B                                   ",
"                                        @ W X Y W Z ; `  .o H r B ..                                ",
"                                        +.@.#.@.$.%.&.; J , w H 4 >                                 ",
"                                      *.$.=.-.@.;.;.>.,.J ..v D D '.                                ",
"                                      *.).#.@.@.!.!.~.{.].A o D V t q                               ",
"                                        ^.$.#.@.~.{./.(.K P C w D w >                               ",
"                                      _.:.<.$.;.~.9 ].[.q R , w D E }.                              ",
"                                  |.1.2.1.- ^.3.-.4.5.6.7.R ..z w r z O                             ",
"                                  |.8.9.0.,.d a.3.!.!.~.9 (.N P }.r o O                             ",
"                                  b.0.c.d.e.f.g.h.-.-.!.~.i.. q ..z w }.                            ",
"                        j.k.    l.g m.n.o.e.p./.i.-.-.!.~.q.. > p  .z 4 '.                          ",
"                      r.s.t.t.u.v.1 w.x.y.z.f.q.h.-.;.Y d c N ..t y ..'.t '.                        ",
"                            A.u.B.~ - - ' (.f.p.a.C.C.c D.P [. .E.E.[.[.E.E...                      "};
