/* XPM */
static char * jump_7_xpm[] = {
"50 50 522 2",
"  	c None",
". 	c #5B2621",
"+ 	c #2B141B",
"@ 	c #231115",
"# 	c #503A31",
"$ 	c #8B614D",
"% 	c #301920",
"& 	c #3C1F28",
"* 	c #502935",
"= 	c #40212A",
"- 	c #68453A",
"; 	c #C1775D",
"> 	c #A4674D",
", 	c #2E161C",
"' 	c #3F202A",
") 	c #502A35",
"! 	c #542C38",
"~ 	c #3D2029",
"{ 	c #210F13",
"] 	c #C2755F",
"^ 	c #DA9474",
"/ 	c #AE6E55",
"( 	c #2E151A",
"_ 	c #48252F",
": 	c #592F3C",
"< 	c #572E3A",
"[ 	c #3B1F28",
"} 	c #1B0F14",
"| 	c #8D5140",
"1 	c #DF9A7D",
"2 	c #D68F75",
"3 	c #783729",
"4 	c #251318",
"5 	c #492530",
"6 	c #5B303D",
"7 	c #4F2834",
"8 	c #341921",
"9 	c #372523",
"0 	c #775345",
"a 	c #9A6D5A",
"b 	c #9D735E",
"c 	c #5D463A",
"d 	c #160B0E",
"e 	c #3E2029",
"f 	c #572D3A",
"g 	c #562D3A",
"h 	c #3A1E26",
"i 	c #0C1618",
"j 	c #15272F",
"k 	c #112E38",
"l 	c #373C3A",
"m 	c #7F6454",
"n 	c #6F5546",
"o 	c #2E1821",
"p 	c #4D2833",
"q 	c #5A2F3C",
"r 	c #4F2934",
"s 	c #221317",
"t 	c #040708",
"u 	c #040A09",
"v 	c #0B1416",
"w 	c #14262D",
"x 	c #17323A",
"y 	c #0A4647",
"z 	c #004B45",
"A 	c #665D4F",
"B 	c #896B58",
"C 	c #78473B",
"D 	c #000000",
"E 	c #24131F",
"F 	c #502A37",
"G 	c #5A2F3D",
"H 	c #482632",
"I 	c #0F1B1B",
"J 	c #022524",
"K 	c #0A1516",
"L 	c #14232A",
"M 	c #17343E",
"N 	c #16373E",
"O 	c #074D4C",
"P 	c #004F4A",
"Q 	c #44463D",
"R 	c #C3947B",
"S 	c #896856",
"T 	c #684E3F",
"U 	c #7A5C4B",
"V 	c #795B4A",
"W 	c #755847",
"X 	c #705242",
"Y 	c #714B38",
"Z 	c #B9886D",
"` 	c #DA977D",
" .	c #29151C",
"..	c #4F2A37",
"+.	c #5A303D",
"@.	c #582E3B",
"#.	c #3B2830",
"$.	c #063836",
"%.	c #023230",
"&.	c #0A1619",
"*.	c #16272F",
"=.	c #173640",
"-.	c #0E4348",
";.	c #005753",
">.	c #004F4C",
",.	c #29423C",
"'.	c #AE846D",
").	c #997560",
"!.	c #8F6C58",
"~.	c #A27C66",
"{.	c #D3A286",
"].	c #EBB494",
"^.	c #EAB394",
"/.	c #D6A487",
"(.	c #C8967A",
"_.	c #BD7B5B",
":.	c #CC8D65",
"<.	c #E5A083",
"[.	c #D2876F",
"}.	c #22121A",
"|.	c #462633",
"1.	c #552D39",
"2.	c #1B2A27",
"3.	c #00453B",
"4.	c #022E25",
"5.	c #000F15",
"6.	c #001823",
"7.	c #002430",
"8.	c #003037",
"9.	c #004240",
"0.	c #1B4642",
"a.	c #4E4940",
"b.	c #624D40",
"c.	c #977460",
"d.	c #A9816A",
"e.	c #B1876F",
"f.	c #CB9B7F",
"g.	c #BE9177",
"h.	c #9D7863",
"i.	c #A9816B",
"j.	c #A7806A",
"k.	c #514237",
"l.	c #5A1400",
"m.	c #944F37",
"n.	c #AF7258",
"o.	c #BD735E",
"p.	c #1A0D15",
"q.	c #3C212F",
"r.	c #562D39",
"s.	c #42242E",
"t.	c #16322E",
"u.	c #00503E",
"v.	c #273B29",
"w.	c #6E343B",
"x.	c #9A6655",
"y.	c #9F7863",
"z.	c #9F7A65",
"A.	c #A37E67",
"B.	c #B08870",
"C.	c #D0A084",
"D.	c #DAA78A",
"E.	c #D5A286",
"F.	c #AE856E",
"G.	c #96725D",
"H.	c #8E5346",
"I.	c #180C16",
"J.	c #3A1F2B",
"K.	c #4C2934",
"L.	c #2A1920",
"M.	c #0D3733",
"N.	c #005441",
"O.	c #404130",
"P.	c #B25855",
"Q.	c #D77C6B",
"R.	c #EBA98D",
"S.	c #F3BA99",
"T.	c #F4BB9A",
"U.	c #F5B898",
"V.	c #EFA389",
"W.	c #C4846F",
"X.	c #97705C",
"Y.	c #71453B",
"Z.	c #34181A",
"`.	c #010100",
" +	c #160B14",
".+	c #2C1826",
"++	c #3C212B",
"@+	c #1F141D",
"#+	c #0E3433",
"$+	c #01624B",
"%+	c #155A39",
"&+	c #7E453C",
"*+	c #CD685F",
"=+	c #DD7E6E",
"-+	c #E79681",
";+	c #E9A48A",
">+	c #BC7965",
",+	c #8E5145",
"'+	c #783B37",
")+	c #964A45",
"!+	c #55302D",
"~+	c #201115",
"{+	c #1F1019",
"]+	c #231422",
"^+	c #2A1726",
"/+	c #1A111B",
"(+	c #0E3532",
"_+	c #02664B",
":+	c #005F3C",
"<+	c #6E4334",
"[+	c #C56559",
"}+	c #B35B52",
"|+	c #844F3E",
"1+	c #824A41",
"2+	c #7B3F39",
"3+	c #8A453F",
"4+	c #7E403B",
"5+	c #503835",
"6+	c #183936",
"7+	c #041F1F",
"8+	c #22070D",
"9+	c #6A1635",
"0+	c #AE2F55",
"a+	c #29151B",
"b+	c #46242E",
"c+	c #391E26",
"d+	c #21121B",
"e+	c #261524",
"f+	c #141017",
"g+	c #0C3032",
"h+	c #04574C",
"i+	c #006C48",
"j+	c #264B34",
"k+	c #522A25",
"l+	c #68312E",
"m+	c #814137",
"n+	c #964B45",
"o+	c #8A4640",
"p+	c #433230",
"q+	c #1C3D3B",
"r+	c #094C49",
"s+	c #01534F",
"t+	c #003835",
"u+	c #46151E",
"v+	c #65172E",
"w+	c #941E43",
"x+	c #9C2148",
"y+	c #633033",
"z+	c #152316",
"A+	c #43232D",
"B+	c #592F3B",
"C+	c #522B38",
"D+	c #2C171E",
"E+	c #221320",
"F+	c #180E17",
"G+	c #0D1C21",
"H+	c #0A4343",
"I+	c #006F4D",
"J+	c #00623A",
"K+	c #6C4433",
"L+	c #7B3C3A",
"M+	c #271719",
"N+	c #081A1E",
"O+	c #043432",
"P+	c #014F4B",
"Q+	c #005652",
"R+	c #033735",
"S+	c #00110C",
"T+	c #371614",
"U+	c #551D27",
"V+	c #781A3C",
"W+	c #871A3E",
"X+	c #7F223F",
"Y+	c #434840",
"Z+	c #0C432B",
"`+	c #0B1312",
" @	c #311A21",
".@	c #4B2833",
"+@	c #582F3B",
"@@	c #371D29",
"#@	c #1E101B",
"$@	c #1C101B",
"%@	c #0A1416",
"&@	c #083A37",
"*@	c #03674A",
"=@	c #007B4B",
"-@	c #005C36",
";@	c #002D1B",
">@	c #111E22",
",@	c #163038",
"'@	c #114345",
")@	c #094D4B",
"!@	c #04504F",
"~@	c #04504E",
"{@	c #094343",
"]@	c #092325",
"^@	c #261111",
"/@	c #3A191D",
"(@	c #441622",
"_@	c #491620",
":@	c #361920",
"<@	c #1C2F1F",
"[@	c #0E2E1E",
"}@	c #131414",
"|@	c #30241E",
"1@	c #3B2D25",
"2@	c #1E0D13",
"3@	c #381F27",
"4@	c #3B202A",
"5@	c #3B2129",
"6@	c #44242E",
"7@	c #3B2029",
"8@	c #3D212A",
"9@	c #542D39",
"0@	c #412432",
"a@	c #281623",
"b@	c #1D101B",
"c@	c #140E14",
"d@	c #0D2429",
"e@	c #0B4C44",
"f@	c #01724C",
"g@	c #007A49",
"h@	c #01613A",
"i@	c #062B1D",
"j@	c #0E151D",
"k@	c #16252E",
"l@	c #153138",
"m@	c #143B41",
"n@	c #153B42",
"o@	c #10252C",
"p@	c #170809",
"q@	c #3F1A19",
"r@	c #522120",
"s@	c #431821",
"t@	c #2A1017",
"u@	c #17040B",
"v@	c #4E3B30",
"w@	c #B48A71",
"x@	c #A88069",
"y@	c #412C2B",
"z@	c #4C2834",
"A@	c #522C38",
"B@	c #572E3B",
"C@	c #532C38",
"D@	c #542C3A",
"E@	c #482735",
"F@	c #391F2E",
"G@	c #2B1827",
"H@	c #180D18",
"I@	c #000007",
"J@	c #000208",
"K@	c #001F20",
"L@	c #003F2A",
"M@	c #004A2A",
"N@	c #004F2E",
"O@	c #005E37",
"P@	c #025331",
"Q@	c #061513",
"R@	c #0A0B14",
"S@	c #0C161F",
"T@	c #101A22",
"U@	c #0C0404",
"V@	c #30121A",
"W@	c #401A23",
"X@	c #32141A",
"Y@	c #251818",
"Z@	c #785C4D",
"`@	c #E0AB8D",
" #	c #E7B091",
".#	c #D9A688",
"+#	c #846451",
"@#	c #341C20",
"##	c #512A36",
"$#	c #4F2A36",
"%#	c #4E2A36",
"&#	c #552D3A",
"*#	c #4C2937",
"=#	c #3F2230",
"-#	c #321B2B",
";#	c #291626",
">#	c #241423",
",#	c #40291E",
"'#	c #A1664C",
")#	c #C76F61",
"!#	c #B65A54",
"~#	c #9B484F",
"{#	c #803C40",
"]#	c #302F2A",
"^#	c #045F46",
"/#	c #007448",
"(#	c #006F42",
"_#	c #00673D",
":#	c #01492B",
"<#	c #090304",
"[#	c #311317",
"}#	c #3C181D",
"|#	c #36241F",
"1#	c #947A6C",
"2#	c #C3A190",
"3#	c #FCC1A0",
"4#	c #A37C66",
"5#	c #281E18",
"6#	c #2C131A",
"7#	c #492632",
"8#	c #371D26",
"9#	c #2E181F",
"0#	c #391F2C",
"a#	c #3A202C",
"b#	c #321B2A",
"c#	c #2A1827",
"d#	c #22131F",
"e#	c #1D0F1B",
"f#	c #160C15",
"g#	c #422B1A",
"h#	c #BC8051",
"i#	c #F4A36A",
"j#	c #E08566",
"k#	c #C2625E",
"l#	c #974948",
"m#	c #3C2227",
"n#	c #04322D",
"o#	c #004837",
"p#	c #024F2F",
"q#	c #013E25",
"r#	c #421C1B",
"s#	c #3B181A",
"t#	c #694F41",
"u#	c #B58A72",
"v#	c #C99A7F",
"w#	c #EFB697",
"x#	c #E5AF90",
"y#	c #93705C",
"z#	c #1F0F14",
"A#	c #42242D",
"B#	c #562E3A",
"C#	c #492732",
"D#	c #28161C",
"E#	c #110E12",
"F#	c #130B0F",
"G#	c #130B10",
"H#	c #0D070A",
"I#	c #22160C",
"J#	c #64452B",
"K#	c #865C38",
"L#	c #805536",
"M#	c #7B4935",
"N#	c #5F332B",
"O#	c #261212",
"P#	c #0B0405",
"Q#	c #150F0C",
"R#	c #261C17",
"S#	c #291F19",
"T#	c #2C221B",
"U#	c #2B211B",
"V#	c #261D18",
"W#	c #2B1E1D",
"X#	c #4D2A35",
"Y#	c #2B151C",
"Z#	c #1A0B10",
"`#	c #94663F",
" $	c #C88954",
".$	c #C68954",
"+$	c #C78954",
"@$	c #A06145",
"#$	c #45221F",
"$$	c #2F1923",
"%$	c #522B37",
"&$	c #43222C",
"*$	c #361A23",
"=$	c #1B1008",
"-$	c #281B10",
";$	c #000508",
">$	c #412C1C",
",$	c #352214",
"'$	c #0B0603",
")$	c #301922",
"!$	c #4A2735",
"~$	c #5B2F3C",
"{$	c #532B37",
"]$	c #42222C",
"^$	c #3C202A",
"/$	c #301F10",
"($	c #432F1E",
"_$	c #926E5A",
":$	c #916B53",
"<$	c #63442F",
"[$	c #20111C",
"}$	c #3D212D",
"|$	c #522C39",
"1$	c #492631",
"2$	c #2F1921",
"3$	c #000008",
"4$	c #B98D74",
"5$	c #7E604F",
"6$	c #1A0E17",
"7$	c #2F1526",
"8$	c #3B1C2D",
"9$	c #462634",
"0$	c #492836",
"a$	c #442532",
"b$	c #48322E",
"c$	c #986F5B",
"d$	c #9D6E59",
"e$	c #5D473A",
"f$	c #15141A",
"g$	c #251A26",
"h$	c #2D1929",
"i$	c #1E101A",
"j$	c #1F1413",
"k$	c #493328",
"l$	c #55382C",
"m$	c #211320",
"n$	c #251524",
"o$	c #1D0F1A",
"p$	c #140A0E",
"q$	c #11080B",
"r$	c #080404",
"s$	c #140911",
"t$	c #13090D",
"u$	c #10080A",
"v$	c #020202",
"w$	c #010101",
"                                                        .                                           ",
"                                                    + @ # $                                         ",
"                                                % & * = - ; >                                       ",
"                                            , ' ) ! ~ {   ] ^ /                                     ",
"                                          ( _ : < [ }     | 1 2 3                                   ",
"                                        4 5 : 6 7 8       9 0 a b c                                 ",
"                                      d e f 6 g h       i j k l m n                                 ",
"                                      o p q 6 r s t u v w x y z A B                         C       ",
"                                    D E F 6 G H I J K L M N O P Q R S         T U V W X Y Z `       ",
"                                    D  ...+.@.#.$.%.&.*.=.-.;.>.,.'.).    !.~.{.].^./.(._.:.<.[.    ",
"                                    D }.|.: 1.2.3.4.5.6.7.8.9.0.a.b.c.d.e.f.g.h.i.j.k.D D l.m.n.o.  ",
"                                    D p.q.r.s.t.u.v.w.x.y.z.A.B.C.D.E.F.G.                      H.  ",
"                                    D I.J.K.L.M.N.O.P.Q.R.S.T.U.V.W.X.Y.Z.                          ",
"                                    `. +.+++@+#+$+%+&+*+=+-+;+>+,+'+)+!+                            ",
"                                    ~+{+]+^+/+(+_+:+<+[+}+|+1+2+3+4+5+6+7+                          ",
"      8+9+0+                      a+b+c+d+e+f+g+h+i+j+k+l+m+n+o+p+q+r+s+t+                          ",
"    u+v+w+x+y+z+                  A+B+C+D+E+F+G+H+I+J+K+L+M+N+O+P+Q+Q+s+R+S+                        ",
"  T+U+V+W+X+Y+Z+`+            ~+ @.@+@1.@@#@$@%@&@*@=@-@;@>@,@'@)@!@~@{@]@                          ",
"  ^@/@(@_@:@<@[@}@|@1@2@3@4@5@6@7@8@! 9@0@a@b@c@d@e@f@g@h@i@j@k@l@m@n@o@                            ",
"  p@q@r@s@t@u@D v@w@x@y@z@A@B@G ! C@D@E@F@G@H@I@J@K@L@M@N@O@P@Q@R@S@T@                              ",
"  U@V@W@X@Y@Z@`@ #.#+#@###$#%#g &#*#=#-#;#>#,#'#)#!#~#{#]#^#/#(#_#:#                                ",
"  <#[#}#|#1#2#3#T.4#5#6#7#8#9#0#a#b#c#d#e#f#g#h#i#j#k#l#m#n#o#p#q#                                  ",
"    r#s#t#u#v#w#x#y#  z#A#B#C#D#E#F#G#H#    I#J#K#L#M#N#O#                                          ",
"      P#Q#R#S#T#U#V#    W#X#: .@Y#Z#          `# $.$+$@$#$                                          ",
"                          $$%$6 r.&$*$        =$-$;$>$,$'$                                          ",
"                            )$!$r.~${$]$^$    /$($_$:$<$                                            ",
"                              [$}$!$|$: A@1$2$3$n 4$5$                                              ",
"                                6$7$8$9$0$a$b$c$d$e$                                                ",
"                                  f$g$h$^+i$j$k$l$                                                  ",
"                                    m$n$o$p$q$r$                                                    ",
"                                    s$I.t$u$v$                                                      ",
"                                      w$w$w$                                                        ",
"                                                                                                    ",
"                                                                                                    ",
"                                                                                                    ",
"                                                                                                    ",
"                                                                                                    ",
"                                                                                                    ",
"                                                                                                    ",
"                                                                                                    ",
"                                                                                                    ",
"                                                                                                    ",
"                                                                                                    ",
"                                                                                                    ",
"                                                                                                    ",
"                                                                                                    ",
"                                                                                                    ",
"                                                                                                    ",
"                                                                                                    ",
"                                                                                                    "};
