/* XPM */
static char * attack_4_xpm[] = {
"43 31 6 1",
" 	c None",
".	c #D22F1E",
"+	c #000000",
"@	c #FF8142",
"#	c #222A5C",
"$	c #38002C",
"         .        ++ ++                    ",
"                 +.+ +@+                   ",
"   ..            +.+ +@+                   ",
"   ..           +.+++@@+                   ",
"     .         +.#####@+                   ",
"              +#######@+                   ",
"             +++#######+                   ",
"             +++@@@####+                   ",
"             +@@@@@@####+                  ",
"              ++++@@####+                  ",
"                 +@@####+                  ",
"    ..           +@@####+                  ",
"   ..           +@@######+           ++    ",
"                +@@#######++++++    +##+   ",
"                +@@#############+++++##+   ",
"       .        +@#####################+   ",
"       .        +#####################+    ",
"               +$.####@###############+    ",
"               +$.###@@###############+    ",
"               +$..##@@###############+    ",
"               +$$.##@#################+   ",
"               +$$$+++########++$$#####+   ",
"               +$$$+ +###+++++  +$$#####+  ",
"               +$$$+ +###+       +$$#####+ ",
"               +$$$+  +##+       +$$++@##+ ",
"               +$$+   +#@+       +$$+ +@##+",
"               +.$+   +#@+       +.$+  +@#+",
"               +..+   +@@+       +..+  +@+ ",
"               +..+   +@@+      +...+ +@@+ ",
"               +..+   +@@+      +..+  +@@+ ",
"               +..+   +@@+      +..+  +@@+ "};
