/* XPM */
static char * death_4_xpm[] = {
"37 24 6 1",
" 	c None",
".	c #000000",
"+	c #D22F1E",
"@	c #FF8142",
"#	c #222A5C",
"$	c #38002C",
"     ..  ..                          ",
"    .+. .@.                          ",
"   .+. .@.                           ",
"  .++..@@.                           ",
"  .+#####@.                          ",
"  .######@.                          ",
" .#########.                         ",
"...#@@######..                       ",
"...@@@@#######....              ..   ",
".@@@@@@@##########.......     ..##.  ",
" ....@@@@################.....####.  ",
"     ..@@#######################..   ",
"       .@@#####################.     ",
"        .$#####################.     ",
"        .$+####@###############.     ",
"        .$+###@@###############.     ",
"        .$$+##@#################.    ",
"        .$$$...########..$$######.   ",
"        .$$$. .###.....  .$$######.  ",
"        .$$.   .##.       .$$#####.  ",
"        .$++.  .@@.        .$+..##@. ",
"         .++.   .@@.       .++. .@@. ",
"         .+++.  .@@@.      .++. .@@@.",
"          .++.   .@@.      .++.  .@@."};
