/* XPM */
static char * death_5_xpm[] = {
"43 31 5 1",
" 	c None",
".	c #000000",
"+	c #D22F1E",
"@	c #FF8142",
"#	c #222A5C",
"                                           ",
"                                           ",
"                                           ",
"                                           ",
"                                           ",
"                                           ",
"                                           ",
"                                           ",
"                                           ",
"                                           ",
"                                           ",
"                                           ",
"                                           ",
"                                           ",
"                                           ",
"                                           ",
"                                           ",
"                                           ",
"                                           ",
"                                           ",
"     ..  ..                                ",
"    .+. .@.                                ",
"   .+. .@.      ....                       ",
"  .++..@@.    ..####...       ..           ",
"  .######.  ..#########...  ..##.          ",
" .########..##############..####.          ",
"...##@@########################.           ",
"...@@@@@@@#####################...         ",
".@@@@@@@@@@#########@....#########........ ",
" ........@@@@@####@@@@@@@.#######@###@@@@. ",
"         .....######@@@@@.....####@@@@@@@. "};
